; HEADER_BLOCK_START
; generated by OrcaSlicer 2.0.0 on 2024-05-16 at 10:55:07
; total layer number: 11
; filament_density: 1.24
; filament_diameter: 1.75
; max_z_height: 2.20
; HEADER_BLOCK_END

; THUMBNAIL_BLOCK_START

;
; THUMBNAIL_BLOCK_END

; THUMBNAIL_BLOCK_START

;
; THUMBNAIL_BLOCK_END

; external perimeters extrusion width = 0.45mm
; perimeters extrusion width = 0.45mm
; infill extrusion width = 0.45mm
; solid infill extrusion width = 0.45mm
; top infill extrusion width = 0.40mm

; EXECUTABLE_BLOCK_START
M73 P0 R70
M73 C51
M201 X5000 Y5000 Z500 E5000
M203 X500 Y500 Z30 E100
M204 P5000 R2500 T5000 ; sets acceleration (P, T) and retract acceleration (R), mm/sec^2
M205 X10.00 Y10.00 Z0.40 E5.00 ; sets the jerk limits, mm/sec
;TYPE:Custom
M220 S100 ;Reset Feedrate 
M221 S100 ;Reset Flowrate 
 
M140 S55 ;Set final bed temp 
G28 ;Home 
M420 S1; Enable mesh leveling 
G92 E0 ;Reset Extruder 
G1 Z2.0 F3000 ;Move Z Axis up 
M104 S220 ;Set final nozzle temp 
G1 X-2.1 Y20 Z0.28 F5000.0 ;Move to start position 
M190 S55 ;Wait for bed temp to stabilize 
M109 S220 ;Wait for nozzle temp to stabilize 
G1 X-2.1 Y145.0 Z0.28 F1500.0 E15 ;Draw the first line 
G1 X-2.4 Y145.0 Z0.28 F5000.0 ;Move to side a little 
G1 X-2.4 Y20 Z0.28 F1500.0 E30 ;Draw the second line 
G92 E0  ;Reset Extruder 
G1 E-1.0000 F1800 ;Retract a bit 
G1 Z2.0 F3000 ;Move Z Axis up 
G1 E0.0000 F1800
G90
G21
M83 ; use relative distances for extrusion
; filament start gcode
M106 S0
;LAYER_CHANGE
;Z:0.2
;HEIGHT:0.2
;BEFORE_LAYER_CHANGE
;0.2
G92 E0

G1 E-1.2 F1800
;_SET_FAN_SPEED_CHANGING_LAYER
M204 P300
M204 T300
G1 Z.4 F7200
G1 X53.126 Y93.862
G1 Z.4
G1 Z.2
G1 E1.2 F1800
;TYPE:Skirt
;WIDTH:0.45
G1 F3000
G1 X57.418 Y91.542 E.16184
G1 X59.129 Y90.811 E.06172
G1 X62.995 Y89.484 E.13561
G1 X64.845 Y88.987 E.06354
G1 X70.123 Y88.001 E.1781
G1 X75.945 Y87.608 E.19357
G1 X147.637 Y87.601 E2.37816
G1 X153.725 Y87.979 E.20232
G1 X159.113 Y88.974 E.18175
G1 X160.894 Y89.439 E.06106
G1 X164.896 Y90.811 E.14033
G1 X166.666 Y91.572 E.06391
G1 X170.966 Y93.905 E.16228
G1 X174.413 Y96.551 E.14414
G1 X175.182 Y97.237 E.0342
G1 X177.772 Y100.272 E.13234
G1 X178.298 Y100.995 E.02966
G1 X178.785 Y101.84 E.03235
G1 X180.076 Y104.576 E.10037
G1 X180.381 Y105.398 E.02907
G1 X180.602 Y106.32 E.03147
G1 X181.053 Y109.319 E.10058
G1 X181.042 Y110.781 E.0485
G1 X180.591 Y113.744 E.09943
G1 X180.357 Y114.678 E.03194
G1 X180.039 Y115.504 E.02936
G1 X178.557 Y118.587 E.11348
G1 X177.859 Y119.619 E.04132
G1 X175.764 Y122.141 E.10877
G1 X174.454 Y123.416 E.06063
G1 X170.827 Y126.184 E.15135
G1 X166.094 Y128.703 E.17786
G1 X164.896 Y129.188 E.04287
G1 X161.029 Y130.517 E.13565
G1 X159.121 Y131.025 E.06549
G1 X154.089 Y131.975 E.16985
G1 X148.149 Y132.391 E.19752
G1 X76.469 Y132.399 E2.37778
G1 X70.061 Y131.991 E.21298
G1 X63.967 Y130.803 E.20597
G1 X59.129 Y129.189 E.16919
G1 X57.36 Y128.428 E.06387
G1 X53.97 Y126.641 E.12712
G1 X52.978 Y126.041 E.03845
G1 X48.961 Y122.877 E.16963
G1 X40.773 Y114.511 E.38831
G1 X39.874 Y113.357 E.04853
G1 X39.504 Y112.665 E.02601
G1 X39.096 Y111.479 E.04162
G1 X38.927 Y110.236 E.04162
G1 X39.004 Y108.984 E.04162
G1 X39.323 Y107.771 E.04162
G1 X40.136 Y106.251 E.05717
G1 X40.773 Y105.489 E.03294
G1 X49.259 Y96.849 E.40171
G1 X53.094 Y93.887 E.16076
; printing object vetera_3_join.stl id:15 copy 0
G1 E-.84 F1800
;WIPE_START
G1 F3000
G1 X53.973 Y93.41 E-.36
;WIPE_END
G1 Z.6 F7200
G1 X116.783 Y106.286 Z.6
G1 Z.2
M73 C50
G1 E1.2 F1800
;TYPE:Outer wall
;WIDTH:0.505348
G1 X116.981 Y106.31 E.00749
G1 X116.983 Y107.362 F7200
;TYPE:Inner wall
;WIDTH:0.53328
G1 F1800
G1 X117.136 Y107.309 E.00646
;WIDTH:0.49164
G1 X117.362 Y107.232 E.00875
;WIDTH:0.449999
G1 X117.551 Y107.001 E.0099
G1 X117.637 Y106.627 E.01274
G1 X117.593 Y106.375 E.00847
G1 X117.831 Y105.772 E.02151
G1 X119.063 Y103.166 E.09561
G1 X119.354 Y102.683 E.01869
G1 X119.659 Y102.239 E.0179
G1 X121.673 Y99.818 E.10445
G1 X122.075 Y99.391 E.01946
G1 X122.549 Y98.963 E.02119
G1 X125.34 Y96.777 E.11759
G1 X125.892 Y96.396 E.02226
G1 X126.489 Y96.039 E.02306
G1 X129.646 Y94.375 E.11837
G1 X130.519 Y93.957 E.0321
G1 X131.217 Y93.681 E.0249
G1 X135.003 Y92.381 E.13278
G1 X135.81 Y92.141 E.02794
G1 X136.586 Y91.956 E.02646
G1 X140.698 Y91.154 E.13896
G1 X141.566 Y91.019 E.02914
G1 X142.386 Y90.935 E.02735
G1 X146.659 Y90.664 E.14205
G1 X148.039 Y90.647 E.04577
G1 X152.729 Y90.935 E.15586
G1 X153.384 Y90.999 E.02183
G1 X154.357 Y91.143 E.03264
G1 X158.468 Y91.944 E.13894
G1 X159.228 Y92.121 E.02586
G1 X159.998 Y92.344 E.0266
G1 X163.896 Y93.681 E.13669
G1 X164.597 Y93.958 E.02501
G1 X165.262 Y94.268 E.02433
G1 X168.671 Y96.066 E.12787
G1 X169.277 Y96.432 E.02347
G1 X169.81 Y96.807 E.02163
G1 X172.274 Y98.736 E.10379
G1 X172.883 Y99.256 E.02657
G1 X173.41 Y99.783 E.02472
G1 X175.421 Y102.2 E.10431
G1 X175.777 Y102.693 E.02019
G1 X176.047 Y103.161 E.0179
G1 X177.358 Y105.938 E.10188
G1 X177.602 Y106.806 E.0299
G1 X177.977 Y109.255 E.08217
G1 X178.033 Y109.879 E.02081
G1 X178.017 Y110.482 E.02
G1 X177.602 Y113.193 E.09097
G1 X177.475 Y113.713 E.01778
G1 X177.281 Y114.229 E.01827
G1 X176.05 Y116.834 E.09559
G1 X175.759 Y117.317 E.01869
G1 X175.453 Y117.761 E.0179
G1 X173.44 Y120.182 E.10445
G1 X173.037 Y120.609 E.01945
G1 X172.563 Y121.037 E.02119
G1 X169.772 Y123.223 E.1176
G1 X169.22 Y123.604 E.02226
G1 X168.623 Y123.96 E.02306
G1 X165.212 Y125.758 E.12791
G1 X164.529 Y126.07 E.02491
G1 X163.842 Y126.338 E.02445
G1 X160.057 Y127.637 E.13277
G1 X159.149 Y127.899 E.03135
G1 X158.528 Y128.044 E.02114
G1 X154.413 Y128.846 E.13906
G1 X153.71 Y128.959 E.02362
G1 X152.725 Y129.065 E.03286
G1 X148.388 Y129.34 E.14418
G1 X147.556 Y129.36 E.02758
G1 X146.725 Y129.34 E.02758
G1 X142.386 Y129.065 E.14423
G1 X141.565 Y128.98 E.02737
G1 X140.757 Y128.857 E.02711
G1 X136.524 Y128.031 E.14306
G1 X135.81 Y127.859 E.02436
G1 X135.057 Y127.638 E.02603
G1 X131.216 Y126.319 E.13472
G1 X130.585 Y126.071 E.02249
G1 X129.85 Y125.732 E.02686
G1 X126.487 Y123.96 E.12608
G1 X126.006 Y123.677 E.01851
G1 X125.522 Y123.355 E.01929
G1 X122.588 Y121.068 E.1234
G1 X122.118 Y120.651 E.02083
G1 X121.701 Y120.215 E.02002
G1 X119.815 Y117.949 E.09782
G1 X119.482 Y117.513 E.0182
G1 X119.085 Y116.878 E.02483
G1 X117.814 Y114.191 E.0986
G1 X117.556 Y113.56 E.0226
G1 X117.337 Y113.371 E.00961
;WIDTH:0.49153
G1 X117.25 Y113.334 E.00344
;WIDTH:0.533061
G1 X117.164 Y113.298 E.00375
;WIDTH:0.574592
G1 X117.077 Y113.261 E.00407
;WIDTH:0.616122
G1 X116.991 Y113.224 E.00439
G1 X116.832 Y113.243 E.00747
;WIDTH:0.609567
G1 X116.287 Y113.273 E.02522
G1 X115.651 Y113.186 E.02964
G1 X115.044 Y112.976 E.02965
G1 X114.489 Y112.653 E.02964
G1 X114.009 Y112.227 E.02964
G1 X113.62 Y111.716 E.02964
G1 X113.339 Y111.139 E.02964
G1 X113.18 Y110.52 E.0295
G1 X113.137 Y109.877 E.02975
G1 X113.224 Y109.241 E.02964
G1 X113.434 Y108.634 E.02964
G1 X113.757 Y108.079 E.02964
G1 X114.183 Y107.599 E.02964
G1 X114.694 Y107.211 E.02964
;WIDTH:0.61191
G1 X115.153 Y106.966 E.02411
G1 X115.651 Y106.814 E.02411
;WIDTH:0.610545
G1 X116.104 Y106.746 E.02119
G1 X116.122 Y106.95 E.00949
G1 X116.343 Y107.235 E.01663
;WIDTH:0.598588
G1 X116.49 Y107.288 E.0071
;WIDTH:0.571928
G1 X116.638 Y107.341 E.00676
;WIDTH:0.576633
G1 X116.449 Y107.309 E.00832
;WIDTH:0.610545
G1 X115.948 Y107.33 E.02321
G1 X115.436 Y107.472 E.02457
;WIDTH:0.609568
G1 X114.961 Y107.71 E.02453
G1 X114.542 Y108.037 E.02452
G1 X114.195 Y108.439 E.02453
G1 X113.933 Y108.901 E.02453
G1 X113.766 Y109.405 E.02453
G1 X113.701 Y109.932 E.02453
G1 X113.742 Y110.468 E.0248
G1 X113.882 Y110.974 E.02424
G1 X114.12 Y111.449 E.02453
G1 X114.447 Y111.867 E.02453
G1 X114.849 Y112.215 E.02453
G1 X115.311 Y112.477 E.02453
G1 X115.815 Y112.643 E.02453
G1 X116.342 Y112.709 E.02453
;WIDTH:0.616122
G1 X116.888 Y112.662 E.02561
G1 X116.957 Y112.597 E.00439
;WIDTH:0.574592
G1 X117.025 Y112.532 E.00407
;WIDTH:0.533061
G1 X117.093 Y112.468 E.00375
;WIDTH:0.49153
G1 X117.161 Y112.403 E.00344
;WIDTH:0.449999
G1 X117.299 Y112.148 E.00961
G1 X117.313 Y111.901 E.0082
G1 X117.129 Y110.701 E.04027
G1 X117.068 Y110 E.02335
G1 X117.129 Y109.299 E.02335
G1 X117.321 Y108.047 E.04199
G1 X117.249 Y107.723 E.011
;WIDTH:0.49164
G1 X117.079 Y107.555 E.00875
;WIDTH:0.53328
G1 X116.909 Y107.387 E.00956
G1 X116.945 Y107.375 E.0015
G1 X116.92 Y106.933 F7200
;TYPE:Outer wall
;WIDTH:0.449999
G1 F1800
G1 X117.12 Y106.904 E.00671
G1 X117.177 Y106.84 E.00285
G1 X117.225 Y106.548 E.0098
;WIDTH:0.484157
G1 X117.111 Y106.393 E.00695
;WIDTH:0.505348
G1 X116.981 Y106.31 E.0058
G1 X117.116 Y106.298 E.00513
;WIDTH:0.484157
G1 X117.249 Y106.158 E.00695
;WIDTH:0.449999
G1 X117.457 Y105.612 E.01936
G1 X118.703 Y102.973 E.09682
G1 X119.005 Y102.473 E.01937
G1 X119.339 Y101.987 E.01957
G1 X121.368 Y99.548 E.10524
G1 X121.79 Y99.1 E.02043
G1 X122.287 Y98.651 E.02221
G1 X125.099 Y96.45 E.11846
G1 X125.672 Y96.053 E.02312
G1 X126.29 Y95.684 E.02388
G1 X129.463 Y94.011 E.11899
G1 X130.356 Y93.584 E.03283
G1 X131.076 Y93.299 E.02568
G1 X134.879 Y91.993 E.13337
G1 X135.705 Y91.747 E.02859
G1 X136.5 Y91.558 E.02711
G1 X140.627 Y90.753 E.1395
G1 X141.514 Y90.616 E.02975
G1 X142.352 Y90.529 E.02796
G1 X146.644 Y90.257 E.14266
G1 X148.049 Y90.24 E.04661
G1 X152.761 Y90.529 E.1566
G1 X153.433 Y90.595 E.0224
G1 X154.426 Y90.742 E.03328
G1 X158.553 Y91.546 E.13949
G1 X159.33 Y91.727 E.02646
G1 X160.12 Y91.955 E.02728
G1 X164.037 Y93.299 E.13734
G1 X164.757 Y93.584 E.02571
G1 X165.443 Y93.903 E.02507
G1 X168.872 Y95.711 E.12861
G1 X169.499 Y96.091 E.02433
G1 X170.053 Y96.48 E.02244
G1 X172.784 Y98.618 E.11506
G1 X173.369 Y99.145 E.02611
G1 X173.715 Y99.513 E.01674
G1 X175.743 Y101.95 E.10519
G1 X176.119 Y102.472 E.02133
G1 X176.408 Y102.971 E.01914
G1 X177.691 Y105.69 E.0997
G1 X177.88 Y106.218 E.01861
G1 X178.001 Y106.728 E.0174
G1 X178.379 Y109.193 E.08272
G1 X178.44 Y109.86 E.02223
G1 X178.422 Y110.527 E.02212
G1 X178.001 Y113.272 E.09212
G1 X177.864 Y113.834 E.01918
G1 X177.656 Y114.388 E.01963
G1 X176.409 Y117.027 E.09682
G1 X176.107 Y117.527 E.01937
G1 X175.774 Y118.013 E.01957
G1 X173.745 Y120.452 E.10524
G1 X173.322 Y120.9 E.02042
G1 X172.825 Y121.349 E.02221
G1 X170.014 Y123.55 E.11846
G1 X169.441 Y123.947 E.02311
G1 X168.822 Y124.316 E.02388
G1 X165.392 Y126.123 E.12864
G1 X164.688 Y126.445 E.02568
G1 X163.982 Y126.72 E.02511
G1 X160.179 Y128.025 E.13338
G1 X159.251 Y128.293 E.03203
G1 X158.613 Y128.442 E.02174
G1 X154.484 Y129.247 E.13954
G1 X153.764 Y129.363 E.02419
G1 X152.76 Y129.471 E.03351
G1 X148.405 Y129.746 E.14474
G1 X147.556 Y129.767 E.02817
G1 X146.707 Y129.746 E.02817
G1 X142.352 Y129.471 E.14477
G1 X141.513 Y129.384 E.02796
G1 X140.687 Y129.258 E.02772
G1 X136.437 Y128.429 E.14364
G1 X135.705 Y128.253 E.02499
G1 X134.934 Y128.025 E.02667
G1 X131.076 Y126.701 E.13531
G1 X130.425 Y126.446 E.02317
G1 X129.669 Y126.097 E.02761
G1 X126.289 Y124.315 E.12675
G1 X125.791 Y124.022 E.01919
G1 X125.284 Y123.686 E.02018
G1 X122.327 Y121.381 E.12435
G1 X121.836 Y120.945 E.02181
G1 X121.397 Y120.487 E.02104
G1 X119.34 Y118.015 E.10667
G1 X118.993 Y117.528 E.01984
G1 X118.724 Y117.068 E.01767
G1 X117.439 Y114.35 E.09975
G1 X117.203 Y113.771 E.02074
G1 X117.039 Y113.712 E.00578
G1 X116.41 Y113.774 E.02096
G1 X115.674 Y113.701 E.02454
G1 X114.966 Y113.487 E.02454
G1 X114.313 Y113.138 E.02454
G1 X113.741 Y112.669 E.02454
G1 X113.272 Y112.097 E.02454
G1 X112.923 Y111.444 E.02454
G1 X112.719 Y110.771 E.02335
G1 X112.636 Y109.999 E.02575
G1 X112.708 Y109.264 E.02451
G1 X112.923 Y108.556 E.02454
G1 X113.272 Y107.903 E.02454
G1 X113.741 Y107.331 E.02454
G1 X114.313 Y106.862 E.02454
G1 X114.966 Y106.513 E.02454
G1 X115.674 Y106.299 E.02454
G1 X116.38 Y106.229 E.02353
;WIDTH:0.495556
G1 X116.783 Y106.286 E.01504
G1 X116.602 Y106.467 E.00946
;WIDTH:0.450213
G1 X116.575 Y106.77 E.0101
;WIDTH:0.449999
G1 X116.639 Y106.855 E.00353
G1 X116.881 Y106.922 E.00833
G1 X116.771 Y107.814 F7200
G1 F1800
G1 X116.919 Y107.981 E.0074
G1 X116.727 Y109.237 E.04214
G1 X116.66 Y110 E.0254
G1 X116.691 Y110.528 E.01755
G1 X116.91 Y111.962 E.04811
G1 X116.894 Y112.076 E.00382
G1 X116.762 Y112.189 E.00578
G1 X116.39 Y112.224 E.01238
G1 X115.956 Y112.177 E.01446
G1 X115.54 Y112.047 E.01446
G1 X115.158 Y111.838 E.01446
G1 X114.823 Y111.559 E.01446
G1 X114.549 Y111.219 E.01446
G1 X114.347 Y110.833 E.01446
G1 X114.225 Y110.414 E.01446
G1 X114.186 Y109.98 E.01446
G1 X114.232 Y109.547 E.01446
G1 X114.363 Y109.13 E.01446
G1 X114.572 Y108.748 E.01446
G1 X114.851 Y108.413 E.01446
G1 X115.191 Y108.14 E.01446
G1 X115.577 Y107.938 E.01446
G1 X115.996 Y107.815 E.01446
G1 X116.409 Y107.777 E.01376
G1 X116.732 Y107.81 E.01076
G1 X116.638 Y107.341 F7200
;TYPE:Inner wall
;WIDTH:0.545268
G1 F1800
G1 X116.909 Y107.387 E.01128
G1 E-.92456
;WIPE_START
G1 X116.638 Y107.341 E-.27544
;WIPE_END
G1 Z.6 F7200
G1 X171.466 Y98.31
G1 Z.6
G1 Z.2
G1 E1.2 F1800
;TYPE:Bottom surface
;WIDTH:0.452224
G1 F3600
G1 X172.865 Y99.709 E.06598
G1 X173.151 Y100.012 E.0139
G1 X175.148 Y102.412 E.10412
G1 X175.524 Y102.947 E.02183
M73 P0 R69
G1 X169.872 Y97.294 E.26663
G1 X169.604 Y97.085 E.01133
G1 X169.088 Y96.722 E.02105
G1 X168.501 Y96.367 E.02286
G1 X168.215 Y96.216 E.01081
G1 X176.117 Y104.118 E.37273
G1 X176.634 Y105.214 E.04041
G1 X166.99 Y95.57 E.4549
G1 X165.765 Y94.924 E.04619
G1 X177.092 Y106.251 E.53429
G1 X177.157 Y106.433 E.00643
G1 X177.285 Y107.023 E.02014
G1 X164.606 Y94.344 E.59802
G1 X163.643 Y93.96 E.03458
G1 X177.389 Y107.706 E.64837
G1 X177.494 Y108.39 E.02306
G1 X162.762 Y93.658 E.69488
G1 X161.881 Y93.356 E.03107
G1 X177.599 Y109.073 E.74138
G1 X177.671 Y109.546 E.01594
G1 X177.68 Y109.733 E.00626
G1 X161 Y93.053 E.78677
G1 X160.119 Y92.751 E.03107
G1 X177.682 Y110.314 E.82843
G1 X177.614 Y110.825 E.0172
G1 X159.287 Y92.499 E.86445
G1 X158.522 Y92.312 E.02628
G1 X177.537 Y111.327 E.89693
G1 X177.46 Y111.829 E.01694
G1 X157.797 Y92.166 E.9275
G1 X157.078 Y92.026 E.02443
G1 X177.384 Y112.331 E.95778
G1 X177.307 Y112.833 E.01694
G1 X156.359 Y91.886 E.98806
G1 X155.64 Y91.746 E.02443
G1 X177.214 Y113.32 E1.01762
G1 X177.143 Y113.611 E.00999
M73 P1 R69
G1 X177.084 Y113.768 E.00561
G1 X154.921 Y91.606 E1.04538
G1 X154.208 Y91.471 E.02422
G1 X176.92 Y114.183 E1.07128
G1 X176.734 Y114.576 E.0145
G1 X153.529 Y91.371 E1.09456
G1 X152.876 Y91.297 E.02189
G1 X176.548 Y114.969 E1.11656
G1 X176.363 Y115.362 E.0145
G1 X152.253 Y91.252 E1.13722
G1 X151.636 Y91.215 E.02061
G1 X176.177 Y115.755 E1.15755
G1 X175.991 Y116.148 E.0145
G1 X151.019 Y91.177 E1.17788
G1 X150.403 Y91.139 E.02061
G1 X175.805 Y116.542 E1.19821
G1 X175.598 Y116.913 E.01419
G1 X149.786 Y91.101 E1.21753
G1 X149.169 Y91.063 E.02061
G1 X175.38 Y117.274 E1.23634
G1 X175.133 Y117.606 E.01379
G1 X148.552 Y91.025 E1.25377
G1 X147.943 Y90.994 E.02036
G1 X174.87 Y117.922 E1.27013
G1 X174.607 Y118.238 E.01371
G1 X147.371 Y91.001 E1.2847
G1 X146.799 Y91.008 E.01907
G1 X174.344 Y118.554 E1.29926
G1 X174.082 Y118.87 E.01371
G1 X146.249 Y91.037 E1.31282
G1 X145.704 Y91.071 E.01819
G1 X173.819 Y119.186 E1.3261
G1 X173.556 Y119.502 E.01371
G1 X145.16 Y91.106 E1.33938
G1 X144.616 Y91.14 E.01819
G1 X173.293 Y119.818 E1.35266
G1 X173.02 Y120.123 E.01367
G1 X144.071 Y91.175 E1.36545
G1 X143.527 Y91.209 E.01819
G1 X172.734 Y120.416 E1.37766
G1 X172.43 Y120.691 E.01367
G1 X142.983 Y91.244 E1.38898
G1 X142.438 Y91.278 E.01819
G1 X172.111 Y120.951 E1.39962
G1 X171.787 Y121.205 E.01375
G1 X141.913 Y91.332 E1.4091
G1 X141.398 Y91.396 E.0173
G1 X171.462 Y121.46 E1.41807
G1 X171.137 Y121.714 E.01375
G1 X140.897 Y91.473 E1.42639
G1 X140.408 Y91.563 E.01658
G1 X170.813 Y121.968 E1.43415
G1 X170.488 Y122.222 E.01375
G1 X139.923 Y91.658 E1.44168
G1 X139.439 Y91.752 E.01646
G1 X170.163 Y122.477 E1.44922
G1 X169.839 Y122.731 E.01375
G1 X138.955 Y91.847 E1.45676
G1 X138.47 Y91.941 E.01646
G1 X169.511 Y122.982 E1.46416
G1 X169.169 Y123.219 E.01388
G1 X137.986 Y92.035 E1.47087
G1 X137.501 Y92.13 E.01646
G1 X168.815 Y123.443 E1.47701
G1 X168.452 Y123.659 E.01408
G1 X137.017 Y92.224 E1.48275
G1 X136.537 Y92.323 E.01634
G1 X168.073 Y123.859 E1.48751
G1 X167.694 Y124.059 E.01429
G1 X136.07 Y92.435 E1.49167
