; HEADER_BLOCK_START
; generated by OrcaSlicer 2.2.0 on 2024-12-10 at 21:24:07
; total layer number: 25
; filament_density: 1.24
; filament_diameter: 1.75
; max_z_height: 5.00
; HEADER_BLOCK_END

; external perimeters extrusion width = 0.42mm
; perimeters extrusion width = 0.45mm
; infill extrusion width = 0.45mm
; solid infill extrusion width = 0.42mm
; top infill extrusion width = 0.42mm
; support material extrusion width = 0.38mm
; first layer extrusion width = 0.46mm

; EXECUTABLE_BLOCK_START
M201 X2500 Y2500 Z500 E5000
M203 X250 Y250 Z5 E40
M204 P2500 R500 T2500 ; sets acceleration (P, T) and retract acceleration (R), mm/sec^2
M205 X10.00 Y10.00 Z0.40 E5.00 ; sets the jerk limits, mm/sec
;TYPE:Custom
M220 S100 ;Reset Feedrate 
M221 S100 ;Reset Flowrate 
 
M104 S220 ;Set final nozzle temp 
M190 S55 ;Set and wait for bed temp to stabilize 
G28 ;Home 
G92 E0 ;Reset Extruder 
G1 Z2.0 F3000 ;Move Z Axis up 
G1 X-2.1 Y20 Z0.28 F5000.0 ;Move to start position 
M109 S220 ;Wait for nozzle temp to stabilize 
G1 X-2.1 Y145.0 Z0.28 F1500.0 E15 ;Draw the first line 
G1 X-2.4 Y145.0 Z0.28 F5000.0 ;Move to side a little 
G1 X-2.4 Y20 Z0.28 F1500.0 E30 ;Draw the second line 
G92 E0  ;Reset Extruder 
G1 E-1.0000 F1800 ;Retract a bit 
G1 Z2.0 F3000 ;Move Z Axis up 
G1 E0.0000 F1800
G90
G21
M83 ; use relative distances for extrusion
; filament start gcode
M106 S0
;LAYER_CHANGE
;Z:0.2
;HEIGHT:0.2
;BEFORE_LAYER_CHANGE
;0.2
G92 E0

G1 E-1.2 F2400
;_SET_FAN_SPEED_CHANGING_LAYER
M204 P500
; printing object Board.stl_12.stl id:7811887588677804288 copy 0
M204 T500
G1 Z.6 F9000
G1 X95.392 Y92.296
G1 Z.6
G1 Z.2
G1 E1.2 F1800
;TYPE:Inner wall
;WIDTH:0.459999
G1 X95.407 Y92.22 E.00262
G1 X95.407 Y87.725 E.15277
G1 X95.3 Y86.9 E.02829
G1 X95.023 Y86.145 E.02733
G1 X94.635 Y85.522 E.02496
G1 X91.482 Y81.486 E.17406
G1 X91.009 Y80.482 E.03772
G1 X91.016 Y79.446 E.03519
G1 X91.47 Y78.516 E.03519
G1 X92.281 Y77.873 E.03519
G1 X93.364 Y77.627 E.03771
G1 X126.636 Y77.627 E1.13084
G1 X127.719 Y77.873 E.03771
G1 X128.53 Y78.516 E.03519
G1 X128.984 Y79.446 E.03519
G1 X128.991 Y80.482 E.03519
G1 X128.518 Y81.486 E.03772
G1 X125.341 Y85.553 E.17541
G1 X124.917 Y86.269 E.02829
G1 X124.67 Y87.034 E.02732
G1 X124.593 Y87.765 E.02496
G1 X124.593 Y92.318 E.15474
G1 X124.708 Y92.603 E.01045
G1 X124.938 Y92.801 E.01031
G1 X125.219 Y92.867 E.0098
G1 X208.803 Y92.867 E2.84075
G1 X208.803 Y142.373 E1.68254
G1 X11.197 Y142.373 E6.71596
G1 X11.197 Y92.867 E1.68254
G1 X94.875 Y92.867 E2.84392
G1 X95.169 Y92.732 E.01102
G1 X95.351 Y92.501 E.00999
G1 X95.384 Y92.335 E.00575
G1 X94.99 Y92.22 F9000
;TYPE:Outer wall
G1 F1800
G1 X94.99 Y87.753 E.15183
G1 X94.905 Y87.036 E.02454
G1 X94.669 Y86.364 E.02421
G1 X94.306 Y85.778 E.0234
G1 X91.124 Y81.706 E.17565
G1 X90.591 Y80.574 E.04253
G1 X90.6 Y79.349 E.04163
G1 X91.137 Y78.248 E.04163
G1 X92.097 Y77.487 E.04163
G1 X93.317 Y77.21 E.04253
G1 X126.683 Y77.21 E1.13402
G1 X127.903 Y77.487 E.04253
M73 P0 R86
G1 X128.863 Y78.248 E.04163
G1 X129.4 Y79.349 E.04163
G1 X129.409 Y80.574 E.04163
G1 X128.876 Y81.706 E.04253
G1 X125.686 Y85.788 E.17607
G1 X125.312 Y86.405 E.02454
G1 X125.085 Y87.08 E.02421
G1 X125.01 Y87.765 E.0234
G1 X125.01 Y92.22 E.15142
G1 X125.064 Y92.382 E.0058
G1 X125.219 Y92.45 E.00573
G1 X209.22 Y92.45 E2.85493
G1 X209.22 Y142.79 E1.71089
G1 X10.78 Y142.79 E6.74431
G1 X10.78 Y92.45 E1.71089
G1 X94.781 Y92.45 E2.85493
G1 X94.936 Y92.382 E.00573
G1 X94.977 Y92.258 E.00444
G1 E-.84 F2400
;WIPE_START
G1 F1800
G1 X94.98 Y91.258 E-.36
;WIPE_END
G1 Z.6 F9000
G1 X207.834 Y92.992
G1 Z.6
G1 Z.2
G1 E1.2 F1800
;TYPE:Bottom surface
;WIDTH:0.460239
G1 F4800
G1 X208.49 Y93.648 E.03155
G1 X208.49 Y94.238 E.02007
G1 X207.432 Y93.18 E.05091
G1 X206.841 Y93.18 E.02007
G1 X208.49 Y94.829 E.07929
G1 X208.49 Y95.419 E.02007
G1 X206.251 Y93.18 E.10768
G1 X205.661 Y93.18 E.02007
G1 X208.49 Y96.009 E.13606
G1 X208.49 Y96.599 E.02007
G1 X205.071 Y93.18 E.16445
G1 X204.48 Y93.18 E.02007
G1 X208.49 Y97.189 E.19283
G1 X208.49 Y97.779 E.02007
G1 X203.89 Y93.18 E.22122
G1 X203.3 Y93.179 E.02007
G1 X208.49 Y98.37 E.2496
G1 X208.49 Y98.96 E.02007
G1 X202.71 Y93.179 E.27799
G1 X202.12 Y93.179 E.02007
G1 X208.49 Y99.55 E.30637
G1 X208.49 Y100.14 E.02007
G1 X201.529 Y93.179 E.33476
G1 X200.939 Y93.179 E.02007
M73 P1 R86
G1 X208.49 Y100.73 E.36314
G1 X208.49 Y101.32 E.02007
G1 X200.349 Y93.179 E.39153
G1 X199.759 Y93.179 E.02007
G1 X208.49 Y101.911 E.41991
G1 X208.49 Y102.501 E.02007
G1 X199.168 Y93.179 E.4483
G1 X198.578 Y93.179 E.02007
G1 X208.49 Y103.091 E.47668
G1 X208.49 Y103.681 E.02007
G1 X197.988 Y93.179 E.50507
G1 X197.398 Y93.179 E.02007
G1 X208.49 Y104.271 E.53345
G1 X208.49 Y104.862 E.02007
G1 X196.808 Y93.179 E.56184
G1 X196.217 Y93.179 E.02007
G1 X208.49 Y105.452 E.59022
G1 X208.49 Y106.042 E.02007
G1 X195.627 Y93.179 E.61861
G1 X195.037 Y93.179 E.02007
G1 X208.49 Y106.632 E.64699
G1 X208.49 Y107.222 E.02007
G1 X194.447 Y93.179 E.67538
G1 X193.856 Y93.179 E.02007
G1 X208.49 Y107.812 E.70377
G1 X208.49 Y108.403 E.02007
G1 X193.266 Y93.179 E.73215
G1 X192.676 Y93.179 E.02007
G1 X208.49 Y108.993 E.76054
G1 X208.49 Y109.583 E.02007
G1 X192.086 Y93.179 E.78892
G1 X191.496 Y93.179 E.02007
G1 X208.49 Y110.173 E.81731
G1 X208.49 Y110.763 E.02007
G1 X190.905 Y93.179 E.84569
G1 X190.315 Y93.178 E.02007
G1 X208.49 Y111.354 E.87408
G1 X208.49 Y111.944 E.02007
G1 X189.725 Y93.178 E.90246
G1 X189.135 Y93.178 E.02007
G1 X208.49 Y112.534 E.93085
G1 X208.49 Y113.124 E.02007
G1 X188.544 Y93.178 E.95923
G1 X187.954 Y93.178 E.02007
G1 X208.49 Y113.714 E.98762
G1 X208.49 Y114.304 E.02007
G1 X187.364 Y93.178 E1.016
G1 X186.774 Y93.178 E.02007
G1 X208.49 Y114.895 E1.04439
G1 X208.49 Y115.485 E.02007
G1 X186.183 Y93.178 E1.07277
G1 X185.593 Y93.178 E.02007
G1 X208.49 Y116.075 E1.10116
G1 X208.49 Y116.665 E.02007
G1 X185.003 Y93.178 E1.12954
G1 X184.413 Y93.178 E.02007
G1 X208.49 Y117.255 E1.15793
G1 X208.49 Y117.845 E.02007
G1 X183.823 Y93.178 E1.18631
G1 X183.232 Y93.178 E.02007
G1 X208.49 Y118.436 E1.2147
G1 X208.49 Y119.026 E.02007
G1 X182.642 Y93.178 E1.24308
G1 X182.052 Y93.178 E.02007
G1 X208.49 Y119.616 E1.27147
G1 X208.49 Y120.206 E.02007
G1 X181.462 Y93.178 E1.29985
G1 X180.871 Y93.178 E.02007
G1 X208.49 Y120.796 E1.32824
G1 X208.49 Y121.387 E.02007
G1 X180.281 Y93.178 E1.35662
G1 X179.691 Y93.178 E.02007
G1 X208.49 Y121.977 E1.38501
G1 X208.49 Y122.567 E.02007
G1 X179.101 Y93.178 E1.41339
G1 X178.511 Y93.178 E.02007
G1 X208.49 Y123.157 E1.44178
G1 X208.49 Y123.747 E.02007
G1 X177.92 Y93.177 E1.47016
G1 X177.33 Y93.177 E.02007
G1 X208.49 Y124.337 E1.49855
G1 X208.49 Y124.928 E.02007
G1 X176.74 Y93.177 E1.52693
G1 X176.15 Y93.177 E.02007
G1 X208.49 Y125.518 E1.55532
G1 X208.49 Y126.108 E.02007
G1 X175.559 Y93.177 E1.5837
G1 X174.969 Y93.177 E.02007
G1 X208.49 Y126.698 E1.61209
G1 X208.49 Y127.288 E.02007
G1 X174.379 Y93.177 E1.64047
G1 X173.789 Y93.177 E.02007
G1 X208.49 Y127.879 E1.66886
G1 X208.49 Y128.469 E.02007
G1 X173.199 Y93.177 E1.69724
G1 X172.608 Y93.177 E.02007
G1 X208.49 Y129.059 E1.72563
G1 X208.49 Y129.649 E.02007
G1 X172.018 Y93.177 E1.75401
G1 X171.428 Y93.177 E.02007
G1 X208.49 Y130.239 E1.7824
G1 X208.49 Y130.829 E.02007
G1 X170.838 Y93.177 E1.81079
G1 X170.247 Y93.177 E.02007
G1 X208.49 Y131.42 E1.83917
G1 X208.49 Y132.01 E.02007
G1 X169.657 Y93.177 E1.86756
G1 X169.067 Y93.177 E.02007
G1 X208.49 Y132.6 E1.89594
G1 X208.49 Y133.19 E.02007
G1 X168.477 Y93.177 E1.92433
G1 X167.887 Y93.177 E.02007
G1 X208.49 Y133.78 E1.95271
G1 X208.49 Y134.37 E.02007
G1 X167.296 Y93.177 E1.9811
G1 X166.706 Y93.177 E.02007
G1 X208.49 Y134.961 E2.00948
G1 X208.49 Y135.551 E.02007
G1 X166.116 Y93.177 E2.03787
G1 X165.526 Y93.176 E.02007
G1 X208.49 Y136.141 E2.06625
G1 X208.49 Y136.731 E.02007
G1 X164.935 Y93.176 E2.09464
G1 X164.345 Y93.176 E.02007
G1 X208.49 Y137.321 E2.12302
G1 X208.49 Y137.912 E.02007
G1 X163.755 Y93.176 E2.15141
G1 X163.165 Y93.176 E.02007
M73 P1 R85
G1 X208.49 Y138.502 E2.17979
G1 X208.49 Y139.092 E.02007
G1 X162.574 Y93.176 E2.20818
G1 X161.984 Y93.176 E.02007
G1 X208.49 Y139.682 E2.23656
G1 X208.49 Y140.272 E.02007
G1 X161.394 Y93.176 E2.26495
G1 X160.804 Y93.176 E.02007
G1 X208.49 Y140.862 E2.29333
G1 X208.49 Y141.453 E.02007
G1 X160.214 Y93.176 E2.32172
G1 X159.623 Y93.176 E.02007
G1 X208.49 Y142.043 E2.3501
G1 X208.49 Y142.06 E.00059
G1 X207.917 Y142.06 E.01948
G1 X159.033 Y93.176 E2.35094
G1 X158.443 Y93.176 E.02007
G1 X207.327 Y142.06 E2.35094
G1 X206.737 Y142.06 E.02007
G1 X157.853 Y93.176 E2.35094
G1 X157.262 Y93.176 E.02007
G1 X206.147 Y142.06 E2.35095
G1 X205.557 Y142.06 E.02007
G1 X156.672 Y93.176 E2.35095
G1 X156.082 Y93.176 E.02007
G1 X204.966 Y142.06 E2.35095
G1 X204.376 Y142.06 E.02007
G1 X155.492 Y93.176 E2.35095
G1 X154.902 Y93.176 E.02007
M73 P2 R85
G1 X203.786 Y142.06 E2.35095
G1 X203.196 Y142.06 E.02007
G1 X154.311 Y93.176 E2.35096
G1 X153.721 Y93.176 E.02007
G1 X202.606 Y142.06 E2.35096
G1 X202.015 Y142.06 E.02007
G1 X153.131 Y93.176 E2.35096
G1 X152.541 Y93.175 E.02007
G1 X201.425 Y142.06 E2.35096
G1 X200.835 Y142.06 E.02007
G1 X151.95 Y93.175 E2.35097
G1 X151.36 Y93.175 E.02007
G1 X200.245 Y142.06 E2.35097
G1 X199.655 Y142.06 E.02007
G1 X150.77 Y93.175 E2.35097
G1 X150.18 Y93.175 E.02007
G1 X199.065 Y142.06 E2.35097
G1 X198.474 Y142.06 E.02007
G1 X149.59 Y93.175 E2.35097
G1 X148.999 Y93.175 E.02007
G1 X197.884 Y142.06 E2.35098
G1 X197.294 Y142.06 E.02007
G1 X148.409 Y93.175 E2.35098
G1 X147.819 Y93.175 E.02007
G1 X196.704 Y142.06 E2.35098
G1 X196.114 Y142.06 E.02007
G1 X147.229 Y93.175 E2.35098
G1 X146.638 Y93.175 E.02007
G1 X195.524 Y142.06 E2.35099
G1 X194.933 Y142.06 E.02007
G1 X146.048 Y93.175 E2.35099
G1 X145.458 Y93.175 E.02007
G1 X194.343 Y142.06 E2.35099
G1 X193.753 Y142.06 E.02007
G1 X144.868 Y93.175 E2.35099
G1 X144.278 Y93.175 E.02007
G1 X193.163 Y142.06 E2.35099
G1 X192.573 Y142.06 E.02007
G1 X143.687 Y93.175 E2.351
G1 X143.097 Y93.175 E.02007
G1 X191.982 Y142.06 E2.351
G1 X191.392 Y142.06 E.02007
G1 X142.507 Y93.175 E2.351
G1 X141.917 Y93.175 E.02007
G1 X190.802 Y142.06 E2.351
G1 X190.212 Y142.06 E.02007
G1 X141.326 Y93.175 E2.35101
G1 X140.736 Y93.175 E.02007
G1 X189.622 Y142.06 E2.35101
G1 X189.032 Y142.06 E.02007
G1 X140.146 Y93.174 E2.35101
G1 X139.556 Y93.174 E.02007
G1 X188.441 Y142.06 E2.35101
G1 X187.851 Y142.06 E.02007
G1 X138.965 Y93.174 E2.35102
G1 X138.375 Y93.174 E.02007
G1 X187.261 Y142.06 E2.35102
G1 X186.671 Y142.06 E.02007
G1 X137.785 Y93.174 E2.35102
G1 X137.195 Y93.174 E.02007
G1 X186.081 Y142.06 E2.35102
G1 X185.491 Y142.06 E.02007
G1 X136.605 Y93.174 E2.35102
G1 X136.014 Y93.174 E.02007
G1 X184.9 Y142.06 E2.35103
G1 X184.31 Y142.06 E.02007
G1 X135.424 Y93.174 E2.35103
G1 X134.834 Y93.174 E.02007
G1 X183.72 Y142.06 E2.35103
G1 X183.13 Y142.06 E.02007
G1 X134.244 Y93.174 E2.35103
G1 X133.653 Y93.174 E.02007
G1 X182.54 Y142.06 E2.35104
G1 X181.949 Y142.06 E.02007
G1 X133.063 Y93.174 E2.35104
G1 X132.473 Y93.174 E.02007
G1 X181.359 Y142.06 E2.35104
G1 X180.769 Y142.06 E.02007
G1 X131.883 Y93.174 E2.35104
G1 X131.293 Y93.174 E.02007
G1 X180.179 Y142.06 E2.35104
G1 X179.589 Y142.06 E.02007
G1 X130.702 Y93.174 E2.35105
G1 X130.112 Y93.174 E.02007
G1 X178.999 Y142.06 E2.35105
G1 X178.408 Y142.06 E.02007
G1 X129.522 Y93.174 E2.35105
G1 X128.932 Y93.174 E.02007
G1 X177.818 Y142.06 E2.35105
G1 X177.228 Y142.06 E.02007
G1 X128.341 Y93.174 E2.35106
G1 X127.751 Y93.173 E.02007
M73 P2 R84
G1 X176.638 Y142.06 E2.35106
G1 X176.048 Y142.06 E.02007
G1 X127.161 Y93.173 E2.35106
G1 X126.571 Y93.173 E.02007
G1 X175.457 Y142.06 E2.35106
G1 X174.867 Y142.06 E.02007
G1 X125.793 Y92.986 E2.36009
G1 E-.84 F2400
;WIPE_START
G1 F4800
G1 X126.5 Y93.693 E-.36
;WIPE_END
G1 Z.6 F9000
G1 X128.859 Y79.527 Z.6
G1 Z.2
G1 E1.2 F1800
G1 F4800
G1 X127.469 Y78.137 E.06684
G1 X126.706 Y77.964 E.02663
M73 P3 R84
G1 X128.674 Y79.932 E.09468
G1 X128.678 Y80.413 E.01634
G1 X128.642 Y80.49 E.00289
G1 X126.092 Y77.94 E.12263
G1 X125.502 Y77.94 E.02007
G1 X128.453 Y80.891 E.14193
G1 X128.264 Y81.292 E.01508
G1 X124.911 Y77.94 E.16123
G1 X124.321 Y77.94 E.02007
G1 X128.01 Y81.629 E.17741
G1 X127.752 Y81.961 E.0143
G1 X123.731 Y77.94 E.19336
G1 X123.141 Y77.94 E.02007
G1 X127.493 Y82.292 E.20931
G1 X127.235 Y82.624 E.0143
G1 X122.551 Y77.94 E.22526
G1 X121.96 Y77.94 E.02007
G1 X126.976 Y82.955 E.24121
G1 X126.717 Y83.287 E.0143
G1 X121.37 Y77.94 E.25715
G1 X120.78 Y77.94 E.02007
G1 X126.459 Y83.619 E.2731
G1 X126.2 Y83.95 E.0143
G1 X120.19 Y77.94 E.28905
G1 X119.6 Y77.94 E.02007
G1 X125.942 Y84.282 E.305
G1 X125.683 Y84.613 E.0143
G1 X119.01 Y77.94 E.32095
G1 X118.419 Y77.94 E.02007
G1 X125.425 Y84.945 E.33689
G1 X125.166 Y85.277 E.0143
G1 X117.829 Y77.94 E.35284
G1 X117.239 Y77.94 E.02007
G1 X124.929 Y85.63 E.36982
G1 X124.706 Y85.997 E.01461
G1 X116.649 Y77.94 E.38748
G1 X116.059 Y77.94 E.02007
G1 X124.54 Y86.421 E.40788
G1 X124.389 Y86.86 E.0158
G1 X115.468 Y77.94 E.42901
G1 X114.878 Y77.94 E.02007
G1 X124.322 Y87.383 E.45415
G1 X124.28 Y87.759 E.01286
G1 X124.28 Y87.932 E.00588
G1 X114.288 Y77.94 E.48054
G1 X113.698 Y77.94 E.02007
G1 X124.281 Y88.523 E.50895
G1 X124.281 Y89.113 E.02009
G1 X113.108 Y77.94 E.53736
G1 X112.518 Y77.94 E.02007
G1 X124.282 Y89.704 E.56577
G1 X124.282 Y90.295 E.02009
G1 X111.927 Y77.94 E.59418
G1 X111.337 Y77.94 E.02007
G1 X124.283 Y90.886 E.62259
G1 X124.284 Y91.476 E.02009
G1 X110.747 Y77.94 E.651
G1 X110.157 Y77.94 E.02007
G1 X124.284 Y92.067 E.67941
G1 X124.284 Y92.339 E.00926
G1 X124.363 Y92.631 E.01028
G1 X124.538 Y92.889 E.0106
G1 X124.664 Y92.999 E.00567
G1 X124.802 Y93.083 E.00549
G1 X125.098 Y93.173 E.01054
G1 X125.39 Y93.173 E.00994
G1 X174.277 Y142.06 E2.35107
G1 X173.687 Y142.06 E.02007
G1 X109.567 Y77.94 E3.08367
G1 X108.977 Y77.94 E.02007
G1 X173.097 Y142.06 E3.08367
G1 X172.507 Y142.06 E.02007
G1 X108.386 Y77.94 E3.08367
G1 X107.796 Y77.94 E.02007
G1 X171.916 Y142.06 E3.08367
G1 X171.326 Y142.06 E.02007
G1 X107.206 Y77.94 E3.08367
G1 X106.616 Y77.94 E.02007
G1 X170.736 Y142.06 E3.08367
G1 X170.146 Y142.06 E.02007
G1 X106.026 Y77.94 E3.08367
G1 X105.435 Y77.94 E.02007
G1 X169.556 Y142.06 E3.08367
G1 X168.966 Y142.06 E.02007
G1 X104.845 Y77.94 E3.08367
G1 X104.255 Y77.94 E.02007
G1 X168.375 Y142.06 E3.08367
G1 X167.785 Y142.06 E.02007
G1 X103.665 Y77.94 E3.08367
G1 X103.075 Y77.94 E.02007
G1 X167.195 Y142.06 E3.08367
G1 X166.605 Y142.06 E.02007
G1 X102.485 Y77.94 E3.08367
G1 X101.894 Y77.94 E.02007
G1 X166.015 Y142.06 E3.08367
G1 X165.424 Y142.06 E.02007
G1 X101.304 Y77.94 E3.08367
G1 X100.714 Y77.94 E.02007
G1 X164.834 Y142.06 E3.08367
G1 X164.244 Y142.06 E.02007
G1 X100.124 Y77.94 E3.08367
G1 X99.534 Y77.94 E.02007
G1 X163.654 Y142.06 E3.08367
G1 X163.064 Y142.06 E.02007
G1 X98.943 Y77.94 E3.08367
G1 X98.353 Y77.94 E.02007
G1 X162.474 Y142.06 E3.08367
G1 X161.883 Y142.06 E.02007
G1 X97.763 Y77.94 E3.08367
G1 X97.173 Y77.94 E.02007
G1 X161.293 Y142.06 E3.08367
G1 X160.703 Y142.06 E.02007
G1 X96.583 Y77.94 E3.08367
G1 X95.993 Y77.94 E.02007
G1 X160.113 Y142.06 E3.08367
G1 X159.523 Y142.06 E.02007
G1 X95.402 Y77.94 E3.08367
G1 X94.812 Y77.94 E.02007
G1 X158.932 Y142.06 E3.08367
G1 X158.342 Y142.06 E.02007
G1 X94.222 Y77.94 E3.08367
G1 X93.632 Y77.94 E.02007
G1 X157.752 Y142.06 E3.08367
G1 X157.162 Y142.06 E.02007
G1 X93.108 Y78.006 E3.0805
G1 X92.627 Y78.115 E.01677
G1 X156.572 Y142.06 E3.07524
G1 X155.982 Y142.06 E.02007
G1 X92.232 Y78.311 E3.06583
G1 X91.903 Y78.572 E.01429
G1 X155.391 Y142.06 E3.05328
G1 X154.801 Y142.06 E.02007
G1 X91.634 Y78.893 E3.03783
G1 X91.441 Y79.29 E.01501
G1 X154.211 Y142.06 E3.01875
G1 X153.621 Y142.06 E.02007
M73 P4 R84
G1 X91.327 Y79.766 E2.99585
G1 X91.323 Y80.352 E.01993
G1 X153.031 Y142.06 E2.96766
G1 X152.441 Y142.06 E.02007
M73 P4 R83
G1 X91.922 Y81.542 E2.91045
G1 X94.031 Y84.24 E.11645
G1 X151.85 Y142.06 E2.78067
G1 X151.26 Y142.06 E.02007
G1 X95.376 Y86.176 E2.68758
G1 X95.625 Y86.902 E.02609
G1 X95.639 Y87.029 E.00437
G1 X150.67 Y142.06 E2.64654
G1 X150.08 Y142.06 E.02007
G1 X95.713 Y87.693 E2.61463
G1 X95.719 Y88.29 E.0203
G1 X149.49 Y142.06 E2.58592
G1 X148.899 Y142.06 E.02007
G1 X95.719 Y88.88 E2.55756
