; HEADER_BLOCK_START
; generated by OrcaSlicer 2.2.0 on 2024-12-10 at 21:28:36
; total layer number: 25
; filament_density: 1.24
; filament_diameter: 1.75
; max_z_height: 5.00
; HEADER_BLOCK_END

; external perimeters extrusion width = 0.42mm
; perimeters extrusion width = 0.45mm
; infill extrusion width = 0.45mm
; solid infill extrusion width = 0.42mm
; top infill extrusion width = 0.42mm
; support material extrusion width = 0.38mm
; first layer extrusion width = 0.46mm

; EXECUTABLE_BLOCK_START
M201 X2500 Y2500 Z500 E5000
M203 X250 Y250 Z5 E40
M204 P2500 R500 T2500 ; sets acceleration (P, T) and retract acceleration (R), mm/sec^2
M205 X10.00 Y10.00 Z0.40 E5.00 ; sets the jerk limits, mm/sec
;TYPE:Custom
M220 S100 ;Reset Feedrate 
M221 S100 ;Reset Flowrate 
 
M104 S220 ;Set final nozzle temp 
M190 S55 ;Set and wait for bed temp to stabilize 
G28 ;Home 
G92 E0 ;Reset Extruder 
G1 Z2.0 F3000 ;Move Z Axis up 
G1 X-2.1 Y20 Z0.28 F5000.0 ;Move to start position 
M109 S220 ;Wait for nozzle temp to stabilize 
G1 X-2.1 Y145.0 Z0.28 F1500.0 E15 ;Draw the first line 
G1 X-2.4 Y145.0 Z0.28 F5000.0 ;Move to side a little 
G1 X-2.4 Y20 Z0.28 F1500.0 E30 ;Draw the second line 
G92 E0  ;Reset Extruder 
G1 E-1.0000 F1800 ;Retract a bit 
G1 Z2.0 F3000 ;Move Z Axis up 
G1 E0.0000 F1800
G90
G21
M83 ; use relative distances for extrusion
; filament start gcode
M106 S0
;LAYER_CHANGE
;Z:0.2
;HEIGHT:0.2
;BEFORE_LAYER_CHANGE
;0.2
G92 E0

G1 E-1.2 F2400
;_SET_FAN_SPEED_CHANGING_LAYER
M204 P500
; printing object Board.stl_16.stl id:7811887588677804288 copy 0
M204 T500
G1 Z.6 F9000
G1 X95.407 Y135.378
G1 Z.6
G1 Z.2
G1 E1.2 F1800
;TYPE:Inner wall
;WIDTH:0.459999
G1 X95.407 Y135.302 E.00259
G1 X95.292 Y135.017 E.01045
G1 X95.062 Y134.819 E.01031
G1 X94.781 Y134.753 E.0098
G1 X11.197 Y134.753 E2.84075
G1 X11.197 Y85.247 E1.68254
G1 X208.803 Y85.247 E6.71596
G1 X208.803 Y134.753 E1.68254
M73 P0 R86
G1 X125.125 Y134.753 E2.84392
G1 X124.831 Y134.888 E.01102
G1 X124.649 Y135.119 E.00999
G1 X124.593 Y135.4 E.00973
G1 X124.593 Y139.895 E.15277
G1 X124.7 Y140.72 E.02829
G1 X124.977 Y141.475 E.02732
G1 X125.365 Y142.098 E.02496
G1 X128.518 Y146.134 E.17406
G1 X128.991 Y147.138 E.03771
G1 X128.984 Y148.174 E.03519
G1 X128.53 Y149.104 E.03519
G1 X127.719 Y149.747 E.03519
G1 X126.636 Y149.993 E.03771
G1 X93.364 Y149.993 E1.13084
G1 X92.281 Y149.747 E.03771
G1 X91.47 Y149.104 E.03519
G1 X91.016 Y148.174 E.03519
G1 X91.009 Y147.138 E.03519
G1 X91.482 Y146.134 E.03772
G1 X94.659 Y142.067 E.17541
G1 X95.083 Y141.351 E.02829
G1 X95.33 Y140.586 E.02732
G1 X95.407 Y139.855 E.02496
G1 X95.407 Y135.418 E.15079
G1 X94.99 Y135.4 F9000
;TYPE:Outer wall
G1 F1800
G1 X94.936 Y135.238 E.0058
G1 X94.781 Y135.17 E.00573
G1 X10.78 Y135.17 E2.85493
G1 X10.78 Y84.83 E1.71089
G1 X209.22 Y84.83 E6.74431
G1 X209.22 Y135.17 E1.71089
G1 X125.219 Y135.17 E2.85493
G1 X125.064 Y135.238 E.00573
G1 X125.01 Y135.4 E.0058
G1 X125.01 Y139.867 E.15183
G1 X125.095 Y140.584 E.02454
G1 X125.331 Y141.256 E.02421
G1 X125.694 Y141.842 E.0234
G1 X128.876 Y145.914 E.17565
G1 X129.409 Y147.046 E.04253
G1 X129.4 Y148.271 E.04163
G1 X128.863 Y149.372 E.04163
G1 X127.903 Y150.133 E.04163
G1 X126.683 Y150.41 E.04253
G1 X93.317 Y150.41 E1.13402
G1 X92.097 Y150.133 E.04253
G1 X91.137 Y149.372 E.04163
G1 X90.6 Y148.271 E.04163
G1 X90.591 Y147.046 E.04163
G1 X91.124 Y145.914 E.04253
G1 X94.314 Y141.832 E.17607
G1 X94.688 Y141.215 E.02454
G1 X94.915 Y140.54 E.02421
G1 X94.99 Y139.855 E.0234
G1 X94.99 Y135.44 E.15006
G1 E-.84 F2400
;WIPE_START
G1 F1800
G1 X94.936 Y135.238 E-.07527
G1 X94.781 Y135.17 E-.06069
G1 X94.159 Y135.17 E-.22405
;WIPE_END
G1 Z.6 F9000
G1 X208.678 Y86.216
G1 Z.6
G1 Z.2
G1 E1.2 F1800
;TYPE:Bottom surface
;WIDTH:0.460239
G1 F4800
G1 X208.022 Y85.56 E.03155
G1 X207.432 Y85.56 E.02007
G1 X208.49 Y86.618 E.0509
G1 X208.49 Y87.209 E.02007
G1 X206.841 Y85.56 E.07929
G1 X206.251 Y85.56 E.02007
G1 X208.49 Y87.799 E.10767
G1 X208.49 Y88.389 E.02007
G1 X205.661 Y85.56 E.13605
G1 X205.071 Y85.56 E.02007
G1 X208.49 Y88.979 E.16443
G1 X208.49 Y89.569 E.02007
G1 X204.481 Y85.56 E.19282
G1 X203.891 Y85.56 E.02007
G1 X208.49 Y90.159 E.2212
G1 X208.49 Y90.75 E.02007
G1 X203.3 Y85.56 E.24958
G1 X202.71 Y85.56 E.02007
G1 X208.49 Y91.34 E.27797
G1 X208.49 Y91.93 E.02007
M73 P1 R86
G1 X202.12 Y85.56 E.30635
G1 X201.53 Y85.56 E.02007
G1 X208.49 Y92.52 E.33473
G1 X208.49 Y93.11 E.02007
G1 X200.94 Y85.56 E.36311
G1 X200.35 Y85.56 E.02007
G1 X208.49 Y93.7 E.3915
G1 X208.49 Y94.291 E.02007
G1 X199.759 Y85.56 E.41988
G1 X199.169 Y85.56 E.02007
G1 X208.49 Y94.881 E.44826
G1 X208.49 Y95.471 E.02007
G1 X198.579 Y85.56 E.47665
G1 X197.989 Y85.56 E.02007
G1 X208.49 Y96.061 E.50503
G1 X208.49 Y96.651 E.02007
G1 X197.399 Y85.56 E.53341
G1 X196.808 Y85.56 E.02007
G1 X208.49 Y97.242 E.56179
G1 X208.49 Y97.832 E.02007
G1 X196.218 Y85.56 E.59018
G1 X195.628 Y85.56 E.02007
G1 X208.49 Y98.422 E.61856
G1 X208.49 Y99.012 E.02007
G1 X195.038 Y85.56 E.64694
G1 X194.448 Y85.56 E.02007
G1 X208.49 Y99.602 E.67533
G1 X208.49 Y100.192 E.02007
G1 X193.858 Y85.56 E.70371
G1 X193.267 Y85.56 E.02007
G1 X208.49 Y100.783 E.73209
G1 X208.49 Y101.373 E.02007
G1 X192.677 Y85.56 E.76047
G1 X192.087 Y85.56 E.02007
G1 X208.49 Y101.963 E.78886
G1 X208.49 Y102.553 E.02007
G1 X191.497 Y85.56 E.81724
G1 X190.907 Y85.56 E.02007
G1 X208.49 Y103.143 E.84562
G1 X208.49 Y103.733 E.02007
G1 X190.317 Y85.56 E.87401
G1 X189.726 Y85.56 E.02007
G1 X208.49 Y104.324 E.90239
G1 X208.49 Y104.914 E.02007
G1 X189.136 Y85.56 E.93077
G1 X188.546 Y85.56 E.02007
G1 X208.49 Y105.504 E.95915
G1 X208.49 Y106.094 E.02007
G1 X187.956 Y85.56 E.98754
G1 X187.366 Y85.56 E.02007
G1 X208.49 Y106.684 E1.01592
G1 X208.49 Y107.275 E.02007
G1 X186.775 Y85.56 E1.0443
G1 X186.185 Y85.56 E.02007
G1 X208.49 Y107.865 E1.07269
G1 X208.49 Y108.455 E.02007
G1 X185.595 Y85.56 E1.10107
G1 X185.005 Y85.56 E.02007
G1 X208.49 Y109.045 E1.12945
G1 X208.49 Y109.635 E.02007
G1 X184.415 Y85.56 E1.15783
G1 X183.825 Y85.56 E.02007
G1 X208.49 Y110.225 E1.18622
G1 X208.49 Y110.816 E.02007
G1 X183.234 Y85.56 E1.2146
G1 X182.644 Y85.56 E.02007
G1 X208.49 Y111.406 E1.24298
G1 X208.49 Y111.996 E.02007
G1 X182.054 Y85.56 E1.27137
G1 X181.464 Y85.56 E.02007
G1 X208.49 Y112.586 E1.29975
G1 X208.49 Y113.176 E.02007
G1 X180.874 Y85.56 E1.32813
G1 X180.283 Y85.56 E.02007
G1 X208.49 Y113.767 E1.35651
G1 X208.49 Y114.357 E.02007
G1 X179.693 Y85.56 E1.3849
G1 X179.103 Y85.56 E.02007
G1 X208.49 Y114.947 E1.41328
G1 X208.49 Y115.537 E.02007
G1 X178.513 Y85.56 E1.44166
G1 X177.923 Y85.56 E.02007
G1 X208.49 Y116.127 E1.47005
G1 X208.49 Y116.717 E.02007
G1 X177.333 Y85.56 E1.49843
G1 X176.742 Y85.56 E.02007
G1 X208.49 Y117.308 E1.52681
G1 X208.49 Y117.898 E.02007
G1 X176.152 Y85.56 E1.5552
G1 X175.562 Y85.56 E.02007
G1 X208.49 Y118.488 E1.58358
G1 X208.49 Y119.078 E.02007
G1 X174.972 Y85.56 E1.61196
G1 X174.382 Y85.56 E.02007
G1 X208.49 Y119.668 E1.64034
G1 X208.49 Y120.258 E.02007
G1 X173.792 Y85.56 E1.66873
G1 X173.201 Y85.56 E.02007
G1 X208.49 Y120.849 E1.69711
G1 X208.49 Y121.439 E.02007
M73 P1 R85
G1 X172.611 Y85.56 E1.72549
G1 X172.021 Y85.56 E.02007
G1 X208.49 Y122.029 E1.75388
G1 X208.49 Y122.619 E.02007
G1 X171.431 Y85.56 E1.78226
G1 X170.841 Y85.56 E.02007
G1 X208.49 Y123.209 E1.81064
G1 X208.49 Y123.8 E.02007
G1 X170.25 Y85.56 E1.83902
G1 X169.66 Y85.56 E.02007
G1 X208.49 Y124.39 E1.86741
G1 X208.49 Y124.98 E.02007
G1 X169.07 Y85.56 E1.89579
G1 X168.48 Y85.56 E.02007
G1 X208.49 Y125.57 E1.92417
G1 X208.49 Y126.16 E.02007
G1 X167.89 Y85.56 E1.95256
G1 X167.3 Y85.56 E.02007
G1 X208.49 Y126.75 E1.98094
G1 X208.49 Y127.341 E.02007
G1 X166.709 Y85.56 E2.00932
G1 X166.119 Y85.56 E.02007
G1 X208.49 Y127.931 E2.0377
G1 X208.49 Y128.521 E.02007
G1 X165.529 Y85.56 E2.06609
G1 X164.939 Y85.56 E.02007
G1 X208.49 Y129.111 E2.09447
G1 X208.49 Y129.701 E.02007
G1 X164.349 Y85.56 E2.12285
G1 X163.758 Y85.56 E.02007
G1 X208.49 Y130.292 E2.15124
G1 X208.49 Y130.882 E.02007
G1 X163.168 Y85.56 E2.17962
G1 X162.578 Y85.56 E.02007
G1 X208.49 Y131.472 E2.208
G1 X208.49 Y132.062 E.02007
G1 X161.988 Y85.56 E2.23638
G1 X161.398 Y85.56 E.02007
G1 X208.49 Y132.652 E2.26477
G1 X208.49 Y133.242 E.02007
G1 X160.808 Y85.56 E2.29315
G1 X160.217 Y85.56 E.02007
G1 X208.49 Y133.833 E2.32153
G1 X208.49 Y134.423 E.02007
G1 X159.627 Y85.56 E2.34992
G1 X159.037 Y85.56 E.02007
G1 X207.917 Y134.44 E2.35075
G1 X207.327 Y134.44 E.02007
G1 X158.447 Y85.56 E2.35075
G1 X157.857 Y85.56 E.02007
G1 X206.737 Y134.44 E2.35075
G1 X206.147 Y134.44 E.02007
G1 X157.267 Y85.56 E2.35075
G1 X156.676 Y85.56 E.02007
G1 X205.557 Y134.44 E2.35075
G1 X204.966 Y134.44 E.02007
G1 X156.086 Y85.56 E2.35075
G1 X155.496 Y85.56 E.02007
M73 P2 R85
G1 X204.376 Y134.44 E2.35075
G1 X203.786 Y134.44 E.02007
G1 X154.906 Y85.56 E2.35075
G1 X154.316 Y85.56 E.02007
G1 X203.196 Y134.44 E2.35075
G1 X202.606 Y134.44 E.02007
G1 X153.725 Y85.56 E2.35075
G1 X153.135 Y85.56 E.02007
G1 X202.015 Y134.44 E2.35075
G1 X201.425 Y134.44 E.02007
G1 X152.545 Y85.56 E2.35075
G1 X151.955 Y85.56 E.02007
G1 X200.835 Y134.44 E2.35075
G1 X200.245 Y134.44 E.02007
G1 X151.365 Y85.56 E2.35075
G1 X150.775 Y85.56 E.02007
G1 X199.655 Y134.44 E2.35075
G1 X199.065 Y134.44 E.02007
G1 X150.184 Y85.56 E2.35075
G1 X149.594 Y85.56 E.02007
G1 X198.474 Y134.44 E2.35075
G1 X197.884 Y134.44 E.02007
G1 X149.004 Y85.56 E2.35075
G1 X148.414 Y85.56 E.02007
G1 X197.294 Y134.44 E2.35075
G1 X196.704 Y134.44 E.02007
G1 X147.824 Y85.56 E2.35075
G1 X147.234 Y85.56 E.02007
G1 X196.114 Y134.44 E2.35075
G1 X195.524 Y134.44 E.02007
G1 X146.643 Y85.56 E2.35075
G1 X146.053 Y85.56 E.02007
G1 X194.933 Y134.44 E2.35075
G1 X194.343 Y134.44 E.02007
G1 X145.463 Y85.56 E2.35075
G1 X144.873 Y85.56 E.02007
G1 X193.753 Y134.44 E2.35075
G1 X193.163 Y134.44 E.02007
G1 X144.283 Y85.56 E2.35075
G1 X143.692 Y85.56 E.02007
G1 X192.573 Y134.44 E2.35075
G1 X191.982 Y134.44 E.02007
G1 X143.102 Y85.56 E2.35075
G1 X142.512 Y85.56 E.02007
G1 X191.392 Y134.44 E2.35075
G1 X190.802 Y134.44 E.02007
G1 X141.922 Y85.56 E2.35075
G1 X141.332 Y85.56 E.02007
G1 X190.212 Y134.44 E2.35075
G1 X189.622 Y134.44 E.02007
G1 X140.742 Y85.56 E2.35075
G1 X140.151 Y85.56 E.02007
G1 X189.032 Y134.44 E2.35075
G1 X188.441 Y134.44 E.02007
G1 X139.561 Y85.56 E2.35075
G1 X138.971 Y85.56 E.02007
G1 X187.851 Y134.44 E2.35075
G1 X187.261 Y134.44 E.02007
G1 X138.381 Y85.56 E2.35075
G1 X137.791 Y85.56 E.02007
G1 X186.671 Y134.44 E2.35075
G1 X186.081 Y134.44 E.02007
G1 X137.2 Y85.56 E2.35075
G1 X136.61 Y85.56 E.02007
G1 X185.491 Y134.44 E2.35075
G1 X184.9 Y134.44 E.02007
M73 P2 R84
G1 X136.02 Y85.56 E2.35075
G1 X135.43 Y85.56 E.02007
G1 X184.31 Y134.44 E2.35075
G1 X183.72 Y134.44 E.02007
G1 X134.84 Y85.56 E2.35075
G1 X134.25 Y85.56 E.02007
G1 X183.13 Y134.44 E2.35075
G1 X182.54 Y134.44 E.02007
G1 X133.659 Y85.56 E2.35075
G1 X133.069 Y85.56 E.02007
G1 X181.949 Y134.44 E2.35075
G1 X181.359 Y134.44 E.02007
G1 X132.479 Y85.56 E2.35075
G1 X131.889 Y85.56 E.02007
G1 X180.769 Y134.44 E2.35075
G1 X180.179 Y134.44 E.02007
G1 X131.299 Y85.56 E2.35075
G1 X130.709 Y85.56 E.02007
G1 X179.589 Y134.44 E2.35075
G1 X178.999 Y134.44 E.02007
G1 X130.118 Y85.56 E2.35075
G1 X129.528 Y85.56 E.02007
G1 X178.408 Y134.44 E2.35075
G1 X177.818 Y134.44 E.02007
G1 X128.938 Y85.56 E2.35075
G1 X128.348 Y85.56 E.02007
G1 X177.228 Y134.44 E2.35075
G1 X176.638 Y134.44 E.02007
G1 X127.758 Y85.56 E2.35075
G1 X127.167 Y85.56 E.02007
G1 X176.048 Y134.44 E2.35075
G1 X175.457 Y134.44 E.02007
G1 X126.577 Y85.56 E2.35075
G1 X125.987 Y85.56 E.02007
G1 X174.867 Y134.44 E2.35075
G1 X174.277 Y134.44 E.02007
G1 X125.397 Y85.56 E2.35075
G1 X124.807 Y85.56 E.02007
M73 P3 R84
G1 X173.687 Y134.44 E2.35075
G1 X173.097 Y134.44 E.02007
G1 X124.217 Y85.56 E2.35075
G1 X123.626 Y85.56 E.02007
G1 X172.507 Y134.44 E2.35075
G1 X171.916 Y134.44 E.02007
G1 X123.036 Y85.56 E2.35075
G1 X122.446 Y85.56 E.02007
G1 X171.326 Y134.44 E2.35075
G1 X170.736 Y134.44 E.02007
G1 X121.856 Y85.56 E2.35075
G1 X121.266 Y85.56 E.02007
G1 X170.146 Y134.44 E2.35075
G1 X169.556 Y134.44 E.02007
G1 X120.675 Y85.56 E2.35075
G1 X120.085 Y85.56 E.02007
G1 X168.966 Y134.44 E2.35075
G1 X168.375 Y134.44 E.02007
G1 X119.495 Y85.56 E2.35075
G1 X118.905 Y85.56 E.02007
G1 X167.785 Y134.44 E2.35075
G1 X167.195 Y134.44 E.02007
G1 X118.315 Y85.56 E2.35075
G1 X117.725 Y85.56 E.02007
G1 X166.605 Y134.44 E2.35075
G1 X166.015 Y134.44 E.02007
G1 X117.134 Y85.56 E2.35075
G1 X116.544 Y85.56 E.02007
G1 X165.424 Y134.44 E2.35075
G1 X164.834 Y134.44 E.02007
G1 X115.954 Y85.56 E2.35075
G1 X115.364 Y85.56 E.02007
G1 X164.244 Y134.44 E2.35075
G1 X163.654 Y134.44 E.02007
G1 X114.774 Y85.56 E2.35075
G1 X114.184 Y85.56 E.02007
G1 X163.064 Y134.44 E2.35075
G1 X162.474 Y134.44 E.02007
G1 X113.593 Y85.56 E2.35075
G1 X113.003 Y85.56 E.02007
G1 X161.883 Y134.44 E2.35075
G1 X161.293 Y134.44 E.02007
G1 X112.413 Y85.56 E2.35075
G1 X111.823 Y85.56 E.02007
G1 X160.703 Y134.44 E2.35075
G1 X160.113 Y134.44 E.02007
G1 X111.233 Y85.56 E2.35075
G1 X110.642 Y85.56 E.02007
G1 X159.523 Y134.44 E2.35075
G1 X158.932 Y134.44 E.02007
G1 X110.052 Y85.56 E2.35075
G1 X109.462 Y85.56 E.02007
G1 X158.342 Y134.44 E2.35075
G1 X157.752 Y134.44 E.02007
G1 X108.872 Y85.56 E2.35075
G1 X108.282 Y85.56 E.02007
G1 X157.162 Y134.44 E2.35075
G1 X156.572 Y134.44 E.02007
G1 X107.692 Y85.56 E2.35075
G1 X107.101 Y85.56 E.02007
G1 X155.982 Y134.44 E2.35075
G1 X155.391 Y134.44 E.02007
G1 X106.511 Y85.56 E2.35075
G1 X105.921 Y85.56 E.02007
G1 X154.801 Y134.44 E2.35075
G1 X154.211 Y134.44 E.02007
G1 X105.331 Y85.56 E2.35075
G1 X104.741 Y85.56 E.02007
G1 X153.621 Y134.44 E2.35075
G1 X153.031 Y134.44 E.02007
G1 X104.15 Y85.56 E2.35075
G1 X103.56 Y85.56 E.02007
G1 X152.441 Y134.44 E2.35075
G1 X151.85 Y134.44 E.02007
G1 X102.97 Y85.56 E2.35075
G1 X102.38 Y85.56 E.02007
G1 X151.26 Y134.44 E2.35075
G1 X150.67 Y134.44 E.02007
G1 X101.79 Y85.56 E2.35075
G1 X101.2 Y85.56 E.02007
M73 P3 R83
G1 X150.08 Y134.44 E2.35075
G1 X149.49 Y134.44 E.02007
G1 X100.609 Y85.56 E2.35075
G1 X100.019 Y85.56 E.02007
G1 X148.899 Y134.44 E2.35075
G1 X148.309 Y134.44 E.02007
G1 X99.429 Y85.56 E2.35075
G1 X98.839 Y85.56 E.02007
G1 X147.719 Y134.44 E2.35075
G1 X147.129 Y134.44 E.02007
G1 X98.249 Y85.56 E2.35075
G1 X97.659 Y85.56 E.02007
G1 X146.539 Y134.44 E2.35075
G1 X145.949 Y134.44 E.02007
G1 X97.068 Y85.56 E2.35075
G1 X96.478 Y85.56 E.02007
G1 X145.358 Y134.44 E2.35075
G1 X144.768 Y134.44 E.02007
G1 X95.888 Y85.56 E2.35075
G1 X95.298 Y85.56 E.02007
G1 X144.178 Y134.44 E2.35075
G1 X143.588 Y134.44 E.02007
M73 P4 R83
G1 X94.708 Y85.56 E2.35075
G1 X94.117 Y85.56 E.02007
G1 X142.998 Y134.44 E2.35075
G1 X142.408 Y134.44 E.02007
G1 X93.527 Y85.56 E2.35075
G1 X92.937 Y85.56 E.02007
G1 X141.817 Y134.44 E2.35075
G1 X141.227 Y134.44 E.02007
G1 X92.347 Y85.56 E2.35075
G1 X91.757 Y85.56 E.02007
G1 X140.637 Y134.44 E2.35075
G1 X140.047 Y134.44 E.02007
G1 X91.167 Y85.56 E2.35075
G1 X90.576 Y85.56 E.02007
G1 X139.457 Y134.44 E2.35075
G1 X138.866 Y134.44 E.02007
G1 X89.986 Y85.56 E2.35075
G1 X89.396 Y85.56 E.02007
G1 X138.276 Y134.44 E2.35075
G1 X137.686 Y134.44 E.02007
G1 X88.806 Y85.56 E2.35075
G1 X88.216 Y85.56 E.02007
G1 X137.096 Y134.44 E2.35075
G1 X136.506 Y134.44 E.02007
G1 X87.626 Y85.56 E2.35075
G1 X87.035 Y85.56 E.02007
G1 X135.916 Y134.44 E2.35075
G1 X135.325 Y134.44 E.02007
G1 X86.445 Y85.56 E2.35075
G1 X85.855 Y85.56 E.02007
G1 X134.735 Y134.44 E2.35075
G1 X134.145 Y134.44 E.02007
G1 X85.265 Y85.56 E2.35075
G1 X84.675 Y85.56 E.02007
G1 X133.555 Y134.44 E2.35075
G1 X132.965 Y134.44 E.02007
G1 X84.084 Y85.56 E2.35075
G1 X83.494 Y85.56 E.02007
G1 X132.374 Y134.44 E2.35075
G1 X131.784 Y134.44 E.02007
G1 X82.904 Y85.56 E2.35075
G1 X82.314 Y85.56 E.02007
G1 X131.194 Y134.44 E2.35075
G1 X130.604 Y134.44 E.02007
G1 X81.724 Y85.56 E2.35075
G1 X81.134 Y85.56 E.02007
G1 X130.014 Y134.44 E2.35075
G1 X129.424 Y134.44 E.02007
G1 X80.543 Y85.56 E2.35075
G1 X79.953 Y85.56 E.02007
G1 X128.833 Y134.44 E2.35075
G1 X128.243 Y134.44 E.02007
G1 X79.363 Y85.56 E2.35075
G1 X78.773 Y85.56 E.02007
G1 X127.653 Y134.44 E2.35075
G1 X127.063 Y134.44 E.02007
G1 X78.183 Y85.56 E2.35075
