; HEADER_BLOCK_START
; generated by OrcaSlicer 2.2.0 on 2024-12-10 at 18:31:38
; total layer number: 25
; filament_density: 1.24
; filament_diameter: 1.75
; max_z_height: 5.00
; HEADER_BLOCK_END

; external perimeters extrusion width = 0.42mm
; perimeters extrusion width = 0.45mm
; infill extrusion width = 0.45mm
; solid infill extrusion width = 0.42mm
; top infill extrusion width = 0.42mm
; first layer extrusion width = 0.46mm

; EXECUTABLE_BLOCK_START
M201 X2500 Y2500 Z500 E5000
M203 X250 Y250 Z5 E40
M204 P2500 R500 T2500 ; sets acceleration (P, T) and retract acceleration (R), mm/sec^2
M205 X10.00 Y10.00 Z0.40 E5.00 ; sets the jerk limits, mm/sec
;TYPE:Custom
M220 S100 ;Reset Feedrate 
M221 S100 ;Reset Flowrate 
 
M104 S220 ;Set final nozzle temp 
M190 S55 ;Set and wait for bed temp to stabilize 
G28 ;Home 
G92 E0 ;Reset Extruder 
G1 Z2.0 F3000 ;Move Z Axis up 
G1 X-2.1 Y20 Z0.28 F5000.0 ;Move to start position 
M109 S220 ;Wait for nozzle temp to stabilize 
G1 X-2.1 Y145.0 Z0.28 F1500.0 E15 ;Draw the first line 
G1 X-2.4 Y145.0 Z0.28 F5000.0 ;Move to side a little 
G1 X-2.4 Y20 Z0.28 F1500.0 E30 ;Draw the second line 
G92 E0  ;Reset Extruder 
G1 E-1.0000 F1800 ;Retract a bit 
G1 Z2.0 F3000 ;Move Z Axis up 
G1 E0.0000 F1800
G90
G21
M83 ; use relative distances for extrusion
; filament start gcode
M106 S0
;LAYER_CHANGE
;Z:0.2
;HEIGHT:0.2
;BEFORE_LAYER_CHANGE
;0.2
G92 E0

G1 E-1.2 F2400
;_SET_FAN_SPEED_CHANGING_LAYER
M204 P500
; printing object Board.stl_1.stl id:7811887588677804288 copy 0
M204 T500
G1 Z.6 F9000
G1 X22.392 Y87.787
G1 Z.6
G1 Z.2
G1 E1.2 F1800
;TYPE:Inner wall
;WIDTH:0.459999
G1 X22.468 Y87.787 E.0026
G1 X22.755 Y87.671 E.01051
G1 X22.944 Y87.455 E.00977
G1 X23.017 Y87.161 E.01026
G1 X23.017 Y62.777 E.82874
G1 X212.223 Y62.777 E6.43047
G1 X212.223 Y141.983 E2.69194
G1 X177.213 Y141.983 E1.18986
G1 X176.917 Y142.109 E.01093
G1 X176.729 Y142.339 E.0101
G1 X176.668 Y142.63 E.01011
G1 X176.668 Y147.125 E.15276
G1 X176.776 Y147.95 E.02829
G1 X177.052 Y148.705 E.02732
G1 X177.441 Y149.328 E.02496
G1 X180.594 Y153.364 E.17406
G1 X181.066 Y154.368 E.03771
G1 X181.059 Y155.404 E.03519
G1 X180.605 Y156.334 E.03519
G1 X179.794 Y156.977 E.03519
G1 X178.712 Y157.223 E.03772
G1 X145.439 Y157.223 E1.13083
G1 X144.357 Y156.977 E.03772
G1 X143.545 Y156.334 E.03519
G1 X143.092 Y155.404 E.03519
G1 X143.084 Y154.368 E.03519
G1 X143.557 Y153.364 E.03772
G1 X146.734 Y149.297 E.17541
G1 X147.158 Y148.581 E.02829
G1 X147.405 Y147.816 E.02733
G1 X147.482 Y147.085 E.02496
G1 X147.482 Y142.53 E.15483
G1 X147.372 Y142.253 E.01012
G1 X147.147 Y142.054 E.0102
G1 X146.857 Y141.983 E.01015
G1 X23.017 Y141.983 E4.2089
G1 X23.017 Y117.51 E.83176
G1 X22.884 Y117.212 E.01108
G1 X22.652 Y117.03 E.01001
G1 X22.37 Y116.973 E.00979
G1 X17.875 Y116.973 E.15277
G1 X17.05 Y117.08 E.02829
G1 X16.295 Y117.357 E.02733
G1 X15.672 Y117.745 E.02496
G1 X11.636 Y120.898 E.17406
G1 X10.632 Y121.371 E.03771
G1 X9.596 Y121.364 E.03519
G1 X8.666 Y120.91 E.03519
G1 X8.023 Y120.099 E.03519
G1 X7.777 Y119.016 E.03771
G1 X7.777 Y85.744 E1.13084
G1 X8.023 Y84.661 E.03771
G1 X8.666 Y83.85 E.03519
G1 X9.596 Y83.396 E.03519
G1 X10.632 Y83.389 E.03519
G1 X11.636 Y83.862 E.03771
G1 X15.703 Y87.039 E.17541
G1 X16.419 Y87.463 E.02829
G1 X17.184 Y87.71 E.02732
G1 X17.915 Y87.787 E.02496
G1 X22.352 Y87.787 E.1508
G1 X22.37 Y87.37 F9000
;TYPE:Outer wall
G1 F1800
G1 X22.532 Y87.315 E.00583
G1 X22.6 Y87.161 E.0057
G1 X22.6 Y62.36 E.84292
G1 X212.64 Y62.36 E6.45882
G1 X212.64 Y142.4 E2.72029
M73 P0 R128
G1 X177.294 Y142.4 E1.2013
G1 X177.143 Y142.464 E.00557
G1 X177.085 Y142.63 E.00596
G1 X177.085 Y147.097 E.15183
G1 X177.17 Y147.814 E.02454
G1 X177.407 Y148.486 E.02421
G1 X177.769 Y149.072 E.0234
G1 X180.951 Y153.144 E.17565
G1 X181.484 Y154.276 E.04253
G1 X181.475 Y155.501 E.04163
G1 X180.939 Y156.602 E.04163
G1 X179.979 Y157.363 E.04163
G1 X178.759 Y157.64 E.04253
G1 X145.392 Y157.64 E1.13401
G1 X144.172 Y157.363 E.04253
G1 X143.212 Y156.602 E.04163
G1 X142.675 Y155.501 E.04163
G1 X142.667 Y154.276 E.04163
G1 X143.199 Y153.144 E.04253
G1 X146.389 Y149.062 E.17607
G1 X146.763 Y148.445 E.02454
G1 X146.991 Y147.77 E.02421
G1 X147.065 Y147.085 E.0234
G1 X147.065 Y142.63 E.15142
G1 X147.012 Y142.469 E.00578
G1 X146.857 Y142.4 E.00576
G1 X22.6 Y142.4 E4.22307
G1 X22.6 Y117.599 E.84292
G1 X22.532 Y117.445 E.0057
G1 X22.37 Y117.39 E.00583
G1 X17.903 Y117.39 E.15183
G1 X17.186 Y117.475 E.02454
G1 X16.514 Y117.711 E.02421
G1 X15.928 Y118.074 E.0234
G1 X11.856 Y121.256 E.17565
G1 X10.724 Y121.789 E.04252
G1 X9.499 Y121.78 E.04163
G1 X8.398 Y121.243 E.04163
G1 X7.637 Y120.283 E.04163
G1 X7.36 Y119.063 E.04253
G1 X7.36 Y85.697 E1.13402
G1 X7.637 Y84.477 E.04253
G1 X8.398 Y83.517 E.04163
G1 X9.499 Y82.98 E.04163
G1 X10.724 Y82.971 E.04163
G1 X11.856 Y83.504 E.04253
G1 X15.938 Y86.694 E.17607
G1 X16.555 Y87.068 E.02454
G1 X17.23 Y87.295 E.02421
G1 X17.915 Y87.37 E.0234
G1 X22.33 Y87.37 E.15006
G1 E-.84 F2400
;WIPE_START
G1 F1800
G1 X22.532 Y87.315 E-.07552
G1 X22.6 Y87.161 E-.06042
G1 X22.6 Y86.539 E-.22406
;WIPE_END
G1 Z.6 F9000
G1 X211.254 Y62.902
G1 Z.6
G1 Z.2
G1 E1.2 F1800
;TYPE:Bottom surface
;WIDTH:0.460322
G1 F4800
G1 X211.91 Y63.558 E.03156
G1 X211.91 Y64.149 E.02008
G1 X210.851 Y63.09 E.05093
G1 X210.261 Y63.09 E.02008
G1 X211.91 Y64.739 E.07932
G1 X211.91 Y65.329 E.02008
G1 X209.671 Y63.09 E.10772
G1 X209.08 Y63.09 E.02008
G1 X211.91 Y65.919 E.13611
G1 X211.91 Y66.51 E.02008
G1 X208.49 Y63.09 E.1645
G1 X207.9 Y63.09 E.02008
G1 X211.91 Y67.1 E.1929
G1 X211.91 Y67.69 E.02008
G1 X207.31 Y63.09 E.22129
G1 X206.719 Y63.09 E.02008
G1 X211.91 Y68.281 E.24969
G1 X211.91 Y68.871 E.02008
G1 X206.129 Y63.09 E.27808
G1 X205.539 Y63.09 E.02008
G1 X211.91 Y69.461 E.30647
G1 X211.91 Y70.052 E.02008
G1 X204.948 Y63.09 E.33487
G1 X204.358 Y63.09 E.02008
G1 X211.91 Y70.642 E.36326
G1 X211.91 Y71.232 E.02008
G1 X203.768 Y63.09 E.39166
G1 X203.178 Y63.09 E.02008
G1 X211.91 Y71.822 E.42005
G1 X211.91 Y72.413 E.02008
G1 X202.587 Y63.09 E.44845
G1 X201.997 Y63.09 E.02008
G1 X211.91 Y73.003 E.47684
G1 X211.91 Y73.593 E.02008
G1 X201.407 Y63.09 E.50523
G1 X200.816 Y63.09 E.02008
G1 X211.91 Y74.184 E.53363
G1 X211.91 Y74.774 E.02008
G1 X200.226 Y63.09 E.56202
G1 X199.636 Y63.09 E.02008
G1 X211.91 Y75.364 E.59042
G1 X211.91 Y75.955 E.02008
G1 X199.045 Y63.09 E.61881
G1 X198.455 Y63.09 E.02008
G1 X211.91 Y76.545 E.6472
G1 X211.91 Y77.135 E.02008
G1 X197.865 Y63.09 E.6756
G1 X197.275 Y63.09 E.02008
G1 X211.91 Y77.725 E.70399
G1 X211.91 Y78.316 E.02008
G1 X196.684 Y63.09 E.73239
G1 X196.094 Y63.09 E.02008
G1 X211.91 Y78.906 E.76078
G1 X211.91 Y79.496 E.02008
G1 X195.504 Y63.09 E.78918
G1 X194.913 Y63.09 E.02008
G1 X211.91 Y80.087 E.81757
G1 X211.91 Y80.677 E.02008
G1 X194.323 Y63.09 E.84596
G1 X193.733 Y63.09 E.02008
G1 X211.91 Y81.267 E.87436
G1 X211.91 Y81.857 E.02008
G1 X193.143 Y63.09 E.90275
G1 X192.552 Y63.09 E.02008
G1 X211.91 Y82.448 E.93115
G1 X211.91 Y83.038 E.02008
G1 X191.962 Y63.09 E.95954
G1 X191.372 Y63.09 E.02008
G1 X211.91 Y83.628 E.98793
G1 X211.91 Y84.219 E.02008
G1 X190.781 Y63.09 E1.01633
G1 X190.191 Y63.09 E.02008
G1 X211.91 Y84.809 E1.04472
G1 X211.91 Y85.399 E.02008
G1 X189.601 Y63.09 E1.07312
G1 X189.01 Y63.09 E.02008
G1 X211.91 Y85.99 E1.10151
G1 X211.91 Y86.58 E.02008
G1 X188.42 Y63.09 E1.12991
G1 X187.83 Y63.09 E.02008
G1 X211.91 Y87.17 E1.1583
G1 X211.91 Y87.76 E.02008
G1 X187.24 Y63.09 E1.18669
G1 X186.649 Y63.09 E.02008
G1 X211.91 Y88.351 E1.21509
G1 X211.91 Y88.941 E.02008
G1 X186.059 Y63.09 E1.24348
G1 X185.469 Y63.09 E.02008
G1 X211.91 Y89.531 E1.27188
G1 X211.91 Y90.122 E.02008
G1 X184.878 Y63.09 E1.30027
G1 X184.288 Y63.09 E.02008
G1 X211.91 Y90.712 E1.32866
G1 X211.91 Y91.302 E.02008
G1 X183.698 Y63.09 E1.35706
G1 X183.107 Y63.09 E.02008
G1 X211.91 Y91.893 E1.38545
G1 X211.91 Y92.483 E.02008
G1 X182.517 Y63.09 E1.41385
G1 X181.927 Y63.09 E.02008
G1 X211.91 Y93.073 E1.44224
G1 X211.91 Y93.663 E.02008
G1 X181.337 Y63.09 E1.47064
G1 X180.746 Y63.09 E.02008
M73 P1 R128
G1 X211.91 Y94.254 E1.49903
G1 X211.91 Y94.844 E.02008
G1 X180.156 Y63.09 E1.52742
G1 X179.566 Y63.09 E.02008
G1 X211.91 Y95.434 E1.55582
G1 X211.91 Y96.025 E.02008
G1 X178.975 Y63.09 E1.58421
G1 X178.385 Y63.09 E.02008
G1 X211.91 Y96.615 E1.61261
G1 X211.91 Y97.205 E.02008
G1 X177.795 Y63.09 E1.641
G1 X177.205 Y63.09 E.02008
G1 X211.91 Y97.795 E1.66939
G1 X211.91 Y98.386 E.02008
G1 X176.614 Y63.09 E1.69779
G1 X176.024 Y63.09 E.02008
G1 X211.91 Y98.976 E1.72618
G1 X211.91 Y99.566 E.02008
G1 X175.434 Y63.09 E1.75458
G1 X174.843 Y63.09 E.02008
G1 X211.91 Y100.157 E1.78297
G1 X211.91 Y100.747 E.02008
G1 X174.253 Y63.09 E1.81137
G1 X173.663 Y63.09 E.02008
G1 X211.91 Y101.337 E1.83976
G1 X211.91 Y101.928 E.02008
G1 X173.072 Y63.09 E1.86815
G1 X172.482 Y63.09 E.02008
G1 X211.91 Y102.518 E1.89655
G1 X211.91 Y103.108 E.02008
G1 X171.892 Y63.09 E1.92494
G1 X171.302 Y63.09 E.02008
G1 X211.91 Y103.698 E1.95334
G1 X211.91 Y104.289 E.02008
G1 X170.711 Y63.09 E1.98173
G1 X170.121 Y63.09 E.02008
G1 X211.91 Y104.879 E2.01012
G1 X211.91 Y105.469 E.02008
G1 X169.531 Y63.09 E2.03852
G1 X168.94 Y63.09 E.02008
G1 X211.91 Y106.06 E2.06691
G1 X211.91 Y106.65 E.02008
G1 X168.35 Y63.09 E2.09531
G1 X167.76 Y63.09 E.02008
G1 X211.91 Y107.24 E2.1237
G1 X211.91 Y107.83 E.02008
G1 X167.17 Y63.09 E2.1521
G1 X166.579 Y63.09 E.02008
G1 X211.91 Y108.421 E2.18049
G1 X211.91 Y109.011 E.02008
G1 X165.989 Y63.09 E2.20888
G1 X165.399 Y63.09 E.02008
G1 X211.91 Y109.601 E2.23728
G1 X211.91 Y110.192 E.02008
M73 P1 R127
G1 X164.808 Y63.09 E2.26567
G1 X164.218 Y63.09 E.02008
G1 X211.91 Y110.782 E2.29407
G1 X211.91 Y111.372 E.02008
G1 X163.628 Y63.09 E2.32246
G1 X163.037 Y63.09 E.02008
G1 X211.91 Y111.963 E2.35085
G1 X211.91 Y112.553 E.02008
G1 X162.447 Y63.09 E2.37925
G1 X161.857 Y63.09 E.02008
G1 X211.91 Y113.143 E2.40764
G1 X211.91 Y113.733 E.02008
G1 X161.267 Y63.09 E2.43604
G1 X160.676 Y63.09 E.02008
G1 X211.91 Y114.324 E2.46443
G1 X211.91 Y114.914 E.02008
G1 X160.086 Y63.09 E2.49283
G1 X159.496 Y63.09 E.02008
G1 X211.91 Y115.504 E2.52122
G1 X211.91 Y116.095 E.02008
G1 X158.905 Y63.09 E2.54961
G1 X158.315 Y63.09 E.02008
G1 X211.91 Y116.685 E2.57801
G1 X211.91 Y117.275 E.02008
G1 X157.725 Y63.09 E2.6064
G1 X157.134 Y63.09 E.02008
G1 X211.91 Y117.866 E2.6348
G1 X211.91 Y118.456 E.02008
G1 X156.544 Y63.09 E2.66319
G1 X155.954 Y63.09 E.02008
G1 X211.91 Y119.046 E2.69158
G1 X211.91 Y119.636 E.02008
G1 X155.364 Y63.09 E2.71998
G1 X154.773 Y63.09 E.02008
G1 X211.91 Y120.227 E2.74837
G1 X211.91 Y120.817 E.02008
G1 X154.183 Y63.09 E2.77677
G1 X153.593 Y63.09 E.02008
G1 X211.91 Y121.407 E2.80516
G1 X211.91 Y121.998 E.02008
G1 X153.002 Y63.09 E2.83356
G1 X152.412 Y63.09 E.02008
G1 X211.91 Y122.588 E2.86195
G1 X211.91 Y123.178 E.02008
G1 X151.822 Y63.09 E2.89034
G1 X151.232 Y63.09 E.02008
G1 X211.91 Y123.768 E2.91874
G1 X211.91 Y124.359 E.02008
G1 X150.641 Y63.09 E2.94713
G1 X150.051 Y63.09 E.02008
G1 X211.91 Y124.949 E2.97553
G1 X211.91 Y125.539 E.02008
G1 X149.461 Y63.09 E3.00392
G1 X148.87 Y63.09 E.02008
G1 X211.91 Y126.13 E3.03231
G1 X211.91 Y126.72 E.02008
G1 X148.28 Y63.09 E3.06071
G1 X147.69 Y63.09 E.02008
G1 X211.91 Y127.31 E3.0891
G1 X211.91 Y127.901 E.02008
G1 X147.099 Y63.09 E3.1175
G1 X146.509 Y63.09 E.02008
G1 X211.91 Y128.491 E3.14589
G1 X211.91 Y129.081 E.02008
G1 X145.919 Y63.09 E3.17429
G1 X145.329 Y63.09 E.02008
G1 X211.91 Y129.671 E3.20268
G1 X211.91 Y130.262 E.02008
G1 X144.738 Y63.09 E3.23107
G1 X144.148 Y63.09 E.02008
G1 X211.91 Y130.852 E3.25947
G1 X211.91 Y131.442 E.02008
G1 X143.558 Y63.09 E3.28786
G1 X142.967 Y63.09 E.02008
G1 X211.91 Y132.033 E3.31626
G1 X211.91 Y132.623 E.02008
G1 X142.377 Y63.09 E3.34465
G1 X141.787 Y63.09 E.02008
G1 X211.91 Y133.213 E3.37304
G1 X211.91 Y133.803 E.02008
G1 X141.197 Y63.09 E3.40144
G1 X140.606 Y63.09 E.02008
G1 X211.91 Y134.394 E3.42983
G1 X211.91 Y134.984 E.02008
G1 X140.016 Y63.09 E3.45823
G1 X139.426 Y63.09 E.02008
G1 X211.91 Y135.574 E3.48662
G1 X211.91 Y136.165 E.02008
G1 X138.835 Y63.09 E3.51502
G1 X138.245 Y63.09 E.02008
G1 X211.91 Y136.755 E3.54341
G1 X211.91 Y137.345 E.02008
M73 P2 R127
G1 X137.655 Y63.09 E3.5718
G1 X137.064 Y63.09 E.02008
G1 X211.91 Y137.936 E3.6002
G1 X211.91 Y138.526 E.02008
G1 X136.474 Y63.09 E3.62859
G1 X135.884 Y63.09 E.02008
M73 P2 R126
G1 X211.91 Y139.116 E3.65699
G1 X211.91 Y139.706 E.02008
G1 X135.294 Y63.09 E3.68538
G1 X134.703 Y63.09 E.02008
G1 X211.91 Y140.297 E3.71377
G1 X211.91 Y140.887 E.02008
G1 X134.113 Y63.09 E3.74217
G1 X133.523 Y63.09 E.02008
G1 X211.91 Y141.477 E3.77056
G1 X211.91 Y141.67 E.00656
G1 X211.513 Y141.67 E.01352
G1 X132.932 Y63.09 E3.77984
G1 X132.342 Y63.09 E.02008
G1 X210.922 Y141.67 E3.77984
G1 X210.332 Y141.67 E.02008
G1 X131.752 Y63.09 E3.77984
G1 X131.161 Y63.09 E.02008
G1 X209.742 Y141.67 E3.77984
G1 X209.151 Y141.67 E.02008
G1 X130.571 Y63.09 E3.77984
G1 X129.981 Y63.09 E.02008
G1 X208.561 Y141.67 E3.77984
G1 X207.971 Y141.67 E.02008
G1 X129.391 Y63.09 E3.77984
G1 X128.8 Y63.09 E.02008
G1 X207.381 Y141.67 E3.77984
G1 X206.79 Y141.67 E.02008
G1 X128.21 Y63.09 E3.77984
G1 X127.62 Y63.09 E.02008
G1 X206.2 Y141.67 E3.77984
G1 X205.61 Y141.67 E.02008
G1 X127.029 Y63.09 E3.77984
G1 X126.439 Y63.09 E.02008
G1 X205.019 Y141.67 E3.77984
G1 X204.429 Y141.67 E.02008
G1 X125.849 Y63.09 E3.77984
G1 X125.259 Y63.09 E.02008
G1 X203.839 Y141.67 E3.77984
G1 X203.248 Y141.67 E.02008
G1 X124.668 Y63.09 E3.77984
G1 X124.078 Y63.09 E.02008
G1 X202.658 Y141.67 E3.77984
G1 X202.068 Y141.67 E.02008
G1 X123.488 Y63.09 E3.77984
G1 X122.897 Y63.09 E.02008
G1 X201.478 Y141.67 E3.77984
G1 X200.887 Y141.67 E.02008
G1 X122.307 Y63.09 E3.77984
G1 X121.717 Y63.09 E.02008
G1 X200.297 Y141.67 E3.77984
G1 X199.707 Y141.67 E.02008
G1 X121.126 Y63.09 E3.77984
G1 X120.536 Y63.09 E.02008
G1 X199.116 Y141.67 E3.77984
G1 X198.526 Y141.67 E.02008
G1 X119.946 Y63.09 E3.77984
G1 X119.356 Y63.09 E.02008
G1 X197.936 Y141.67 E3.77984
G1 X197.346 Y141.67 E.02008
G1 X118.765 Y63.09 E3.77984
G1 X118.175 Y63.09 E.02008
G1 X196.755 Y141.67 E3.77984
G1 X196.165 Y141.67 E.02008
G1 X117.585 Y63.09 E3.77984
G1 X116.994 Y63.09 E.02008
G1 X195.575 Y141.67 E3.77984
G1 X194.984 Y141.67 E.02008
G1 X116.404 Y63.09 E3.77984
G1 X115.814 Y63.09 E.02008
G1 X194.394 Y141.67 E3.77984
G1 X193.804 Y141.67 E.02008
G1 X115.224 Y63.09 E3.77984
G1 X114.633 Y63.09 E.02008
G1 X193.213 Y141.67 E3.77984
G1 X192.623 Y141.67 E.02008
G1 X114.043 Y63.09 E3.77984
G1 X113.453 Y63.09 E.02008
G1 X192.033 Y141.67 E3.77984
G1 X191.443 Y141.67 E.02008
M73 P2 R125
G1 X112.862 Y63.09 E3.77984
G1 X112.272 Y63.09 E.02008
G1 X190.852 Y141.67 E3.77984
G1 X190.262 Y141.67 E.02008
G1 X111.682 Y63.09 E3.77984
G1 X111.091 Y63.09 E.02008
G1 X189.672 Y141.67 E3.77984
G1 X189.081 Y141.67 E.02008
G1 X110.501 Y63.09 E3.77984
G1 X109.911 Y63.09 E.02008
G1 X188.491 Y141.67 E3.77984
G1 X187.901 Y141.67 E.02008
G1 X109.321 Y63.09 E3.77984
G1 X108.73 Y63.09 E.02008
G1 X187.31 Y141.67 E3.77984
G1 X186.72 Y141.67 E.02008
M73 P3 R125
G1 X108.14 Y63.09 E3.77984
G1 X107.55 Y63.09 E.02008
G1 X186.13 Y141.67 E3.77984
G1 X185.54 Y141.67 E.02008
G1 X106.959 Y63.09 E3.77984
G1 X106.369 Y63.09 E.02008
G1 X184.949 Y141.67 E3.77984
G1 X184.359 Y141.67 E.02008
G1 X105.779 Y63.09 E3.77984
G1 X105.188 Y63.09 E.02008
G1 X183.769 Y141.67 E3.77984
G1 X183.178 Y141.67 E.02008
G1 X104.598 Y63.09 E3.77984
G1 X104.008 Y63.09 E.02008
G1 X182.588 Y141.67 E3.77984
G1 X181.998 Y141.67 E.02008
G1 X103.418 Y63.09 E3.77984
G1 X102.827 Y63.09 E.02008
G1 X181.408 Y141.67 E3.77984
G1 X180.817 Y141.67 E.02008
G1 X102.237 Y63.09 E3.77984
G1 X101.647 Y63.09 E.02008
G1 X180.227 Y141.67 E3.77984
G1 X179.637 Y141.67 E.02008
G1 X101.056 Y63.09 E3.77984
G1 X100.466 Y63.09 E.02008
G1 X179.046 Y141.67 E3.77984
G1 X178.456 Y141.67 E.02008
G1 X99.876 Y63.09 E3.77984
G1 X99.286 Y63.09 E.02008
G1 X177.866 Y141.67 E3.77984
G1 X177.277 Y141.671 E.02004
G1 X98.695 Y63.09 E3.77989
G1 X98.105 Y63.09 E.02008
G1 X176.822 Y141.807 E3.78642
G1 X176.713 Y141.87 E.00426
G1 X176.514 Y142.089 E.01009
G1 X97.515 Y63.09 E3.79998
G1 X96.924 Y63.09 E.02008
