; HEADER_BLOCK_START
; generated by OrcaSlicer 2.2.0 on 2024-12-10 at 21:26:16
; total layer number: 25
; filament_density: 1.24
; filament_diameter: 1.75
; max_z_height: 5.00
; HEADER_BLOCK_END

; external perimeters extrusion width = 0.42mm
; perimeters extrusion width = 0.45mm
; infill extrusion width = 0.45mm
; solid infill extrusion width = 0.42mm
; top infill extrusion width = 0.42mm
; support material extrusion width = 0.38mm
; first layer extrusion width = 0.46mm

; EXECUTABLE_BLOCK_START
M201 X2500 Y2500 Z500 E5000
M203 X250 Y250 Z5 E40
M204 P2500 R500 T2500 ; sets acceleration (P, T) and retract acceleration (R), mm/sec^2
M205 X10.00 Y10.00 Z0.40 E5.00 ; sets the jerk limits, mm/sec
;TYPE:Custom
M220 S100 ;Reset Feedrate 
M221 S100 ;Reset Flowrate 
 
M104 S220 ;Set final nozzle temp 
M190 S55 ;Set and wait for bed temp to stabilize 
G28 ;Home 
G92 E0 ;Reset Extruder 
G1 Z2.0 F3000 ;Move Z Axis up 
G1 X-2.1 Y20 Z0.28 F5000.0 ;Move to start position 
M109 S220 ;Wait for nozzle temp to stabilize 
G1 X-2.1 Y145.0 Z0.28 F1500.0 E15 ;Draw the first line 
G1 X-2.4 Y145.0 Z0.28 F5000.0 ;Move to side a little 
G1 X-2.4 Y20 Z0.28 F1500.0 E30 ;Draw the second line 
G92 E0  ;Reset Extruder 
G1 E-1.0000 F1800 ;Retract a bit 
M73 P0 R86
G1 Z2.0 F3000 ;Move Z Axis up 
G1 E0.0000 F1800
G90
G21
M83 ; use relative distances for extrusion
; filament start gcode
M106 S0
;LAYER_CHANGE
;Z:0.2
;HEIGHT:0.2
;BEFORE_LAYER_CHANGE
;0.2
G92 E0

G1 E-1.2 F2400
;_SET_FAN_SPEED_CHANGING_LAYER
M204 P500
; printing object Board.stl_14.stl id:0 copy 0
M204 T500
G1 Z.6 F9000
G1 X124.608 Y127.704
G1 Z.6
G1 Z.2
G1 E1.2 F1800
;TYPE:Inner wall
;WIDTH:0.459999
G1 X124.593 Y127.78 E.00262
G1 X124.593 Y132.275 E.15277
G1 X124.7 Y133.1 E.02829
G1 X124.977 Y133.855 E.02733
G1 X125.365 Y134.478 E.02496
G1 X128.518 Y138.514 E.17406
G1 X128.991 Y139.518 E.03772
G1 X128.984 Y140.554 E.03519
G1 X128.53 Y141.484 E.03519
G1 X127.719 Y142.127 E.03519
G1 X126.636 Y142.373 E.03771
G1 X93.364 Y142.373 E1.13084
G1 X92.281 Y142.127 E.03771
G1 X91.47 Y141.484 E.03519
G1 X91.016 Y140.554 E.03519
G1 X91.009 Y139.518 E.03519
G1 X91.482 Y138.514 E.03772
G1 X94.659 Y134.447 E.17541
G1 X95.083 Y133.731 E.02829
G1 X95.33 Y132.966 E.02732
G1 X95.407 Y132.235 E.02496
G1 X95.407 Y127.682 E.15474
G1 X95.292 Y127.397 E.01045
G1 X95.062 Y127.199 E.01031
G1 X94.781 Y127.133 E.0098
G1 X11.197 Y127.133 E2.84075
G1 X11.197 Y77.627 E1.68254
G1 X208.803 Y77.627 E6.71596
G1 X208.803 Y127.133 E1.68254
G1 X125.125 Y127.133 E2.84392
G1 X124.831 Y127.268 E.01102
G1 X124.649 Y127.499 E.00999
G1 X124.616 Y127.665 E.00575
G1 X125.01 Y127.78 F9000
;TYPE:Outer wall
G1 F1800
G1 X125.01 Y132.247 E.15183
G1 X125.095 Y132.964 E.02454
G1 X125.331 Y133.636 E.02421
G1 X125.694 Y134.222 E.0234
G1 X128.876 Y138.294 E.17565
G1 X129.409 Y139.426 E.04253
G1 X129.4 Y140.651 E.04163
G1 X128.863 Y141.752 E.04163
G1 X127.903 Y142.513 E.04163
G1 X126.683 Y142.79 E.04253
G1 X93.317 Y142.79 E1.13402
G1 X92.097 Y142.513 E.04253
G1 X91.137 Y141.752 E.04163
G1 X90.6 Y140.651 E.04163
G1 X90.591 Y139.426 E.04163
G1 X91.124 Y138.294 E.04253
G1 X94.314 Y134.212 E.17607
G1 X94.688 Y133.595 E.02454
G1 X94.915 Y132.92 E.02421
G1 X94.99 Y132.235 E.0234
G1 X94.99 Y127.78 E.15142
G1 X94.936 Y127.618 E.0058
G1 X94.781 Y127.55 E.00573
G1 X10.78 Y127.55 E2.85493
G1 X10.78 Y77.21 E1.71089
G1 X209.22 Y77.21 E6.74431
G1 X209.22 Y127.55 E1.71089
G1 X125.219 Y127.55 E2.85493
G1 X125.064 Y127.618 E.00573
G1 X125.023 Y127.742 E.00444
G1 E-.84 F2400
;WIPE_START
G1 F1800
G1 X125.02 Y128.742 E-.36
;WIPE_END
G1 Z.6 F9000
G1 X208.678 Y78.596
G1 Z.6
G1 Z.2
G1 E1.2 F1800
;TYPE:Bottom surface
;WIDTH:0.460239
G1 F4800
G1 X208.022 Y77.94 E.03155
G1 X207.432 Y77.94 E.02007
G1 X208.49 Y78.998 E.0509
G1 X208.49 Y79.588 E.02007
G1 X206.841 Y77.94 E.07929
G1 X206.251 Y77.94 E.02007
G1 X208.49 Y80.179 E.10767
G1 X208.49 Y80.769 E.02007
G1 X205.661 Y77.94 E.13605
G1 X205.071 Y77.94 E.02007
G1 X208.49 Y81.359 E.16443
G1 X208.49 Y81.949 E.02007
G1 X204.481 Y77.94 E.19282
G1 X203.891 Y77.94 E.02007
G1 X208.49 Y82.539 E.2212
G1 X208.49 Y83.13 E.02007
G1 X203.3 Y77.94 E.24958
G1 X202.71 Y77.94 E.02007
G1 X208.49 Y83.72 E.27797
G1 X208.49 Y84.31 E.02007
M73 P1 R86
G1 X202.12 Y77.94 E.30635
G1 X201.53 Y77.94 E.02007
G1 X208.49 Y84.9 E.33473
G1 X208.49 Y85.49 E.02007
G1 X200.94 Y77.94 E.36311
G1 X200.35 Y77.94 E.02007
G1 X208.49 Y86.08 E.3915
G1 X208.49 Y86.671 E.02007
G1 X199.759 Y77.94 E.41988
G1 X199.169 Y77.94 E.02007
G1 X208.49 Y87.261 E.44826
G1 X208.49 Y87.851 E.02007
G1 X198.579 Y77.94 E.47665
G1 X197.989 Y77.94 E.02007
G1 X208.49 Y88.441 E.50503
G1 X208.49 Y89.031 E.02007
G1 X197.399 Y77.94 E.53341
G1 X196.808 Y77.94 E.02007
G1 X208.49 Y89.622 E.56179
G1 X208.49 Y90.212 E.02007
G1 X196.218 Y77.94 E.59018
G1 X195.628 Y77.94 E.02007
G1 X208.49 Y90.802 E.61856
G1 X208.49 Y91.392 E.02007
G1 X195.038 Y77.94 E.64694
G1 X194.448 Y77.94 E.02007
G1 X208.49 Y91.982 E.67533
G1 X208.49 Y92.572 E.02007
G1 X193.858 Y77.94 E.70371
G1 X193.267 Y77.94 E.02007
G1 X208.49 Y93.163 E.73209
G1 X208.49 Y93.753 E.02007
G1 X192.677 Y77.94 E.76047
G1 X192.087 Y77.94 E.02007
G1 X208.49 Y94.343 E.78886
G1 X208.49 Y94.933 E.02007
G1 X191.497 Y77.94 E.81724
G1 X190.907 Y77.94 E.02007
G1 X208.49 Y95.523 E.84562
G1 X208.49 Y96.113 E.02007
G1 X190.317 Y77.94 E.87401
G1 X189.726 Y77.94 E.02007
G1 X208.49 Y96.704 E.90239
G1 X208.49 Y97.294 E.02007
G1 X189.136 Y77.94 E.93077
G1 X188.546 Y77.94 E.02007
G1 X208.49 Y97.884 E.95915
G1 X208.49 Y98.474 E.02007
G1 X187.956 Y77.94 E.98754
G1 X187.366 Y77.94 E.02007
G1 X208.49 Y99.064 E1.01592
G1 X208.49 Y99.655 E.02007
G1 X186.775 Y77.94 E1.0443
G1 X186.185 Y77.94 E.02007
G1 X208.49 Y100.245 E1.07269
G1 X208.49 Y100.835 E.02007
G1 X185.595 Y77.94 E1.10107
G1 X185.005 Y77.94 E.02007
G1 X208.49 Y101.425 E1.12945
G1 X208.49 Y102.015 E.02007
G1 X184.415 Y77.94 E1.15783
G1 X183.825 Y77.94 E.02007
G1 X208.49 Y102.605 E1.18622
G1 X208.49 Y103.196 E.02007
G1 X183.234 Y77.94 E1.2146
G1 X182.644 Y77.94 E.02007
M73 P1 R85
G1 X208.49 Y103.786 E1.24298
G1 X208.49 Y104.376 E.02007
G1 X182.054 Y77.94 E1.27137
G1 X181.464 Y77.94 E.02007
G1 X208.49 Y104.966 E1.29975
G1 X208.49 Y105.556 E.02007
G1 X180.874 Y77.94 E1.32813
G1 X180.283 Y77.94 E.02007
G1 X208.49 Y106.147 E1.35651
G1 X208.49 Y106.737 E.02007
G1 X179.693 Y77.94 E1.3849
G1 X179.103 Y77.94 E.02007
G1 X208.49 Y107.327 E1.41328
G1 X208.49 Y107.917 E.02007
G1 X178.513 Y77.94 E1.44166
G1 X177.923 Y77.94 E.02007
G1 X208.49 Y108.507 E1.47005
G1 X208.49 Y109.097 E.02007
G1 X177.333 Y77.94 E1.49843
G1 X176.742 Y77.94 E.02007
G1 X208.49 Y109.688 E1.52681
G1 X208.49 Y110.278 E.02007
G1 X176.152 Y77.94 E1.5552
G1 X175.562 Y77.94 E.02007
G1 X208.49 Y110.868 E1.58358
G1 X208.49 Y111.458 E.02007
G1 X174.972 Y77.94 E1.61196
G1 X174.382 Y77.94 E.02007
G1 X208.49 Y112.048 E1.64034
G1 X208.49 Y112.638 E.02007
G1 X173.792 Y77.94 E1.66873
G1 X173.201 Y77.94 E.02007
G1 X208.49 Y113.229 E1.69711
G1 X208.49 Y113.819 E.02007
G1 X172.611 Y77.94 E1.72549
G1 X172.021 Y77.94 E.02007
G1 X208.49 Y114.409 E1.75388
G1 X208.49 Y114.999 E.02007
G1 X171.431 Y77.94 E1.78226
G1 X170.841 Y77.94 E.02007
G1 X208.49 Y115.589 E1.81064
G1 X208.49 Y116.18 E.02007
G1 X170.25 Y77.94 E1.83902
G1 X169.66 Y77.94 E.02007
G1 X208.49 Y116.77 E1.86741
G1 X208.49 Y117.36 E.02007
G1 X169.07 Y77.94 E1.89579
G1 X168.48 Y77.94 E.02007
G1 X208.49 Y117.95 E1.92417
G1 X208.49 Y118.54 E.02007
G1 X167.89 Y77.94 E1.95256
G1 X167.3 Y77.94 E.02007
G1 X208.49 Y119.13 E1.98094
G1 X208.49 Y119.721 E.02007
G1 X166.709 Y77.94 E2.00932
G1 X166.119 Y77.94 E.02007
G1 X208.49 Y120.311 E2.0377
G1 X208.49 Y120.901 E.02007
G1 X165.529 Y77.94 E2.06609
G1 X164.939 Y77.94 E.02007
G1 X208.49 Y121.491 E2.09447
G1 X208.49 Y122.081 E.02007
G1 X164.349 Y77.94 E2.12285
G1 X163.758 Y77.94 E.02007
G1 X208.49 Y122.672 E2.15124
G1 X208.49 Y123.262 E.02007
G1 X163.168 Y77.94 E2.17962
G1 X162.578 Y77.94 E.02007
G1 X208.49 Y123.852 E2.208
G1 X208.49 Y124.442 E.02007
G1 X161.988 Y77.94 E2.23638
G1 X161.398 Y77.94 E.02007
G1 X208.49 Y125.032 E2.26477
G1 X208.49 Y125.622 E.02007
G1 X160.808 Y77.94 E2.29315
G1 X160.217 Y77.94 E.02007
G1 X208.49 Y126.213 E2.32153
G1 X208.49 Y126.803 E.02007
G1 X159.627 Y77.94 E2.34992
G1 X159.037 Y77.94 E.02007
G1 X207.917 Y126.82 E2.35075
G1 X207.327 Y126.82 E.02007
G1 X158.447 Y77.94 E2.35075
G1 X157.857 Y77.94 E.02007
G1 X206.737 Y126.82 E2.35075
G1 X206.147 Y126.82 E.02007
G1 X157.267 Y77.94 E2.35075
G1 X156.676 Y77.94 E.02007
G1 X205.557 Y126.82 E2.35075
G1 X204.966 Y126.82 E.02007
G1 X156.086 Y77.94 E2.35075
G1 X155.496 Y77.94 E.02007
M73 P2 R85
G1 X204.376 Y126.82 E2.35075
G1 X203.786 Y126.82 E.02007
G1 X154.906 Y77.94 E2.35075
G1 X154.316 Y77.94 E.02007
G1 X203.196 Y126.82 E2.35075
G1 X202.606 Y126.82 E.02007
G1 X153.725 Y77.94 E2.35075
G1 X153.135 Y77.94 E.02007
G1 X202.015 Y126.82 E2.35075
G1 X201.425 Y126.82 E.02007
G1 X152.545 Y77.94 E2.35075
G1 X151.955 Y77.94 E.02007
G1 X200.835 Y126.82 E2.35075
G1 X200.245 Y126.82 E.02007
G1 X151.365 Y77.94 E2.35075
G1 X150.775 Y77.94 E.02007
G1 X199.655 Y126.82 E2.35075
G1 X199.065 Y126.82 E.02007
G1 X150.184 Y77.94 E2.35075
G1 X149.594 Y77.94 E.02007
G1 X198.474 Y126.82 E2.35075
G1 X197.884 Y126.82 E.02007
G1 X149.004 Y77.94 E2.35075
G1 X148.414 Y77.94 E.02007
G1 X197.294 Y126.82 E2.35075
G1 X196.704 Y126.82 E.02007
G1 X147.824 Y77.94 E2.35075
G1 X147.234 Y77.94 E.02007
G1 X196.114 Y126.82 E2.35075
G1 X195.524 Y126.82 E.02007
G1 X146.643 Y77.94 E2.35075
G1 X146.053 Y77.94 E.02007
G1 X194.933 Y126.82 E2.35075
G1 X194.343 Y126.82 E.02007
G1 X145.463 Y77.94 E2.35075
G1 X144.873 Y77.94 E.02007
G1 X193.753 Y126.82 E2.35075
G1 X193.163 Y126.82 E.02007
G1 X144.283 Y77.94 E2.35075
G1 X143.692 Y77.94 E.02007
G1 X192.573 Y126.82 E2.35075
G1 X191.982 Y126.82 E.02007
M73 P2 R84
G1 X143.102 Y77.94 E2.35075
G1 X142.512 Y77.94 E.02007
G1 X191.392 Y126.82 E2.35075
G1 X190.802 Y126.82 E.02007
G1 X141.922 Y77.94 E2.35075
G1 X141.332 Y77.94 E.02007
G1 X190.212 Y126.82 E2.35075
G1 X189.622 Y126.82 E.02007
G1 X140.742 Y77.94 E2.35075
G1 X140.151 Y77.94 E.02007
G1 X189.032 Y126.82 E2.35075
G1 X188.441 Y126.82 E.02007
G1 X139.561 Y77.94 E2.35075
G1 X138.971 Y77.94 E.02007
G1 X187.851 Y126.82 E2.35075
G1 X187.261 Y126.82 E.02007
G1 X138.381 Y77.94 E2.35075
G1 X137.791 Y77.94 E.02007
G1 X186.671 Y126.82 E2.35075
G1 X186.081 Y126.82 E.02007
G1 X137.2 Y77.94 E2.35075
G1 X136.61 Y77.94 E.02007
G1 X185.491 Y126.82 E2.35075
G1 X184.9 Y126.82 E.02007
G1 X136.02 Y77.94 E2.35075
G1 X135.43 Y77.94 E.02007
G1 X184.31 Y126.82 E2.35075
G1 X183.72 Y126.82 E.02007
G1 X134.84 Y77.94 E2.35075
G1 X134.25 Y77.94 E.02007
G1 X183.13 Y126.82 E2.35075
G1 X182.54 Y126.82 E.02007
G1 X133.659 Y77.94 E2.35075
G1 X133.069 Y77.94 E.02007
G1 X181.949 Y126.82 E2.35075
G1 X181.359 Y126.82 E.02007
G1 X132.479 Y77.94 E2.35075
G1 X131.889 Y77.94 E.02007
G1 X180.769 Y126.82 E2.35075
G1 X180.179 Y126.82 E.02007
G1 X131.299 Y77.94 E2.35075
G1 X130.709 Y77.94 E.02007
G1 X179.589 Y126.82 E2.35075
G1 X178.999 Y126.82 E.02007
G1 X130.118 Y77.94 E2.35075
G1 X129.528 Y77.94 E.02007
G1 X178.408 Y126.82 E2.35075
G1 X177.818 Y126.82 E.02007
G1 X128.938 Y77.94 E2.35075
G1 X128.348 Y77.94 E.02007
G1 X177.228 Y126.82 E2.35075
G1 X176.638 Y126.82 E.02007
G1 X127.758 Y77.94 E2.35075
G1 X127.167 Y77.94 E.02007
G1 X176.048 Y126.82 E2.35075
G1 X175.457 Y126.82 E.02007
G1 X126.577 Y77.94 E2.35075
G1 X125.987 Y77.94 E.02007
G1 X174.867 Y126.82 E2.35075
G1 X174.277 Y126.82 E.02007
M73 P3 R84
G1 X125.397 Y77.94 E2.35075
G1 X124.807 Y77.94 E.02007
G1 X173.687 Y126.82 E2.35075
G1 X173.097 Y126.82 E.02007
G1 X124.217 Y77.94 E2.35075
G1 X123.626 Y77.94 E.02007
G1 X172.507 Y126.82 E2.35075
G1 X171.916 Y126.82 E.02007
G1 X123.036 Y77.94 E2.35075
G1 X122.446 Y77.94 E.02007
G1 X171.326 Y126.82 E2.35075
G1 X170.736 Y126.82 E.02007
G1 X121.856 Y77.94 E2.35075
G1 X121.266 Y77.94 E.02007
G1 X170.146 Y126.82 E2.35075
G1 X169.556 Y126.82 E.02007
G1 X120.675 Y77.94 E2.35075
G1 X120.085 Y77.94 E.02007
G1 X168.966 Y126.82 E2.35075
G1 X168.375 Y126.82 E.02007
G1 X119.495 Y77.94 E2.35075
G1 X118.905 Y77.94 E.02007
G1 X167.785 Y126.82 E2.35075
G1 X167.195 Y126.82 E.02007
G1 X118.315 Y77.94 E2.35075
G1 X117.725 Y77.94 E.02007
G1 X166.605 Y126.82 E2.35075
G1 X166.015 Y126.82 E.02007
G1 X117.134 Y77.94 E2.35075
G1 X116.544 Y77.94 E.02007
G1 X165.424 Y126.82 E2.35075
G1 X164.834 Y126.82 E.02007
G1 X115.954 Y77.94 E2.35075
G1 X115.364 Y77.94 E.02007
G1 X164.244 Y126.82 E2.35075
G1 X163.654 Y126.82 E.02007
G1 X114.774 Y77.94 E2.35075
G1 X114.184 Y77.94 E.02007
G1 X163.064 Y126.82 E2.35075
G1 X162.474 Y126.82 E.02007
G1 X113.593 Y77.94 E2.35075
G1 X113.003 Y77.94 E.02007
G1 X161.883 Y126.82 E2.35075
G1 X161.293 Y126.82 E.02007
G1 X112.413 Y77.94 E2.35075
G1 X111.823 Y77.94 E.02007
G1 X160.703 Y126.82 E2.35075
G1 X160.113 Y126.82 E.02007
G1 X111.233 Y77.94 E2.35075
G1 X110.642 Y77.94 E.02007
G1 X159.523 Y126.82 E2.35075
G1 X158.932 Y126.82 E.02007
G1 X110.052 Y77.94 E2.35075
G1 X109.462 Y77.94 E.02007
G1 X158.342 Y126.82 E2.35075
G1 X157.752 Y126.82 E.02007
G1 X108.872 Y77.94 E2.35075
G1 X108.282 Y77.94 E.02007
G1 X157.162 Y126.82 E2.35075
G1 X156.572 Y126.82 E.02007
M73 P3 R83
G1 X107.692 Y77.94 E2.35075
G1 X107.101 Y77.94 E.02007
G1 X155.982 Y126.82 E2.35075
G1 X155.391 Y126.82 E.02007
G1 X106.511 Y77.94 E2.35075
G1 X105.921 Y77.94 E.02007
G1 X154.801 Y126.82 E2.35075
G1 X154.211 Y126.82 E.02007
G1 X105.331 Y77.94 E2.35075
G1 X104.741 Y77.94 E.02007
G1 X153.621 Y126.82 E2.35075
G1 X153.031 Y126.82 E.02007
G1 X104.15 Y77.94 E2.35075
G1 X103.56 Y77.94 E.02007
G1 X152.441 Y126.82 E2.35075
G1 X151.85 Y126.82 E.02007
G1 X102.97 Y77.94 E2.35075
G1 X102.38 Y77.94 E.02007
G1 X151.26 Y126.82 E2.35075
G1 X150.67 Y126.82 E.02007
G1 X101.79 Y77.94 E2.35075
G1 X101.2 Y77.94 E.02007
G1 X150.08 Y126.82 E2.35075
G1 X149.49 Y126.82 E.02007
G1 X100.609 Y77.94 E2.35075
G1 X100.019 Y77.94 E.02007
G1 X148.899 Y126.82 E2.35075
G1 X148.309 Y126.82 E.02007
G1 X99.429 Y77.94 E2.35075
G1 X98.839 Y77.94 E.02007
G1 X147.719 Y126.82 E2.35075
G1 X147.129 Y126.82 E.02007
G1 X98.249 Y77.94 E2.35075
G1 X97.659 Y77.94 E.02007
G1 X146.539 Y126.82 E2.35075
G1 X145.949 Y126.82 E.02007
G1 X97.068 Y77.94 E2.35075
G1 X96.478 Y77.94 E.02007
G1 X145.358 Y126.82 E2.35075
G1 X144.768 Y126.82 E.02007
G1 X95.888 Y77.94 E2.35075
G1 X95.298 Y77.94 E.02007
G1 X144.178 Y126.82 E2.35075
G1 X143.588 Y126.82 E.02007
M73 P4 R83
G1 X94.708 Y77.94 E2.35075
G1 X94.117 Y77.94 E.02007
G1 X142.998 Y126.82 E2.35075
G1 X142.408 Y126.82 E.02007
G1 X93.527 Y77.94 E2.35075
G1 X92.937 Y77.94 E.02007
G1 X141.817 Y126.82 E2.35075
G1 X141.227 Y126.82 E.02007
G1 X92.347 Y77.94 E2.35075
G1 X91.757 Y77.94 E.02007
G1 X140.637 Y126.82 E2.35075
G1 X140.047 Y126.82 E.02007
G1 X91.167 Y77.94 E2.35075
G1 X90.576 Y77.94 E.02007
G1 X139.457 Y126.82 E2.35075
G1 X138.866 Y126.82 E.02007
G1 X89.986 Y77.94 E2.35075
G1 X89.396 Y77.94 E.02007
G1 X138.276 Y126.82 E2.35075
G1 X137.686 Y126.82 E.02007
G1 X88.806 Y77.94 E2.35075
G1 X88.216 Y77.94 E.02007
G1 X137.096 Y126.82 E2.35075
G1 X136.506 Y126.82 E.02007
G1 X87.626 Y77.94 E2.35075
G1 X87.035 Y77.94 E.02007
G1 X135.916 Y126.82 E2.35075
G1 X135.325 Y126.82 E.02007
G1 X86.445 Y77.94 E2.35075
G1 X85.855 Y77.94 E.02007
G1 X134.735 Y126.82 E2.35075
G1 X134.145 Y126.82 E.02007
G1 X85.265 Y77.94 E2.35075
G1 X84.675 Y77.94 E.02007
G1 X133.555 Y126.82 E2.35075
G1 X132.965 Y126.82 E.02007
G1 X84.084 Y77.94 E2.35075
G1 X83.494 Y77.94 E.02007
G1 X132.374 Y126.82 E2.35075
G1 X131.784 Y126.82 E.02007
G1 X82.904 Y77.94 E2.35075
G1 X82.314 Y77.94 E.02007
G1 X131.194 Y126.82 E2.35075
G1 X130.604 Y126.82 E.02007
G1 X81.724 Y77.94 E2.35075
G1 X81.134 Y77.94 E.02007
G1 X130.014 Y126.82 E2.35075
G1 X129.424 Y126.82 E.02007
G1 X80.543 Y77.94 E2.35075
G1 X79.953 Y77.94 E.02007
G1 X128.833 Y126.82 E2.35075
G1 X128.243 Y126.82 E.02007
G1 X79.363 Y77.94 E2.35075
G1 X78.773 Y77.94 E.02007
G1 X127.653 Y126.82 E2.35075
G1 X127.063 Y126.82 E.02007
G1 X78.183 Y77.94 E2.35075
G1 X77.592 Y77.94 E.02007
G1 X126.473 Y126.82 E2.35075
G1 X125.883 Y126.82 E.02007
