; HEADER_BLOCK_START
; generated by OrcaSlicer 2.2.0 on 2024-12-10 at 21:13:15
; total layer number: 25
; filament_density: 1.24
; filament_diameter: 1.75
; max_z_height: 5.00
; HEADER_BLOCK_END

; external perimeters extrusion width = 0.42mm
; perimeters extrusion width = 0.45mm
; infill extrusion width = 0.45mm
; solid infill extrusion width = 0.42mm
; top infill extrusion width = 0.42mm
; first layer extrusion width = 0.46mm

; EXECUTABLE_BLOCK_START
M201 X2500 Y2500 Z500 E5000
M203 X250 Y250 Z5 E40
M204 P2500 R500 T2500 ; sets acceleration (P, T) and retract acceleration (R), mm/sec^2
M205 X10.00 Y10.00 Z0.40 E5.00 ; sets the jerk limits, mm/sec
;TYPE:Custom
M220 S100 ;Reset Feedrate 
M221 S100 ;Reset Flowrate 
 
M104 S220 ;Set final nozzle temp 
M190 S55 ;Set and wait for bed temp to stabilize 
G28 ;Home 
G92 E0 ;Reset Extruder 
G1 Z2.0 F3000 ;Move Z Axis up 
G1 X-2.1 Y20 Z0.28 F5000.0 ;Move to start position 
M109 S220 ;Wait for nozzle temp to stabilize 
G1 X-2.1 Y145.0 Z0.28 F1500.0 E15 ;Draw the first line 
G1 X-2.4 Y145.0 Z0.28 F5000.0 ;Move to side a little 
G1 X-2.4 Y20 Z0.28 F1500.0 E30 ;Draw the second line 
G92 E0  ;Reset Extruder 
G1 E-1.0000 F1800 ;Retract a bit 
G1 Z2.0 F3000 ;Move Z Axis up 
G1 E0.0000 F1800
G90
G21
M83 ; use relative distances for extrusion
; filament start gcode
M106 S0
;LAYER_CHANGE
;Z:0.2
;HEIGHT:0.2
;BEFORE_LAYER_CHANGE
;0.2
G92 E0

G1 E-1.2 F2400
;_SET_FAN_SPEED_CHANGING_LAYER
M204 P500
; printing object Board.stl_4.stl id:0 copy 0
M204 T500
G1 Z.6 F9000
G1 X142.551 Y147.455
G1 Z.6
G1 Z.2
G1 E1.2 F1800
;TYPE:Inner wall
;WIDTH:0.459999
G1 X142.63 Y147.472 E.00273
G1 X147.125 Y147.472 E.15276
G1 X147.95 Y147.364 E.02829
G1 X148.705 Y147.088 E.02732
G1 X149.328 Y146.699 E.02496
G1 X153.364 Y143.546 E.17406
G1 X154.368 Y143.074 E.03772
G1 X155.404 Y143.081 E.03519
G1 X156.334 Y143.535 E.03519
G1 X156.977 Y144.346 E.03519
G1 X157.223 Y145.428 E.03771
G1 X157.223 Y178.701 E1.13083
G1 X156.977 Y179.783 E.03772
G1 X156.334 Y180.595 E.03519
G1 X155.404 Y181.048 E.03519
G1 X154.368 Y181.056 E.03519
G1 X153.364 Y180.583 E.03772
G1 X149.297 Y177.406 E.17541
G1 X148.581 Y176.982 E.02829
G1 X147.816 Y176.735 E.02733
G1 X147.085 Y176.658 E.02496
G1 X142.53 Y176.658 E.15483
G1 X142.253 Y176.768 E.01012
G1 X142.054 Y176.993 E.0102
G1 X141.983 Y177.283 E.01015
G1 X141.983 Y212.223 E1.18748
G1 X62.777 Y212.223 E2.69194
G1 X62.777 Y23.017 E6.43047
G1 X87.25 Y23.017 E.83176
G1 X87.548 Y22.884 E.01108
G1 X87.73 Y22.652 E.01001
G1 X87.787 Y22.37 E.00979
G1 X87.787 Y17.875 E.15277
G1 X87.68 Y17.05 E.02829
G1 X87.403 Y16.295 E.02733
G1 X87.015 Y15.672 E.02496
G1 X83.862 Y11.636 E.17406
G1 X83.389 Y10.632 E.03771
G1 X83.396 Y9.596 E.03519
G1 X83.85 Y8.666 E.03519
G1 X84.661 Y8.023 E.03519
G1 X85.744 Y7.777 E.03771
G1 X119.016 Y7.777 E1.13084
G1 X120.099 Y8.023 E.03771
G1 X120.91 Y8.666 E.03519
G1 X121.364 Y9.596 E.03519
G1 X121.371 Y10.632 E.03519
G1 X120.898 Y11.636 E.03771
G1 X117.721 Y15.703 E.17541
G1 X117.297 Y16.419 E.02829
G1 X117.05 Y17.184 E.02732
G1 X116.973 Y17.915 E.02496
G1 X116.973 Y22.468 E.15476
G1 X117.089 Y22.755 E.01051
G1 X117.305 Y22.944 E.00977
G1 X117.599 Y23.017 E.01026
G1 X141.983 Y23.017 E.82874
G1 X141.983 Y146.927 E4.21127
G1 X142.109 Y147.223 E.01093
G1 X142.339 Y147.411 E.0101
G1 X142.512 Y147.447 E.00602
G1 X142.63 Y147.055 F9000
;TYPE:Outer wall
G1 F1800
G1 X147.097 Y147.055 E.15183
G1 X147.814 Y146.97 E.02454
G1 X148.486 Y146.733 E.02421
G1 X149.072 Y146.371 E.0234
G1 X153.144 Y143.189 E.17565
G1 X154.276 Y142.656 E.04253
G1 X155.501 Y142.665 E.04163
G1 X156.602 Y143.201 E.04163
G1 X157.363 Y144.161 E.04163
G1 X157.64 Y145.381 E.04253
G1 X157.64 Y178.748 E1.13401
G1 X157.363 Y179.968 E.04253
G1 X156.602 Y180.928 E.04163
G1 X155.501 Y181.465 E.04163
G1 X154.276 Y181.473 E.04163
G1 X153.144 Y180.941 E.04253
G1 X149.062 Y177.751 E.17607
G1 X148.445 Y177.377 E.02454
G1 X147.77 Y177.149 E.02421
G1 X147.085 Y177.075 E.0234
G1 X142.63 Y177.075 E.15141
G1 X142.469 Y177.128 E.00578
G1 X142.4 Y177.283 E.00576
G1 X142.4 Y212.64 E1.20166
G1 X62.36 Y212.64 E2.72029
G1 X62.36 Y22.6 E6.45882
G1 X87.161 Y22.6 E.84292
G1 X87.315 Y22.532 E.0057
G1 X87.37 Y22.37 E.00583
G1 X87.37 Y17.903 E.15183
G1 X87.285 Y17.186 E.02454
G1 X87.048 Y16.514 E.02421
G1 X86.686 Y15.928 E.0234
G1 X83.504 Y11.856 E.17565
G1 X82.971 Y10.724 E.04253
G1 X82.98 Y9.499 E.04163
G1 X83.517 Y8.398 E.04163
G1 X84.477 Y7.637 E.04163
G1 X85.697 Y7.36 E.04253
G1 X119.063 Y7.36 E1.13402
G1 X120.283 Y7.637 E.04253
G1 X121.243 Y8.398 E.04163
G1 X121.78 Y9.499 E.04163
G1 X121.789 Y10.724 E.04163
G1 X121.256 Y11.856 E.04252
G1 X118.066 Y15.938 E.17607
G1 X117.692 Y16.555 E.02454
G1 X117.465 Y17.23 E.02421
G1 X117.39 Y17.915 E.0234
G1 X117.39 Y22.37 E.15142
G1 X117.445 Y22.532 E.00583
G1 X117.599 Y22.6 E.0057
G1 X142.4 Y22.6 E.84292
G1 X142.4 Y146.846 E4.22271
G1 X142.464 Y146.997 E.00557
M73 P0 R128
G1 X142.592 Y147.042 E.0046
G1 E-.84 F2400
;WIPE_START
G1 F1800
G1 X143.592 Y147.044 E-.36
;WIPE_END
G1 Z.6 F9000
G1 X141.014 Y23.142
G1 Z.6
G1 Z.2
G1 E1.2 F1800
;TYPE:Bottom surface
;WIDTH:0.460322
G1 F4800
G1 X141.67 Y23.798 E.03156
G1 X141.67 Y24.389 E.02008
G1 X140.611 Y23.33 E.05093
G1 X140.021 Y23.33 E.02008
G1 X141.67 Y24.979 E.07933
G1 X141.67 Y25.569 E.02008
G1 X139.431 Y23.33 E.10772
G1 X138.84 Y23.33 E.02008
G1 X141.67 Y26.16 E.13612
G1 X141.67 Y26.75 E.02008
G1 X138.25 Y23.33 E.16451
G1 X137.66 Y23.33 E.02008
G1 X141.67 Y27.34 E.19291
G1 X141.67 Y27.931 E.02008
G1 X137.07 Y23.33 E.2213
G1 X136.479 Y23.33 E.02008
G1 X141.67 Y28.521 E.2497
G1 X141.67 Y29.111 E.02008
G1 X135.889 Y23.33 E.27809
G1 X135.299 Y23.33 E.02008
G1 X141.67 Y29.702 E.30649
G1 X141.67 Y30.292 E.02008
G1 X134.708 Y23.33 E.33488
G1 X134.118 Y23.33 E.02008
G1 X141.67 Y30.882 E.36328
G1 X141.671 Y31.473 E.02008
G1 X133.528 Y23.33 E.39168
G1 X132.938 Y23.33 E.02008
G1 X141.671 Y32.063 E.42007
G1 X141.671 Y32.653 E.02008
G1 X132.347 Y23.33 E.44847
G1 X131.757 Y23.33 E.02008
G1 X141.671 Y33.244 E.47686
G1 X141.671 Y33.834 E.02008
G1 X131.167 Y23.33 E.50526
G1 X130.576 Y23.33 E.02008
G1 X141.671 Y34.424 E.53365
G1 X141.671 Y35.015 E.02008
G1 X129.986 Y23.33 E.56205
G1 X129.396 Y23.33 E.02008
G1 X141.671 Y35.605 E.59044
G1 X141.671 Y36.195 E.02008
G1 X128.805 Y23.33 E.61884
G1 X128.215 Y23.33 E.02008
G1 X141.671 Y36.785 E.64724
G1 X141.671 Y37.376 E.02008
G1 X127.625 Y23.33 E.67563
G1 X127.035 Y23.33 E.02008
G1 X141.671 Y37.966 E.70403
G1 X141.671 Y38.556 E.02008
G1 X126.444 Y23.33 E.73242
G1 X125.854 Y23.33 E.02008
G1 X141.671 Y39.147 E.76082
G1 X141.671 Y39.737 E.02008
G1 X125.264 Y23.33 E.78921
G1 X124.673 Y23.33 E.02008
G1 X141.671 Y40.327 E.81761
G1 X141.671 Y40.918 E.02008
G1 X124.083 Y23.33 E.846
G1 X123.493 Y23.33 E.02008
G1 X141.671 Y41.508 E.8744
G1 X141.671 Y42.098 E.02008
G1 X122.903 Y23.33 E.9028
G1 X122.312 Y23.33 E.02008
G1 X141.671 Y42.689 E.93119
G1 X141.671 Y43.279 E.02008
G1 X121.722 Y23.33 E.95959
G1 X121.132 Y23.33 E.02008
G1 X141.671 Y43.869 E.98798
G1 X141.671 Y44.46 E.02008
G1 X120.541 Y23.33 E1.01638
G1 X119.951 Y23.33 E.02008
G1 X141.671 Y45.05 E1.04477
G1 X141.671 Y45.64 E.02008
G1 X119.361 Y23.33 E1.07317
G1 X118.77 Y23.33 E.02008
G1 X141.671 Y46.231 E1.10156
G1 X141.671 Y46.821 E.02008
G1 X117.992 Y23.142 E1.13899
G1 E-.84 F2400
;WIPE_START
G1 F4800
G1 X118.7 Y23.849 E-.36
;WIPE_END
G1 Z.6 F9000
G1 X121.24 Y9.862 Z.6
G1 Z.2
G1 E1.2 F1800
G1 F4800
G1 X119.612 Y8.233 E.07835
G1 X118.981 Y8.09 E.02198
G1 X118.878 Y8.09 E.00351
G1 X121.056 Y10.267 E.10474
G1 X121.058 Y10.563 E.01005
G1 X120.963 Y10.765 E.00759
G1 X118.288 Y8.09 E.12866
G1 X117.698 Y8.09 E.02008
G1 X120.774 Y11.166 E.14797
G1 X120.63 Y11.471 E.01146
G1 X120.568 Y11.551 E.00344
G1 X117.107 Y8.09 E.16647
G1 X116.517 Y8.09 E.02008
G1 X120.309 Y11.882 E.18243
G1 X120.051 Y12.214 E.01431
G1 X115.927 Y8.09 E.19838
G1 X115.336 Y8.09 E.02008
G1 X119.792 Y12.546 E.21434
G1 X119.534 Y12.877 E.01431
G1 X114.746 Y8.09 E.23029
G1 X114.156 Y8.09 E.02008
G1 X119.275 Y13.209 E.24624
G1 X119.016 Y13.541 E.01431
G1 X113.565 Y8.09 E.2622
G1 X112.975 Y8.09 E.02008
G1 X118.758 Y13.873 E.27815
G1 X118.499 Y14.204 E.01431
G1 X112.385 Y8.09 E.29411
G1 X111.795 Y8.09 E.02008
G1 X118.241 Y14.536 E.31006
G1 X117.982 Y14.868 E.01431
G1 X111.204 Y8.09 E.32602
G1 X110.614 Y8.09 E.02008
G1 X117.723 Y15.199 E.34197
G1 X117.465 Y15.531 E.01431
G1 X110.024 Y8.09 E.35793
G1 X109.433 Y8.09 E.02008
G1 X117.239 Y15.895 E.37545
G1 X117.023 Y16.27 E.0147
G1 X108.843 Y8.09 E.39346
G1 X108.253 Y8.09 E.02008
G1 X116.869 Y16.707 E.41447
G1 X116.783 Y16.953 E.00889
G1 X116.738 Y17.165 E.00737
G1 X107.663 Y8.09 E.43653
G1 X107.072 Y8.09 E.02008
G1 X116.682 Y17.7 E.46224
G1 X116.66 Y17.909 E.00717
G1 X116.66 Y18.268 E.0122
G1 X106.482 Y8.09 E.48959
G1 X105.892 Y8.09 E.02008
G1 X116.66 Y18.859 E.51799
G1 X116.66 Y19.449 E.02008
G1 X105.301 Y8.09 E.54639
G1 X104.711 Y8.09 E.02008
G1 X116.661 Y20.039 E.57479
G1 X116.661 Y20.63 E.02008
M73 P1 R128
G1 X104.121 Y8.09 E.60319
G1 X103.53 Y8.09 E.02008
G1 X116.661 Y21.22 E.6316
G1 X116.661 Y21.811 E.02008
G1 X102.94 Y8.09 E.66
G1 X102.35 Y8.09 E.02008
G1 X116.661 Y22.401 E.6884
G1 X116.7 Y22.665 E.00908
G1 X116.78 Y22.851 E.00687
G1 X116.906 Y23.026 E.00735
G1 X117.062 Y23.162 E.00702
G1 X117.319 Y23.289 E.00976
G1 X117.59 Y23.33 E.00931
G1 X141.671 Y47.411 E1.15836
G1 X141.671 Y48.002 E.02008
G1 X101.76 Y8.09 E1.91982
G1 X101.169 Y8.09 E.02008
G1 X141.671 Y48.592 E1.94821
G1 X141.671 Y49.182 E.02008
G1 X100.579 Y8.09 E1.97661
G1 X99.989 Y8.09 E.02008
G1 X141.671 Y49.773 E2.00501
G1 X141.671 Y50.363 E.02008
G1 X99.398 Y8.09 E2.0334
G1 X98.808 Y8.09 E.02008
G1 X141.671 Y50.953 E2.0618
G1 X141.671 Y51.544 E.02008
G1 X98.218 Y8.09 E2.09019
G1 X97.627 Y8.09 E.02008
G1 X141.672 Y52.134 E2.11859
G1 X141.672 Y52.724 E.02008
G1 X97.037 Y8.09 E2.14698
G1 X96.447 Y8.09 E.02008
G1 X141.672 Y53.315 E2.17538
G1 X141.672 Y53.905 E.02008
G1 X95.857 Y8.09 E2.20377
G1 X95.266 Y8.09 E.02008
G1 X141.672 Y54.495 E2.23217
G1 X141.672 Y55.086 E.02008
G1 X94.676 Y8.09 E2.26057
G1 X94.086 Y8.09 E.02008
G1 X141.672 Y55.676 E2.28896
G1 X141.672 Y56.266 E.02008
G1 X93.495 Y8.09 E2.31736
G1 X92.905 Y8.09 E.02008
G1 X141.672 Y56.856 E2.34575
G1 X141.672 Y57.447 E.02008
G1 X92.315 Y8.09 E2.37415
G1 X91.725 Y8.09 E.02008
G1 X141.672 Y58.037 E2.40254
G1 X141.672 Y58.627 E.02008
G1 X91.134 Y8.09 E2.43094
G1 X90.544 Y8.09 E.02008
G1 X141.672 Y59.218 E2.45933
G1 X141.672 Y59.808 E.02008
G1 X89.954 Y8.09 E2.48773
G1 X89.363 Y8.09 E.02008
G1 X141.672 Y60.398 E2.51613
G1 X141.672 Y60.989 E.02008
G1 X88.773 Y8.09 E2.54452
G1 X88.183 Y8.09 E.02008
G1 X141.672 Y61.579 E2.57292
G1 X141.672 Y62.169 E.02008
G1 X87.592 Y8.09 E2.60131
G1 X87.002 Y8.09 E.02008
G1 X141.672 Y62.76 E2.62971
G1 X141.672 Y63.35 E.02008
G1 X86.412 Y8.09 E2.6581
G1 X85.822 Y8.09 E.02008
G1 X141.672 Y63.94 E2.6865
G1 X141.672 Y64.531 E.02008
G1 X85.333 Y8.191 E2.71002
G1 X84.852 Y8.301 E.01678
G1 X141.672 Y65.121 E2.73316
G1 X141.672 Y65.711 E.02008
G1 X84.506 Y8.545 E2.74978
G1 X84.177 Y8.806 E.01429
M73 P1 R127
G1 X141.672 Y66.302 E2.76562
G1 X141.672 Y66.892 E.02008
G1 X83.952 Y9.171 E2.77645
G1 X83.758 Y9.568 E.01502
G1 X141.672 Y67.482 E2.78576
G1 X141.672 Y68.073 E.02008
G1 X83.706 Y10.106 E2.78829
G1 X83.702 Y10.563 E.01554
G1 X83.818 Y10.809 E.00924
G1 X141.672 Y68.663 E2.78289
G1 X141.672 Y69.253 E.02008
G1 X84.986 Y12.567 E2.72671
G1 X87.095 Y15.266 E.1165
G1 X141.672 Y69.844 E2.62527
G1 X141.672 Y70.434 E.02008
G1 X87.861 Y16.623 E2.58841
G1 X87.977 Y16.953 E.01191
G1 X88.02 Y17.145 E.00667
G1 X88.047 Y17.399 E.00869
G1 X141.672 Y71.024 E2.57949
G1 X141.672 Y71.615 E.02008
G1 X88.1 Y18.042 E2.57693
G1 X88.1 Y18.632 E.02007
G1 X141.672 Y72.205 E2.57694
G1 X141.672 Y72.795 E.02008
G1 X88.1 Y19.222 E2.57694
G1 X88.099 Y19.812 E.02007
G1 X141.673 Y73.386 E2.57695
G1 X141.673 Y73.976 E.02008
G1 X88.099 Y20.403 E2.57696
G1 X88.099 Y20.993 E.02007
G1 X141.673 Y74.566 E2.57697
G1 X141.673 Y75.157 E.02008
G1 X88.099 Y21.583 E2.57698
G1 X88.099 Y22.173 E.02007
G1 X141.673 Y75.747 E2.57698
G1 X141.673 Y76.337 E.02008
G1 X88.041 Y22.706 E2.57976
G1 X87.945 Y22.91 E.00767
G1 X87.81 Y23.065 E.00699
G1 X141.673 Y76.928 E2.59087
G1 X141.673 Y77.518 E.02008
G1 X87.438 Y23.283 E2.60878
G1 X87.167 Y23.33 E.00933
G1 X86.894 Y23.33 E.00928
G1 X141.673 Y78.108 E2.63492
G1 X141.673 Y78.698 E.02008
G1 X86.304 Y23.33 E2.66332
G1 X85.714 Y23.33 E.02008
G1 X141.673 Y79.289 E2.69171
G1 X141.673 Y79.879 E.02008
G1 X85.124 Y23.33 E2.72011
G1 X84.533 Y23.33 E.02008
G1 X141.673 Y80.469 E2.7485
G1 X141.673 Y81.06 E.02008
G1 X83.943 Y23.33 E2.7769
G1 X83.353 Y23.33 E.02008
G1 X141.673 Y81.65 E2.8053
G1 X141.673 Y82.24 E.02008
G1 X82.762 Y23.33 E2.83369
G1 X82.172 Y23.33 E.02008
G1 X141.673 Y82.831 E2.86209
G1 X141.673 Y83.421 E.02008
G1 X81.582 Y23.33 E2.89048
G1 X80.992 Y23.33 E.02008
G1 X141.673 Y84.011 E2.91888
G1 X141.673 Y84.602 E.02008
G1 X80.401 Y23.33 E2.94727
G1 X79.811 Y23.33 E.02008
G1 X141.673 Y85.192 E2.97567
G1 X141.673 Y85.782 E.02008
G1 X79.221 Y23.33 E3.00406
G1 X78.63 Y23.33 E.02008
G1 X141.673 Y86.373 E3.03246
G1 X141.673 Y86.963 E.02008
G1 X78.04 Y23.33 E3.06086
G1 X77.45 Y23.33 E.02008
G1 X141.673 Y87.553 E3.08925
G1 X141.673 Y88.144 E.02008
G1 X76.859 Y23.33 E3.11765
G1 X76.269 Y23.33 E.02008
M73 P2 R127
G1 X141.673 Y88.734 E3.14604
G1 X141.673 Y89.324 E.02008
G1 X75.679 Y23.33 E3.17444
G1 X75.089 Y23.33 E.02008
G1 X141.673 Y89.915 E3.20283
G1 X141.673 Y90.505 E.02008
G1 X74.498 Y23.33 E3.23123
G1 X73.908 Y23.33 E.02008
G1 X141.673 Y91.095 E3.25962
G1 X141.673 Y91.686 E.02008
G1 X73.318 Y23.33 E3.28802
G1 X72.727 Y23.33 E.02008
G1 X141.673 Y92.276 E3.31642
G1 X141.673 Y92.866 E.02008
G1 X72.137 Y23.33 E3.34481
G1 X71.547 Y23.33 E.02008
G1 X141.673 Y93.457 E3.37321
G1 X141.674 Y94.047 E.02008
G1 X70.957 Y23.33 E3.4016
G1 X70.366 Y23.33 E.02008
G1 X141.674 Y94.637 E3.43
G1 X141.674 Y95.228 E.02008
G1 X69.776 Y23.33 E3.45839
G1 X69.186 Y23.33 E.02008
M73 P2 R126
G1 X141.674 Y95.818 E3.48679
G1 X141.674 Y96.408 E.02008
G1 X68.595 Y23.33 E3.51518
G1 X68.005 Y23.33 E.02008
G1 X141.674 Y96.999 E3.54358
G1 X141.674 Y97.589 E.02008
G1 X67.415 Y23.33 E3.57198
G1 X66.824 Y23.33 E.02008
G1 X141.674 Y98.179 E3.60037
G1 X141.674 Y98.769 E.02008
G1 X66.234 Y23.33 E3.62877
G1 X65.644 Y23.33 E.02008
G1 X141.674 Y99.36 E3.65716
G1 X141.674 Y99.95 E.02008
G1 X65.054 Y23.33 E3.68556
G1 X64.463 Y23.33 E.02008
G1 X141.674 Y100.54 E3.71395
G1 X141.674 Y101.131 E.02008
G1 X63.873 Y23.33 E3.74235
G1 X63.283 Y23.33 E.02008
G1 X141.674 Y101.721 E3.77074
G1 X141.674 Y102.311 E.02008
G1 X63.09 Y23.727 E3.78002
G1 X63.09 Y24.318 E.02008
G1 X141.674 Y102.902 E3.78002
G1 X141.674 Y103.492 E.02008
G1 X63.09 Y24.908 E3.78002
G1 X63.09 Y25.498 E.02008
G1 X141.674 Y104.082 E3.78002
G1 X141.674 Y104.673 E.02008
G1 X63.09 Y26.089 E3.78002
G1 X63.09 Y26.679 E.02008
G1 X141.674 Y105.263 E3.78003
G1 X141.674 Y105.853 E.02008
G1 X63.09 Y27.269 E3.78003
G1 X63.09 Y27.859 E.02008
G1 X141.674 Y106.444 E3.78003
G1 X141.674 Y107.034 E.02008
G1 X63.09 Y28.45 E3.78003
G1 X63.09 Y29.04 E.02008
G1 X141.674 Y107.624 E3.78003
G1 X141.674 Y108.215 E.02008
G1 X63.09 Y29.63 E3.78003
G1 X63.09 Y30.221 E.02008
G1 X141.674 Y108.805 E3.78003
G1 X141.674 Y109.395 E.02008
G1 X63.09 Y30.811 E3.78003
G1 X63.09 Y31.401 E.02008
G1 X141.674 Y109.986 E3.78004
G1 X141.674 Y110.576 E.02008
G1 X63.09 Y31.992 E3.78004
G1 X63.09 Y32.582 E.02008
G1 X141.674 Y111.166 E3.78004
G1 X141.674 Y111.757 E.02008
G1 X63.09 Y33.172 E3.78004
G1 X63.09 Y33.762 E.02008
G1 X141.674 Y112.347 E3.78004
G1 X141.674 Y112.937 E.02008
G1 X63.09 Y34.353 E3.78004
G1 X63.09 Y34.943 E.02008
G1 X141.674 Y113.528 E3.78004
G1 X141.674 Y114.118 E.02008
G1 X63.09 Y35.533 E3.78005
G1 X63.09 Y36.124 E.02008
G1 X141.675 Y114.708 E3.78005
G1 X141.675 Y115.299 E.02008
G1 X63.09 Y36.714 E3.78005
G1 X63.09 Y37.304 E.02008
G1 X141.675 Y115.889 E3.78005
G1 X141.675 Y116.479 E.02008
G1 X63.09 Y37.894 E3.78005
G1 X63.09 Y38.485 E.02008
G1 X141.675 Y117.07 E3.78005
G1 X141.675 Y117.66 E.02008
G1 X63.09 Y39.075 E3.78005
