; HEADER_BLOCK_START
; generated by OrcaSlicer 2.2.0 on 2024-12-10 at 21:14:46
; total layer number: 25
; filament_density: 1.24
; filament_diameter: 1.75
; max_z_height: 5.00
; HEADER_BLOCK_END

; external perimeters extrusion width = 0.42mm
; perimeters extrusion width = 0.45mm
; infill extrusion width = 0.45mm
; solid infill extrusion width = 0.42mm
; top infill extrusion width = 0.42mm
; first layer extrusion width = 0.46mm

; EXECUTABLE_BLOCK_START
M201 X2500 Y2500 Z500 E5000
M203 X250 Y250 Z5 E40
M204 P2500 R500 T2500 ; sets acceleration (P, T) and retract acceleration (R), mm/sec^2
M205 X10.00 Y10.00 Z0.40 E5.00 ; sets the jerk limits, mm/sec
;TYPE:Custom
M220 S100 ;Reset Feedrate 
M221 S100 ;Reset Flowrate 
 
M104 S220 ;Set final nozzle temp 
M190 S55 ;Set and wait for bed temp to stabilize 
G28 ;Home 
G92 E0 ;Reset Extruder 
G1 Z2.0 F3000 ;Move Z Axis up 
G1 X-2.1 Y20 Z0.28 F5000.0 ;Move to start position 
M109 S220 ;Wait for nozzle temp to stabilize 
G1 X-2.1 Y145.0 Z0.28 F1500.0 E15 ;Draw the first line 
G1 X-2.4 Y145.0 Z0.28 F5000.0 ;Move to side a little 
G1 X-2.4 Y20 Z0.28 F1500.0 E30 ;Draw the second line 
G92 E0  ;Reset Extruder 
G1 E-1.0000 F1800 ;Retract a bit 
G1 Z2.0 F3000 ;Move Z Axis up 
G1 E0.0000 F1800
G90
G21
M83 ; use relative distances for extrusion
; filament start gcode
M106 S0
;LAYER_CHANGE
;Z:0.2
;HEIGHT:0.2
;BEFORE_LAYER_CHANGE
;0.2
G92 E0

G1 E-1.2 F2400
;_SET_FAN_SPEED_CHANGING_LAYER
M204 P500
; printing object Board.stl_5.stl id:324117881639894911 copy 0
M204 T500
G1 Z.6 F9000
G1 X77.449 Y72.534
G1 Z.6
G1 Z.2
G1 E1.2 F1800
;TYPE:Inner wall
;WIDTH:0.459999
G1 X77.37 Y72.518 E.00273
G1 X72.875 Y72.518 E.15276
G1 X72.05 Y72.625 E.02829
G1 X71.295 Y72.901 E.02732
G1 X70.672 Y73.29 E.02496
G1 X66.636 Y76.443 E.17406
G1 X65.632 Y76.916 E.03771
G1 X64.596 Y76.908 E.03519
G1 X63.666 Y76.455 E.03519
G1 X63.023 Y75.643 E.03518
G1 X62.777 Y74.561 E.03772
G1 X62.777 Y41.288 E1.13083
G1 X63.023 Y40.206 E.03772
G1 X63.666 Y39.395 E.03518
G1 X64.596 Y38.941 E.03519
G1 X65.632 Y38.934 E.03519
G1 X66.636 Y39.406 E.03771
G1 X70.703 Y42.584 E.17541
G1 X71.419 Y43.007 E.02829
G1 X72.184 Y43.255 E.02732
G1 X72.915 Y43.332 E.02496
G1 X77.47 Y43.332 E.15483
G1 X77.747 Y43.221 E.01012
G1 X77.946 Y42.996 E.0102
G1 X78.017 Y42.706 E.01015
G1 X78.017 Y7.777 E1.18712
G1 X157.223 Y7.777 E2.69194
G1 X157.223 Y196.983 E6.43047
G1 X132.75 Y196.983 E.83176
G1 X132.452 Y197.116 E.01108
G1 X132.27 Y197.348 E.01001
G1 X132.213 Y197.63 E.00979
G1 X132.213 Y202.125 E.15277
G1 X132.32 Y202.95 E.02829
G1 X132.597 Y203.705 E.02732
G1 X132.985 Y204.328 E.02496
G1 X136.138 Y208.364 E.17406
G1 X136.611 Y209.368 E.03771
G1 X136.604 Y210.404 E.03519
G1 X136.15 Y211.334 E.03519
G1 X135.339 Y211.977 E.03519
G1 X134.256 Y212.223 E.03771
G1 X100.984 Y212.223 E1.13084
G1 X99.901 Y211.977 E.03771
G1 X99.09 Y211.334 E.03518
G1 X98.636 Y210.404 E.03519
G1 X98.629 Y209.368 E.03519
G1 X99.102 Y208.364 E.03771
G1 X102.279 Y204.297 E.17541
G1 X102.703 Y203.581 E.02829
G1 X102.95 Y202.816 E.02732
G1 X103.027 Y202.085 E.02496
G1 X103.027 Y197.532 E.15476
G1 X102.911 Y197.245 E.01051
G1 X102.695 Y197.056 E.00977
G1 X102.401 Y196.983 E.01026
G1 X78.017 Y196.983 E.82874
G1 X78.017 Y73.063 E4.21163
G1 X77.891 Y72.767 E.01093
G1 X77.661 Y72.579 E.0101
G1 X77.488 Y72.542 E.00602
G1 X77.37 Y72.935 F9000
;TYPE:Outer wall
G1 F1800
G1 X72.903 Y72.935 E.15183
G1 X72.186 Y73.019 E.02454
G1 X71.514 Y73.256 E.02421
G1 X70.928 Y73.619 E.0234
G1 X66.856 Y76.801 E.17565
G1 X65.724 Y77.333 E.04253
G1 X64.499 Y77.325 E.04163
G1 X63.398 Y76.788 E.04163
G1 X62.637 Y75.828 E.04163
G1 X62.36 Y74.608 E.04253
G1 X62.36 Y41.241 E1.13401
G1 X62.637 Y40.021 E.04253
G1 X63.398 Y39.061 E.04163
G1 X64.499 Y38.525 E.04163
G1 X65.724 Y38.516 E.04163
G1 X66.856 Y39.049 E.04253
G1 X70.938 Y42.238 E.17607
G1 X71.555 Y42.613 E.02454
G1 X72.23 Y42.84 E.02421
G1 X72.915 Y42.915 E.0234
G1 X77.37 Y42.915 E.15142
G1 X77.531 Y42.861 E.00578
G1 X77.6 Y42.706 E.00576
G1 X77.6 Y7.36 E1.2013
G1 X157.64 Y7.36 E2.72029
G1 X157.64 Y197.4 E6.45882
G1 X132.839 Y197.4 E.84292
M73 P0 R127
G1 X132.685 Y197.468 E.0057
G1 X132.63 Y197.63 E.00583
G1 X132.63 Y202.097 E.15183
G1 X132.715 Y202.814 E.02454
G1 X132.952 Y203.486 E.02421
G1 X133.314 Y204.072 E.0234
G1 X136.496 Y208.144 E.17565
G1 X137.029 Y209.276 E.04253
G1 X137.02 Y210.501 E.04163
G1 X136.483 Y211.602 E.04163
G1 X135.523 Y212.363 E.04163
G1 X134.303 Y212.64 E.04253
G1 X100.937 Y212.64 E1.13402
G1 X99.717 Y212.363 E.04253
G1 X98.757 Y211.602 E.04163
G1 X98.22 Y210.501 E.04163
G1 X98.211 Y209.276 E.04163
G1 X98.744 Y208.144 E.04253
G1 X101.934 Y204.062 E.17607
G1 X102.308 Y203.445 E.02454
G1 X102.535 Y202.77 E.02421
G1 X102.61 Y202.085 E.0234
G1 X102.61 Y197.63 E.15142
G1 X102.555 Y197.468 E.00583
G1 X102.401 Y197.4 E.0057
G1 X77.6 Y197.4 E.84292
G1 X77.6 Y73.143 E4.22307
G1 X77.536 Y72.992 E.00557
G1 X77.408 Y72.948 E.0046
G1 E-.84 F2400
;WIPE_START
G1 F1800
G1 X76.408 Y72.945 E-.36
;WIPE_END
G1 Z.6 F9000
G1 X157.098 Y8.746
G1 Z.6
G1 Z.2
G1 E1.2 F1800
;TYPE:Bottom surface
;WIDTH:0.460322
G1 F4800
G1 X156.442 Y8.09 E.03156
G1 X155.851 Y8.09 E.02008
G1 X156.91 Y9.149 E.05093
G1 X156.91 Y9.739 E.02008
G1 X155.261 Y8.09 E.07932
G1 X154.671 Y8.09 E.02008
G1 X156.91 Y10.329 E.10772
G1 X156.91 Y10.92 E.02008
G1 X154.081 Y8.09 E.13611
G1 X153.49 Y8.09 E.02008
G1 X156.91 Y11.51 E.1645
G1 X156.91 Y12.1 E.02008
G1 X152.9 Y8.09 E.1929
G1 X152.31 Y8.09 E.02008
G1 X156.91 Y12.69 E.22129
G1 X156.91 Y13.281 E.02008
G1 X151.719 Y8.09 E.24969
G1 X151.129 Y8.09 E.02008
G1 X156.91 Y13.871 E.27808
G1 X156.91 Y14.461 E.02008
G1 X150.539 Y8.09 E.30647
G1 X149.948 Y8.09 E.02008
G1 X156.91 Y15.052 E.33487
G1 X156.91 Y15.642 E.02008
G1 X149.358 Y8.09 E.36326
G1 X148.768 Y8.09 E.02008
G1 X156.91 Y16.232 E.39166
G1 X156.91 Y16.822 E.02008
G1 X148.178 Y8.09 E.42005
G1 X147.587 Y8.09 E.02008
G1 X156.91 Y17.413 E.44845
G1 X156.91 Y18.003 E.02008
G1 X146.997 Y8.09 E.47684
G1 X146.407 Y8.09 E.02008
G1 X156.91 Y18.593 E.50523
G1 X156.91 Y19.184 E.02008
G1 X145.816 Y8.09 E.53363
G1 X145.226 Y8.09 E.02008
G1 X156.91 Y19.774 E.56202
G1 X156.91 Y20.364 E.02008
G1 X144.636 Y8.09 E.59042
G1 X144.045 Y8.09 E.02008
G1 X156.91 Y20.955 E.61881
G1 X156.91 Y21.545 E.02008
G1 X143.455 Y8.09 E.6472
G1 X142.865 Y8.09 E.02008
G1 X156.91 Y22.135 E.6756
G1 X156.91 Y22.725 E.02008
G1 X142.275 Y8.09 E.70399
G1 X141.684 Y8.09 E.02008
G1 X156.91 Y23.316 E.73239
G1 X156.91 Y23.906 E.02008
G1 X141.094 Y8.09 E.76078
G1 X140.504 Y8.09 E.02008
G1 X156.91 Y24.496 E.78918
G1 X156.91 Y25.087 E.02008
G1 X139.913 Y8.09 E.81757
G1 X139.323 Y8.09 E.02008
G1 X156.91 Y25.677 E.84596
G1 X156.91 Y26.267 E.02008
G1 X138.733 Y8.09 E.87436
G1 X138.143 Y8.09 E.02008
G1 X156.91 Y26.857 E.90275
G1 X156.91 Y27.448 E.02008
G1 X137.552 Y8.09 E.93115
G1 X136.962 Y8.09 E.02008
G1 X156.91 Y28.038 E.95954
G1 X156.91 Y28.628 E.02008
G1 X136.372 Y8.09 E.98793
G1 X135.781 Y8.09 E.02008
G1 X156.91 Y29.219 E1.01633
G1 X156.91 Y29.809 E.02008
G1 X135.191 Y8.09 E1.04472
G1 X134.601 Y8.09 E.02008
G1 X156.91 Y30.399 E1.07312
G1 X156.91 Y30.99 E.02008
G1 X134.01 Y8.09 E1.10151
G1 X133.42 Y8.09 E.02008
G1 X156.91 Y31.58 E1.12991
G1 X156.91 Y32.17 E.02008
G1 X132.83 Y8.09 E1.1583
G1 X132.24 Y8.09 E.02008
G1 X156.91 Y32.76 E1.18669
G1 X156.91 Y33.351 E.02008
G1 X131.649 Y8.09 E1.21509
G1 X131.059 Y8.09 E.02008
G1 X156.91 Y33.941 E1.24348
G1 X156.91 Y34.531 E.02008
G1 X130.469 Y8.09 E1.27188
G1 X129.878 Y8.09 E.02008
G1 X156.91 Y35.122 E1.30027
G1 X156.91 Y35.712 E.02008
G1 X129.288 Y8.09 E1.32866
G1 X128.698 Y8.09 E.02008
G1 X156.91 Y36.302 E1.35706
G1 X156.91 Y36.893 E.02008
G1 X128.107 Y8.09 E1.38545
G1 X127.517 Y8.09 E.02008
G1 X156.91 Y37.483 E1.41385
G1 X156.91 Y38.073 E.02008
G1 X126.927 Y8.09 E1.44224
G1 X126.337 Y8.09 E.02008
G1 X156.91 Y38.663 E1.47064
G1 X156.91 Y39.254 E.02008
M73 P1 R127
G1 X125.746 Y8.09 E1.49903
G1 X125.156 Y8.09 E.02008
G1 X156.91 Y39.844 E1.52742
G1 X156.91 Y40.434 E.02008
G1 X124.566 Y8.09 E1.55582
G1 X123.975 Y8.09 E.02008
G1 X156.91 Y41.025 E1.58421
G1 X156.91 Y41.615 E.02008
G1 X123.385 Y8.09 E1.61261
G1 X122.795 Y8.09 E.02008
G1 X156.91 Y42.205 E1.641
G1 X156.91 Y42.795 E.02008
G1 X122.205 Y8.09 E1.66939
G1 X121.614 Y8.09 E.02008
G1 X156.91 Y43.386 E1.69779
G1 X156.91 Y43.976 E.02008
G1 X121.024 Y8.09 E1.72618
G1 X120.434 Y8.09 E.02008
G1 X156.91 Y44.566 E1.75458
G1 X156.91 Y45.157 E.02008
G1 X119.843 Y8.09 E1.78297
G1 X119.253 Y8.09 E.02008
G1 X156.91 Y45.747 E1.81137
G1 X156.91 Y46.337 E.02008
G1 X118.663 Y8.09 E1.83976
G1 X118.072 Y8.09 E.02008
G1 X156.91 Y46.928 E1.86815
G1 X156.91 Y47.518 E.02008
G1 X117.482 Y8.09 E1.89655
G1 X116.892 Y8.09 E.02008
G1 X156.91 Y48.108 E1.92494
G1 X156.91 Y48.698 E.02008
G1 X116.302 Y8.09 E1.95334
G1 X115.711 Y8.09 E.02008
G1 X156.91 Y49.289 E1.98173
G1 X156.91 Y49.879 E.02008
G1 X115.121 Y8.09 E2.01012
G1 X114.531 Y8.09 E.02008
G1 X156.91 Y50.469 E2.03852
G1 X156.91 Y51.06 E.02008
G1 X113.94 Y8.09 E2.06691
G1 X113.35 Y8.09 E.02008
G1 X156.91 Y51.65 E2.09531
G1 X156.91 Y52.24 E.02008
G1 X112.76 Y8.09 E2.1237
G1 X112.17 Y8.09 E.02008
G1 X156.91 Y52.83 E2.1521
G1 X156.91 Y53.421 E.02008
G1 X111.579 Y8.09 E2.18049
G1 X110.989 Y8.09 E.02008
G1 X156.91 Y54.011 E2.20888
G1 X156.91 Y54.601 E.02008
G1 X110.399 Y8.09 E2.23728
G1 X109.808 Y8.09 E.02008
G1 X156.91 Y55.192 E2.26567
G1 X156.91 Y55.782 E.02008
G1 X109.218 Y8.09 E2.29407
G1 X108.628 Y8.09 E.02008
M73 P1 R126
G1 X156.91 Y56.372 E2.32246
G1 X156.91 Y56.963 E.02008
G1 X108.037 Y8.09 E2.35085
G1 X107.447 Y8.09 E.02008
G1 X156.91 Y57.553 E2.37925
G1 X156.91 Y58.143 E.02008
G1 X106.857 Y8.09 E2.40764
G1 X106.267 Y8.09 E.02008
G1 X156.91 Y58.733 E2.43604
G1 X156.91 Y59.324 E.02008
G1 X105.676 Y8.09 E2.46443
G1 X105.086 Y8.09 E.02008
G1 X156.91 Y59.914 E2.49283
G1 X156.91 Y60.504 E.02008
G1 X104.496 Y8.09 E2.52122
G1 X103.905 Y8.09 E.02008
G1 X156.91 Y61.095 E2.54961
G1 X156.91 Y61.685 E.02008
G1 X103.315 Y8.09 E2.57801
G1 X102.725 Y8.09 E.02008
G1 X156.91 Y62.275 E2.6064
G1 X156.91 Y62.866 E.02008
G1 X102.134 Y8.09 E2.6348
G1 X101.544 Y8.09 E.02008
G1 X156.91 Y63.456 E2.66319
G1 X156.91 Y64.046 E.02008
G1 X100.954 Y8.09 E2.69158
G1 X100.364 Y8.09 E.02008
G1 X156.91 Y64.636 E2.71998
G1 X156.91 Y65.227 E.02008
G1 X99.773 Y8.09 E2.74837
G1 X99.183 Y8.09 E.02008
G1 X156.91 Y65.817 E2.77677
G1 X156.91 Y66.407 E.02008
G1 X98.593 Y8.09 E2.80516
G1 X98.002 Y8.09 E.02008
G1 X156.91 Y66.998 E2.83356
G1 X156.91 Y67.588 E.02008
G1 X97.412 Y8.09 E2.86195
G1 X96.822 Y8.09 E.02008
G1 X156.91 Y68.178 E2.89034
G1 X156.91 Y68.768 E.02008
G1 X96.232 Y8.09 E2.91874
G1 X95.641 Y8.09 E.02008
G1 X156.91 Y69.359 E2.94713
G1 X156.91 Y69.949 E.02008
G1 X95.051 Y8.09 E2.97553
G1 X94.461 Y8.09 E.02008
G1 X156.91 Y70.539 E3.00392
G1 X156.91 Y71.13 E.02008
G1 X93.87 Y8.09 E3.03231
G1 X93.28 Y8.09 E.02008
G1 X156.91 Y71.72 E3.06071
G1 X156.91 Y72.31 E.02008
G1 X92.69 Y8.09 E3.0891
G1 X92.099 Y8.09 E.02008
G1 X156.91 Y72.901 E3.1175
G1 X156.91 Y73.491 E.02008
G1 X91.509 Y8.09 E3.14589
G1 X90.919 Y8.09 E.02008
G1 X156.91 Y74.081 E3.17429
G1 X156.91 Y74.671 E.02008
G1 X90.329 Y8.09 E3.20268
G1 X89.738 Y8.09 E.02008
G1 X156.91 Y75.262 E3.23107
G1 X156.91 Y75.852 E.02008
G1 X89.148 Y8.09 E3.25947
G1 X88.558 Y8.09 E.02008
G1 X156.91 Y76.442 E3.28786
G1 X156.91 Y77.033 E.02008
G1 X87.967 Y8.09 E3.31626
G1 X87.377 Y8.09 E.02008
G1 X156.91 Y77.623 E3.34465
G1 X156.91 Y78.213 E.02008
G1 X86.787 Y8.09 E3.37304
G1 X86.197 Y8.09 E.02008
G1 X156.91 Y78.803 E3.40144
G1 X156.91 Y79.394 E.02008
G1 X85.606 Y8.09 E3.42983
G1 X85.016 Y8.09 E.02008
G1 X156.91 Y79.984 E3.45823
G1 X156.91 Y80.574 E.02008
G1 X84.426 Y8.09 E3.48662
G1 X83.835 Y8.09 E.02008
G1 X156.91 Y81.165 E3.51502
G1 X156.91 Y81.755 E.02008
M73 P2 R126
G1 X83.245 Y8.09 E3.54341
G1 X82.655 Y8.09 E.02008
G1 X156.91 Y82.345 E3.5718
G1 X156.91 Y82.936 E.02008
G1 X82.064 Y8.09 E3.6002
G1 X81.474 Y8.09 E.02008
G1 X156.91 Y83.526 E3.62859
G1 X156.91 Y84.116 E.02008
G1 X80.884 Y8.09 E3.65699
G1 X80.294 Y8.09 E.02008
M73 P2 R125
G1 X156.91 Y84.706 E3.68538
G1 X156.91 Y85.297 E.02008
G1 X79.703 Y8.09 E3.71377
G1 X79.113 Y8.09 E.02008
G1 X156.91 Y85.887 E3.74217
G1 X156.91 Y86.477 E.02008
G1 X78.523 Y8.09 E3.77056
G1 X78.33 Y8.09 E.00656
G1 X78.33 Y8.487 E.01352
G1 X156.91 Y87.068 E3.77984
G1 X156.91 Y87.658 E.02008
G1 X78.33 Y9.078 E3.77984
G1 X78.33 Y9.668 E.02008
G1 X156.91 Y88.248 E3.77984
G1 X156.91 Y88.839 E.02008
G1 X78.33 Y10.258 E3.77984
G1 X78.33 Y10.849 E.02008
G1 X156.91 Y89.429 E3.77984
G1 X156.91 Y90.019 E.02008
G1 X78.33 Y11.439 E3.77984
G1 X78.33 Y12.029 E.02008
G1 X156.91 Y90.609 E3.77984
G1 X156.91 Y91.2 E.02008
G1 X78.33 Y12.619 E3.77984
G1 X78.33 Y13.21 E.02008
G1 X156.91 Y91.79 E3.77984
G1 X156.91 Y92.38 E.02008
G1 X78.33 Y13.8 E3.77984
G1 X78.33 Y14.39 E.02008
G1 X156.91 Y92.971 E3.77984
G1 X156.91 Y93.561 E.02008
G1 X78.33 Y14.981 E3.77984
G1 X78.33 Y15.571 E.02008
G1 X156.91 Y94.151 E3.77984
G1 X156.91 Y94.741 E.02008
G1 X78.33 Y16.161 E3.77984
G1 X78.33 Y16.752 E.02008
G1 X156.91 Y95.332 E3.77984
G1 X156.91 Y95.922 E.02008
G1 X78.33 Y17.342 E3.77984
G1 X78.33 Y17.932 E.02008
G1 X156.91 Y96.512 E3.77984
G1 X156.91 Y97.103 E.02008
G1 X78.33 Y18.522 E3.77984
G1 X78.33 Y19.113 E.02008
G1 X156.91 Y97.693 E3.77984
G1 X156.91 Y98.283 E.02008
G1 X78.33 Y19.703 E3.77984
G1 X78.33 Y20.293 E.02008
G1 X156.91 Y98.874 E3.77984
G1 X156.91 Y99.464 E.02008
G1 X78.33 Y20.884 E3.77984
G1 X78.33 Y21.474 E.02008
G1 X156.91 Y100.054 E3.77984
G1 X156.91 Y100.644 E.02008
G1 X78.33 Y22.064 E3.77984
G1 X78.33 Y22.654 E.02008
G1 X156.91 Y101.235 E3.77984
G1 X156.91 Y101.825 E.02008
G1 X78.33 Y23.245 E3.77984
G1 X78.33 Y23.835 E.02008
G1 X156.91 Y102.415 E3.77984
G1 X156.91 Y103.006 E.02008
G1 X78.33 Y24.425 E3.77984
G1 X78.33 Y25.016 E.02008
G1 X156.91 Y103.596 E3.77984
G1 X156.91 Y104.186 E.02008
G1 X78.33 Y25.606 E3.77984
G1 X78.33 Y26.196 E.02008
G1 X156.91 Y104.777 E3.77984
G1 X156.91 Y105.367 E.02008
G1 X78.33 Y26.787 E3.77984
G1 X78.33 Y27.377 E.02008
G1 X156.91 Y105.957 E3.77984
G1 X156.91 Y106.547 E.02008
G1 X78.33 Y27.967 E3.77984
G1 X78.33 Y28.557 E.02008
G1 X156.91 Y107.138 E3.77984
G1 X156.91 Y107.728 E.02008
M73 P2 R124
G1 X78.33 Y29.148 E3.77984
G1 X78.33 Y29.738 E.02008
G1 X156.91 Y108.318 E3.77984
G1 X156.91 Y108.909 E.02008
G1 X78.33 Y30.328 E3.77984
G1 X78.33 Y30.919 E.02008
G1 X156.91 Y109.499 E3.77984
G1 X156.91 Y110.089 E.02008
G1 X78.33 Y31.509 E3.77984
G1 X78.33 Y32.099 E.02008
G1 X156.91 Y110.679 E3.77984
G1 X156.91 Y111.27 E.02008
G1 X78.33 Y32.69 E3.77984
G1 X78.33 Y33.28 E.02008
M73 P3 R124
G1 X156.91 Y111.86 E3.77984
G1 X156.91 Y112.45 E.02008
G1 X78.33 Y33.87 E3.77984
G1 X78.33 Y34.46 E.02008
G1 X156.91 Y113.041 E3.77984
G1 X156.91 Y113.631 E.02008
G1 X78.33 Y35.051 E3.77984
G1 X78.33 Y35.641 E.02008
G1 X156.91 Y114.221 E3.77984
G1 X156.91 Y114.812 E.02008
G1 X78.33 Y36.231 E3.77984
G1 X78.33 Y36.822 E.02008
G1 X156.91 Y115.402 E3.77984
G1 X156.91 Y115.992 E.02008
G1 X78.33 Y37.412 E3.77984
G1 X78.33 Y38.002 E.02008
G1 X156.91 Y116.582 E3.77984
G1 X156.91 Y117.173 E.02008
G1 X78.33 Y38.592 E3.77984
G1 X78.33 Y39.183 E.02008
G1 X156.91 Y117.763 E3.77984
G1 X156.91 Y118.353 E.02008
G1 X78.33 Y39.773 E3.77984
G1 X78.33 Y40.363 E.02008
G1 X156.91 Y118.944 E3.77984
G1 X156.91 Y119.534 E.02008
G1 X78.33 Y40.954 E3.77984
G1 X78.33 Y41.544 E.02008
G1 X156.91 Y120.124 E3.77984
G1 X156.91 Y120.714 E.02008
G1 X78.33 Y42.134 E3.77984
G1 X78.329 Y42.723 E.02004
G1 X156.91 Y121.305 E3.7799
G1 X156.91 Y121.895 E.02008
G1 X78.2 Y43.185 E3.7861
G1 X78.021 Y43.404 E.00964
G1 X77.904 Y43.479 E.00472
G1 X156.91 Y122.485 E3.80034
G1 X156.91 Y123.076 E.02008
G1 X77.476 Y43.641 E3.82092
G1 X76.886 Y43.642 E.02006
G1 X156.91 Y123.666 E3.84929
G1 X156.91 Y124.256 E.02008
G1 X76.296 Y43.642 E3.87766
G1 X75.706 Y43.643 E.02006
G1 X156.91 Y124.847 E3.90604
G1 X156.91 Y125.437 E.02008
G1 X75.116 Y43.643 E3.93441
G1 X74.526 Y43.643 E.02006
G1 X156.91 Y126.027 E3.96279
G1 X156.91 Y126.617 E.02008
G1 X73.937 Y43.644 E3.99116
G1 X73.347 Y43.644 E.02006
G1 X156.91 Y127.208 E4.01954
