; HEADER_BLOCK_START
; generated by OrcaSlicer 2.2.0 on 2024-12-10 at 21:32:11
; total layer number: 25
; filament_density: 1.24
; filament_diameter: 1.75
; max_z_height: 5.00
; HEADER_BLOCK_END

; external perimeters extrusion width = 0.42mm
; perimeters extrusion width = 0.45mm
; infill extrusion width = 0.45mm
; solid infill extrusion width = 0.42mm
; top infill extrusion width = 0.42mm
; support material extrusion width = 0.38mm
; first layer extrusion width = 0.46mm

; EXECUTABLE_BLOCK_START
M201 X2500 Y2500 Z500 E5000
M203 X250 Y250 Z5 E40
M204 P2500 R500 T2500 ; sets acceleration (P, T) and retract acceleration (R), mm/sec^2
M205 X10.00 Y10.00 Z0.40 E5.00 ; sets the jerk limits, mm/sec
;TYPE:Custom
M220 S100 ;Reset Feedrate 
M221 S100 ;Reset Flowrate 
 
M104 S220 ;Set final nozzle temp 
M190 S55 ;Set and wait for bed temp to stabilize 
G28 ;Home 
G92 E0 ;Reset Extruder 
G1 Z2.0 F3000 ;Move Z Axis up 
G1 X-2.1 Y20 Z0.28 F5000.0 ;Move to start position 
M109 S220 ;Wait for nozzle temp to stabilize 
G1 X-2.1 Y145.0 Z0.28 F1500.0 E15 ;Draw the first line 
G1 X-2.4 Y145.0 Z0.28 F5000.0 ;Move to side a little 
M73 P0 R83
G1 X-2.4 Y20 Z0.28 F1500.0 E30 ;Draw the second line 
G92 E0  ;Reset Extruder 
G1 E-1.0000 F1800 ;Retract a bit 
G1 Z2.0 F3000 ;Move Z Axis up 
G1 E0.0000 F1800
G90
G21
M83 ; use relative distances for extrusion
; filament start gcode
M106 S0
;LAYER_CHANGE
;Z:0.2
;HEIGHT:0.2
;BEFORE_LAYER_CHANGE
;0.2
G92 E0

G1 E-1.2 F2400
;_SET_FAN_SPEED_CHANGING_LAYER
M204 P500
; printing object Board.stl_18.stl id:4294967297 copy 0
M204 T500
G1 Z.6 F9000
G1 X61.427 Y124.603
G1 Z.6
G1 Z.2
G1 E1.2 F1800
;TYPE:Inner wall
;WIDTH:0.459999
G1 X61.35 Y124.588 E.00266
G1 X56.855 Y124.588 E.15277
G1 X56.03 Y124.695 E.02829
G1 X55.275 Y124.971 E.02732
G1 X54.652 Y125.36 E.02496
G1 X50.616 Y128.513 E.17406
G1 X49.612 Y128.986 E.03771
G1 X48.576 Y128.978 E.03519
G1 X47.646 Y128.525 E.03519
G1 X47.003 Y127.713 E.03519
G1 X46.757 Y126.631 E.03772
G1 X46.757 Y93.358 E1.13084
G1 X47.003 Y92.276 E.03771
G1 X47.646 Y91.465 E.03519
G1 X48.576 Y91.011 E.03519
G1 X49.612 Y91.004 E.03519
G1 X50.616 Y91.476 E.03771
G1 X54.683 Y94.654 E.17541
G1 X55.399 Y95.077 E.02829
G1 X56.164 Y95.325 E.02732
G1 X56.895 Y95.402 E.02496
G1 X61.449 Y95.402 E.15478
G1 X61.737 Y95.284 E.01056
G1 X61.925 Y95.068 E.00976
G1 X61.997 Y94.776 E.0102
G1 X61.997 Y59.847 E1.18712
G1 X158.003 Y59.847 E3.26292
G1 X158.003 Y94.867 E1.19022
G1 X158.135 Y95.161 E.01093
G1 X158.366 Y95.344 E.01003
G1 X158.65 Y95.402 E.00984
G1 X163.145 Y95.402 E.15277
G1 X163.97 Y95.294 E.02829
G1 X164.725 Y95.018 E.02732
G1 X165.348 Y94.629 E.02496
G1 X169.384 Y91.476 E.17406
G1 X170.388 Y91.004 E.03772
G1 X171.424 Y91.011 E.03519
G1 X172.354 Y91.465 E.03519
G1 X172.997 Y92.276 E.03519
G1 X173.243 Y93.358 E.03771
G1 X173.243 Y126.631 E1.13084
G1 X172.997 Y127.713 E.03771
G1 X172.354 Y128.525 E.03519
G1 X171.424 Y128.978 E.03519
G1 X170.388 Y128.986 E.03519
G1 X169.384 Y128.513 E.03772
G1 X165.317 Y125.336 E.17541
G1 X164.601 Y124.912 E.02829
G1 X163.836 Y124.665 E.02732
G1 X163.105 Y124.588 E.02496
G1 X158.551 Y124.588 E.15478
G1 X158.263 Y124.705 E.01056
G1 X158.075 Y124.922 E.00976
G1 X158.003 Y125.213 E.0102
G1 X158.003 Y160.153 E1.18748
G1 X61.997 Y160.153 E3.26292
G1 X61.997 Y125.122 E1.19058
G1 X61.865 Y124.829 E.01094
G1 X61.634 Y124.645 E.01003
G1 X61.466 Y124.611 E.00583
G1 X61.35 Y125.005 F9000
;TYPE:Outer wall
G1 F1800
G1 X56.883 Y125.005 E.15183
G1 X56.166 Y125.089 E.02454
G1 X55.494 Y125.326 E.02421
G1 X54.908 Y125.689 E.0234
G1 X50.836 Y128.871 E.17565
G1 X49.704 Y129.403 E.04253
G1 X48.479 Y129.395 E.04163
G1 X47.378 Y128.858 E.04163
G1 X46.617 Y127.898 E.04163
G1 X46.34 Y126.678 E.04253
G1 X46.34 Y93.311 E1.13402
G1 X46.617 Y92.091 E.04253
G1 X47.378 Y91.131 E.04163
G1 X48.479 Y90.595 E.04163
G1 X49.704 Y90.586 E.04163
G1 X50.836 Y91.119 E.04253
G1 X54.918 Y94.308 E.17607
G1 X55.535 Y94.683 E.02454
G1 X56.21 Y94.91 E.02421
G1 X56.895 Y94.985 E.0234
G1 X61.35 Y94.985 E.15142
G1 X61.513 Y94.929 E.00585
G1 X61.58 Y94.776 E.00568
G1 X61.58 Y59.43 E1.2013
G1 X158.42 Y59.43 E3.29127
G1 X158.42 Y94.776 E1.2013
G1 X158.487 Y94.929 E.00568
G1 X158.65 Y94.985 E.00585
G1 X163.117 Y94.985 E.15183
G1 X163.834 Y94.9 E.02454
G1 X164.506 Y94.663 E.02421
G1 X165.092 Y94.301 E.0234
G1 X169.164 Y91.119 E.17565
G1 X170.296 Y90.586 E.04253
G1 X171.521 Y90.595 E.04163
G1 X172.622 Y91.131 E.04163
G1 X173.383 Y92.091 E.04163
G1 X173.66 Y93.311 E.04253
G1 X173.66 Y126.678 E1.13402
G1 X173.383 Y127.898 E.04253
G1 X172.622 Y128.858 E.04163
G1 X171.521 Y129.395 E.04163
G1 X170.296 Y129.403 E.04163
G1 X169.164 Y128.871 E.04253
G1 X165.082 Y125.681 E.17607
G1 X164.465 Y125.307 E.02454
G1 X163.79 Y125.079 E.02421
G1 X163.105 Y125.005 E.0234
G1 X158.65 Y125.005 E.15142
G1 X158.487 Y125.06 E.00585
G1 X158.42 Y125.213 E.00568
G1 X158.42 Y160.57 E1.20166
G1 X61.58 Y160.57 E3.29127
G1 X61.58 Y125.213 E1.20166
G1 X61.513 Y125.06 E.00568
G1 X61.388 Y125.018 E.00449
G1 E-.84 F2400
;WIPE_START
G1 F1800
G1 X60.388 Y125.015 E-.36
;WIPE_END
G1 Z.6 F9000
G1 X157.878 Y60.816
G1 Z.6
G1 Z.2
G1 E1.2 F1800
;TYPE:Bottom surface
;WIDTH:0.460144
G1 F4800
G1 X157.222 Y60.16 E.03153
G1 X156.632 Y60.16 E.02006
G1 X157.69 Y61.218 E.05087
G1 X157.69 Y61.808 E.02006
G1 X156.042 Y60.16 E.07924
G1 X155.452 Y60.16 E.02006
G1 X157.69 Y62.398 E.10761
G1 X157.69 Y62.988 E.02006
G1 X154.862 Y60.16 E.13598
G1 X154.272 Y60.16 E.02006
G1 X157.69 Y63.578 E.16435
G1 X157.69 Y64.168 E.02006
G1 X153.682 Y60.16 E.19272
G1 X153.092 Y60.16 E.02006
G1 X157.69 Y64.758 E.22109
G1 X157.69 Y65.348 E.02006
G1 X152.502 Y60.16 E.24946
G1 X151.912 Y60.16 E.02006
G1 X157.69 Y65.938 E.27783
G1 X157.69 Y66.528 E.02006
G1 X151.322 Y60.16 E.3062
G1 X150.732 Y60.16 E.02006
G1 X157.69 Y67.118 E.33457
G1 X157.69 Y67.708 E.02006
G1 X150.142 Y60.16 E.36294
G1 X149.551 Y60.16 E.02006
G1 X157.69 Y68.299 E.39131
G1 X157.69 Y68.889 E.02006
G1 X148.961 Y60.16 E.41968
G1 X148.371 Y60.16 E.02006
G1 X157.69 Y69.479 E.44805
G1 X157.69 Y70.069 E.02006
G1 X147.781 Y60.16 E.47642
G1 X147.191 Y60.16 E.02006
G1 X157.69 Y70.659 E.50479
G1 X157.69 Y71.249 E.02006
M73 P1 R83
G1 X146.601 Y60.16 E.53316
G1 X146.011 Y60.16 E.02006
G1 X157.69 Y71.839 E.56153
G1 X157.69 Y72.429 E.02006
G1 X145.421 Y60.16 E.5899
G1 X144.831 Y60.16 E.02006
G1 X157.69 Y73.019 E.61827
G1 X157.69 Y73.609 E.02006
G1 X144.241 Y60.16 E.64664
G1 X143.651 Y60.16 E.02006
G1 X157.69 Y74.199 E.67501
G1 X157.69 Y74.789 E.02006
G1 X143.061 Y60.16 E.70338
G1 X142.471 Y60.16 E.02006
G1 X157.69 Y75.379 E.73175
G1 X157.69 Y75.969 E.02006
G1 X141.881 Y60.16 E.76012
G1 X141.291 Y60.16 E.02006
G1 X157.69 Y76.559 E.78849
G1 X157.69 Y77.149 E.02006
G1 X140.701 Y60.16 E.81686
G1 X140.111 Y60.16 E.02006
G1 X157.69 Y77.739 E.84523
G1 X157.69 Y78.329 E.02006
G1 X139.521 Y60.16 E.8736
G1 X138.931 Y60.16 E.02006
G1 X157.69 Y78.919 E.90197
G1 X157.69 Y79.509 E.02006
G1 X138.341 Y60.16 E.93034
G1 X137.751 Y60.16 E.02006
G1 X157.69 Y80.099 E.95871
G1 X157.69 Y80.689 E.02006
G1 X137.161 Y60.16 E.98708
G1 X136.571 Y60.16 E.02006
G1 X157.69 Y81.279 E1.01545
G1 X157.69 Y81.87 E.02006
G1 X135.98 Y60.16 E1.04382
G1 X135.39 Y60.16 E.02006
G1 X157.69 Y82.46 E1.07219
G1 X157.69 Y83.05 E.02006
G1 X134.8 Y60.16 E1.10056
G1 X134.21 Y60.16 E.02006
G1 X157.69 Y83.64 E1.12893
G1 X157.69 Y84.23 E.02006
G1 X133.62 Y60.16 E1.1573
G1 X133.03 Y60.16 E.02006
G1 X157.69 Y84.82 E1.18567
G1 X157.69 Y85.41 E.02006
G1 X132.44 Y60.16 E1.21404
G1 X131.85 Y60.16 E.02006
G1 X157.69 Y86 E1.24241
G1 X157.69 Y86.59 E.02006
G1 X131.26 Y60.16 E1.27078
G1 X130.67 Y60.16 E.02006
G1 X157.69 Y87.18 E1.29915
G1 X157.69 Y87.77 E.02006
M73 P1 R82
G1 X130.08 Y60.16 E1.32752
G1 X129.49 Y60.16 E.02006
G1 X157.69 Y88.36 E1.35589
G1 X157.69 Y88.95 E.02006
G1 X128.9 Y60.16 E1.38426
G1 X128.31 Y60.16 E.02006
G1 X157.69 Y89.54 E1.41263
G1 X157.69 Y90.13 E.02006
G1 X127.72 Y60.16 E1.441
G1 X127.13 Y60.16 E.02006
G1 X157.69 Y90.72 E1.46937
G1 X157.69 Y91.31 E.02006
G1 X126.54 Y60.16 E1.49774
G1 X125.95 Y60.16 E.02006
G1 X157.69 Y91.9 E1.52611
G1 X157.69 Y92.49 E.02006
G1 X125.36 Y60.16 E1.55448
G1 X124.77 Y60.16 E.02006
G1 X157.69 Y93.08 E1.58285
G1 X157.69 Y93.67 E.02006
G1 X124.18 Y60.16 E1.61122
G1 X123.59 Y60.16 E.02006
G1 X157.878 Y94.448 E1.64862
G1 E-.84 F2400
;WIPE_START
G1 F4800
G1 X157.171 Y93.741 E-.36
;WIPE_END
G1 Z.6 F9000
G1 X171.085 Y91.134 Z.6
G1 Z.2
G1 E1.2 F1800
G1 F4800
G1 X172.808 Y92.857 E.08288
G1 X172.93 Y93.393 E.01868
G1 X172.93 Y93.569 E.00598
G1 X170.679 Y91.319 E.10822
G1 X170.457 Y91.317 E.00756
G1 X170.206 Y91.435 E.00944
G1 X172.93 Y94.159 E.13098
G1 X172.93 Y94.749 E.02006
G1 X169.805 Y91.624 E.15027
G1 X169.549 Y91.744 E.00961
G1 X169.429 Y91.838 E.00518
G1 X172.93 Y95.339 E.16835
G1 X172.93 Y95.929 E.02006
G1 X169.097 Y92.097 E.18429
G1 X168.766 Y92.355 E.01429
G1 X172.93 Y96.519 E.20023
G1 X172.93 Y97.11 E.02006
G1 X168.434 Y92.614 E.21617
G1 X168.103 Y92.872 E.01429
G1 X172.93 Y97.7 E.23211
G1 X172.93 Y98.29 E.02006
G1 X167.771 Y93.131 E.24805
G1 X167.44 Y93.389 E.01429
G1 X172.93 Y98.88 E.26399
G1 X172.93 Y99.47 E.02006
G1 X167.108 Y93.648 E.27993
G1 X166.777 Y93.906 E.01429
G1 X172.93 Y100.06 E.29587
G1 X172.93 Y100.65 E.02006
G1 X166.445 Y94.165 E.31181
G1 X166.113 Y94.423 E.01429
G1 X172.93 Y101.24 E.32775
G1 X172.93 Y101.83 E.02006
G1 X165.782 Y94.682 E.34369
G1 X165.449 Y94.939 E.0143
G1 X172.93 Y102.42 E.35969
G1 X172.93 Y103.01 E.02006
G1 X165.082 Y95.162 E.37734
G1 X164.796 Y95.336 E.01139
G1 X164.7 Y95.37 E.00346
G1 X172.93 Y103.6 E.39573
G1 X172.93 Y104.19 E.02006
G1 X164.263 Y95.523 E.41672
G1 X164.067 Y95.592 E.00707
G1 X163.793 Y95.643 E.00946
G1 X172.93 Y104.78 E.4393
G1 X172.93 Y105.37 E.02006
G1 X163.259 Y95.699 E.46499
G1 X162.684 Y95.714 E.01955
G1 X172.93 Y105.96 E.49264
G1 X172.93 Y106.55 E.02006
G1 X162.094 Y95.714 E.52104
G1 X161.503 Y95.713 E.02008
G1 X172.93 Y107.14 E.54943
G1 X172.93 Y107.73 E.02006
G1 X160.912 Y95.713 E.57783
G1 X160.322 Y95.712 E.02008
G1 X172.93 Y108.32 E.60623
G1 X172.93 Y108.91 E.02006
G1 X159.731 Y95.711 E.63462
G1 X159.14 Y95.711 E.02008
G1 X172.93 Y109.5 E.66302
G1 X172.93 Y110.091 E.02006
G1 X158.55 Y95.71 E.69142
G1 X158.353 Y95.674 E.00682
G1 X158.2 Y95.611 E.00562
G1 X158.056 Y95.52 E.0058
G1 X157.926 Y95.399 E.00603
G1 X157.827 Y95.264 E.00569
G1 X157.751 Y95.111 E.0058
G1 X157.697 Y94.858 E.00882
G1 X123 Y60.16 E1.6683
G1 X122.409 Y60.16 E.02006
G1 X172.93 Y110.681 E2.42909
G1 X172.93 Y111.271 E.02006
G1 X121.819 Y60.16 E2.45746
G1 X121.229 Y60.16 E.02006
G1 X172.93 Y111.861 E2.48583
G1 X172.93 Y112.451 E.02006
G1 X120.639 Y60.16 E2.5142
G1 X120.049 Y60.16 E.02006
G1 X172.93 Y113.041 E2.54257
G1 X172.93 Y113.631 E.02006
G1 X119.459 Y60.16 E2.57094
G1 X118.869 Y60.16 E.02006
G1 X172.93 Y114.221 E2.59931
G1 X172.93 Y114.811 E.02006
G1 X118.279 Y60.16 E2.62768
G1 X117.689 Y60.16 E.02006
G1 X172.93 Y115.401 E2.65605
G1 X172.93 Y115.991 E.02006
G1 X117.099 Y60.16 E2.68442
G1 X116.509 Y60.16 E.02006
G1 X172.93 Y116.581 E2.71279
G1 X172.93 Y117.171 E.02006
G1 X115.919 Y60.16 E2.74116
G1 X115.329 Y60.16 E.02006
G1 X172.93 Y117.761 E2.76953
G1 X172.93 Y118.351 E.02006
G1 X114.739 Y60.16 E2.7979
G1 X114.149 Y60.16 E.02006
G1 X172.93 Y118.941 E2.82627
G1 X172.93 Y119.531 E.02006
G1 X113.559 Y60.16 E2.85464
G1 X112.969 Y60.16 E.02006
G1 X172.93 Y120.121 E2.88301
G1 X172.93 Y120.711 E.02006
M73 P2 R82
G1 X112.379 Y60.16 E2.91138
G1 X111.789 Y60.16 E.02006
G1 X172.93 Y121.301 E2.93975
G1 X172.93 Y121.891 E.02006
G1 X111.199 Y60.16 E2.96812
G1 X110.609 Y60.16 E.02006
G1 X172.93 Y122.481 E2.99649
G1 X172.93 Y123.071 E.02006
G1 X110.019 Y60.16 E3.02486
G1 X109.429 Y60.16 E.02006
G1 X172.93 Y123.662 E3.05323
G1 X172.93 Y124.252 E.02006
G1 X108.838 Y60.16 E3.0816
G1 X108.248 Y60.16 E.02006
G1 X172.93 Y124.842 E3.10997
G1 X172.93 Y125.432 E.02006
G1 X107.658 Y60.16 E3.13834
G1 X107.068 Y60.16 E.02006
G1 X172.93 Y126.022 E3.16671
G1 X172.927 Y126.609 E.01996
G1 X106.478 Y60.16 E3.19494
G1 X105.888 Y60.16 E.02006
G1 X172.818 Y127.09 E3.21806
G1 X172.709 Y127.57 E.01676
G1 X105.298 Y60.16 E3.24117
G1 X104.708 Y60.16 E.02006
G1 X172.449 Y127.901 E3.25706
G1 X172.188 Y128.23 E.01428
G1 X104.118 Y60.16 E3.27289
G1 X103.528 Y60.16 E.02006
G1 X171.81 Y128.442 E3.28307
G1 X171.413 Y128.635 E.015
G1 X102.938 Y60.16 E3.29237
G1 X102.348 Y60.16 E.02006
G1 X170.858 Y128.67 E3.29402
G1 X170.457 Y128.672 E.01362
M73 P2 R81
G1 X170.104 Y128.506 E.01325
G1 X101.758 Y60.16 E3.28617
G1 X101.168 Y60.16 E.02006
G1 X168.205 Y127.197 E3.22323
G1 X165.527 Y125.109 E.11548
G1 X100.578 Y60.16 E3.12281
G1 X99.988 Y60.16 E.02006
G1 X164.317 Y124.489 E3.09303
G1 X163.968 Y124.37 E.01254
G1 X163.563 Y124.325 E.01388
G1 X99.398 Y60.16 E3.08512
G1 X98.808 Y60.16 E.02006
G1 X162.923 Y124.275 E3.08272
G1 X162.333 Y124.275 E.02005
G1 X98.218 Y60.16 E3.08274
G1 X97.628 Y60.16 E.02006
G1 X161.744 Y124.276 E3.08276
G1 X161.154 Y124.276 E.02005
G1 X97.038 Y60.16 E3.08278
G1 X96.448 Y60.16 E.02006
G1 X160.564 Y124.277 E3.0828
G1 X159.975 Y124.277 E.02005
G1 X95.857 Y60.16 E3.08282
G1 X95.267 Y60.16 E.02006
G1 X159.385 Y124.277 E3.08284
G1 X158.795 Y124.278 E.02005
G1 X94.677 Y60.16 E3.08286
G1 X94.087 Y60.16 E.02006
G1 X158.272 Y124.344 E3.08605
G1 X158.011 Y124.505 E.01042
G1 X157.934 Y124.597 E.00406
G1 X93.497 Y60.16 E3.0982
G1 X92.907 Y60.16 E.02006
G1 X157.724 Y124.977 E3.11646
G1 X157.69 Y125.207 E.00794
G1 X157.69 Y125.533 E.01106
G1 X92.317 Y60.16 E3.1432
G1 X91.727 Y60.16 E.02006
G1 X157.69 Y126.123 E3.17157
G1 X157.69 Y126.713 E.02006
G1 X91.137 Y60.16 E3.19994
G1 X90.547 Y60.16 E.02006
G1 X157.69 Y127.303 E3.22831
G1 X157.69 Y127.893 E.02006
G1 X89.957 Y60.16 E3.25668
G1 X89.367 Y60.16 E.02006
M73 P3 R81
G1 X157.69 Y128.483 E3.28505
G1 X157.69 Y129.073 E.02006
G1 X88.777 Y60.16 E3.31342
G1 X88.187 Y60.16 E.02006
G1 X157.69 Y129.663 E3.34179
G1 X157.69 Y130.253 E.02006
G1 X87.597 Y60.16 E3.37016
G1 X87.007 Y60.16 E.02006
G1 X157.69 Y130.843 E3.39853
G1 X157.69 Y131.433 E.02006
G1 X86.417 Y60.16 E3.4269
G1 X85.827 Y60.16 E.02006
G1 X157.69 Y132.023 E3.45527
G1 X157.69 Y132.613 E.02006
G1 X85.237 Y60.16 E3.48364
G1 X84.647 Y60.16 E.02006
G1 X157.69 Y133.203 E3.51201
G1 X157.69 Y133.793 E.02006
G1 X84.057 Y60.16 E3.54038
G1 X83.467 Y60.16 E.02006
G1 X157.69 Y134.383 E3.56875
G1 X157.69 Y134.973 E.02006
G1 X82.877 Y60.16 E3.59712
G1 X82.286 Y60.16 E.02006
G1 X157.69 Y135.564 E3.62549
G1 X157.69 Y136.154 E.02006
G1 X81.696 Y60.16 E3.65386
G1 X81.106 Y60.16 E.02006
G1 X157.69 Y136.744 E3.68223
G1 X157.69 Y137.334 E.02006
G1 X80.516 Y60.16 E3.7106
G1 X79.926 Y60.16 E.02006
G1 X157.69 Y137.924 E3.73897
G1 X157.69 Y138.514 E.02006
G1 X79.336 Y60.16 E3.76734
G1 X78.746 Y60.16 E.02006
G1 X157.69 Y139.104 E3.79571
G1 X157.69 Y139.694 E.02006
G1 X78.156 Y60.16 E3.82408
G1 X77.566 Y60.16 E.02006
G1 X157.69 Y140.284 E3.85245
G1 X157.69 Y140.874 E.02006
G1 X76.976 Y60.16 E3.88082
G1 X76.386 Y60.16 E.02006
M73 P3 R80
G1 X157.69 Y141.464 E3.90919
G1 X157.69 Y142.054 E.02006
G1 X75.796 Y60.16 E3.93756
G1 X75.206 Y60.16 E.02006
G1 X157.69 Y142.644 E3.96593
G1 X157.69 Y143.234 E.02006
G1 X74.616 Y60.16 E3.9943
G1 X74.026 Y60.16 E.02006
G1 X157.69 Y143.824 E4.02267
G1 X157.69 Y144.414 E.02006
G1 X73.436 Y60.16 E4.05104
G1 X72.846 Y60.16 E.02006
G1 X157.69 Y145.004 E4.07941
G1 X157.69 Y145.594 E.02006
G1 X72.256 Y60.16 E4.10778
G1 X71.666 Y60.16 E.02006
G1 X157.69 Y146.184 E4.13615
G1 X157.69 Y146.774 E.02006
G1 X71.076 Y60.16 E4.16452
G1 X70.486 Y60.16 E.02006
G1 X157.69 Y147.364 E4.19289
G1 X157.69 Y147.954 E.02006
M73 P4 R80
G1 X69.896 Y60.16 E4.22126
G1 X69.306 Y60.16 E.02006
G1 X157.69 Y148.544 E4.24963
G1 X157.69 Y149.135 E.02006
G1 X68.715 Y60.16 E4.278
G1 X68.125 Y60.16 E.02006
G1 X157.69 Y149.725 E4.30637
G1 X157.69 Y150.315 E.02006
G1 X67.535 Y60.16 E4.33474
G1 X66.945 Y60.16 E.02006
G1 X157.69 Y150.905 E4.36311
G1 X157.69 Y151.495 E.02006
G1 X66.355 Y60.16 E4.39148
G1 X65.765 Y60.16 E.02006
G1 X157.69 Y152.085 E4.41985
G1 X157.69 Y152.675 E.02006
G1 X65.175 Y60.16 E4.44822
G1 X64.585 Y60.16 E.02006
