; HEADER_BLOCK_START
; generated by OrcaSlicer 2.2.0 on 2024-12-10 at 21:18:41
; total layer number: 25
; filament_density: 1.24
; filament_diameter: 1.75
; max_z_height: 5.00
; HEADER_BLOCK_END

; external perimeters extrusion width = 0.42mm
; perimeters extrusion width = 0.45mm
; infill extrusion width = 0.45mm
; solid infill extrusion width = 0.42mm
; top infill extrusion width = 0.42mm
; support material extrusion width = 0.38mm
; first layer extrusion width = 0.46mm

; EXECUTABLE_BLOCK_START
M201 X2500 Y2500 Z500 E5000
M203 X250 Y250 Z5 E40
M204 P2500 R500 T2500 ; sets acceleration (P, T) and retract acceleration (R), mm/sec^2
M205 X10.00 Y10.00 Z0.40 E5.00 ; sets the jerk limits, mm/sec
;TYPE:Custom
M220 S100 ;Reset Feedrate 
M221 S100 ;Reset Flowrate 
 
M104 S220 ;Set final nozzle temp 
M190 S55 ;Set and wait for bed temp to stabilize 
G28 ;Home 
G92 E0 ;Reset Extruder 
G1 Z2.0 F3000 ;Move Z Axis up 
G1 X-2.1 Y20 Z0.28 F5000.0 ;Move to start position 
M109 S220 ;Wait for nozzle temp to stabilize 
G1 X-2.1 Y145.0 Z0.28 F1500.0 E15 ;Draw the first line 
G1 X-2.4 Y145.0 Z0.28 F5000.0 ;Move to side a little 
G1 X-2.4 Y20 Z0.28 F1500.0 E30 ;Draw the second line 
G92 E0  ;Reset Extruder 
G1 E-1.0000 F1800 ;Retract a bit 
G1 Z2.0 F3000 ;Move Z Axis up 
G1 E0.0000 F1800
G90
G21
M83 ; use relative distances for extrusion
; filament start gcode
M106 S0
;LAYER_CHANGE
;Z:0.2
;HEIGHT:0.2
;BEFORE_LAYER_CHANGE
;0.2
G92 E0

G1 E-1.2 F2400
;_SET_FAN_SPEED_CHANGING_LAYER
M204 P500
; printing object Board.stl_8.stl id:7811887588677804288 copy 0
M204 T500
G1 Z.6 F9000
G1 X132.213 Y19.133
G1 Z.6
G1 Z.2
G1 E1.2 F1800
;TYPE:Inner wall
;WIDTH:0.459999
G1 X132.213 Y19.21 E.0026
G1 X132.329 Y19.496 E.01051
G1 X132.545 Y19.686 E.00977
G1 X132.839 Y19.758 E.01026
G1 X157.223 Y19.758 E.82874
G1 X157.223 Y208.964 E6.43047
G1 X78.017 Y208.964 E2.69194
G1 X78.017 Y173.944 E1.19022
G1 X77.891 Y173.648 E.01093
G1 X77.661 Y173.46 E.0101
G1 X77.37 Y173.399 E.01011
G1 X72.875 Y173.399 E.15276
G1 X72.05 Y173.506 E.02829
G1 X71.295 Y173.783 E.02732
G1 X70.672 Y174.171 E.02496
G1 X66.636 Y177.325 E.17406
G1 X65.632 Y177.797 E.03772
G1 X64.596 Y177.79 E.03519
G1 X63.666 Y177.336 E.03519
G1 X63.023 Y176.525 E.03518
G1 X62.777 Y175.442 E.03772
G1 X62.777 Y142.17 E1.13083
G1 X63.023 Y141.087 E.03772
G1 X63.666 Y140.276 E.03519
G1 X64.596 Y139.822 E.03519
G1 X65.632 Y139.815 E.03519
G1 X66.636 Y140.288 E.03772
G1 X70.703 Y143.465 E.17541
G1 X71.419 Y143.889 E.02829
G1 X72.184 Y144.136 E.02732
G1 X72.915 Y144.213 E.02496
G1 X77.47 Y144.213 E.15483
G1 X77.747 Y144.102 E.01012
G1 X77.946 Y143.878 E.0102
G1 X78.017 Y143.588 E.01015
G1 X78.017 Y19.758 E4.20854
G1 X102.49 Y19.758 E.83176
G1 X102.788 Y19.625 E.01108
G1 X102.97 Y19.394 E.01001
G1 X103.027 Y19.111 E.00979
G1 X103.027 Y14.616 E.15277
G1 X102.92 Y13.791 E.02829
G1 X102.643 Y13.036 E.02732
G1 X102.255 Y12.413 E.02496
G1 X99.102 Y8.377 E.17406
G1 X98.629 Y7.373 E.03771
G1 X98.636 Y6.338 E.03519
G1 X99.09 Y5.407 E.03519
G1 X99.901 Y4.764 E.03518
G1 X100.984 Y4.518 E.03771
G1 X134.256 Y4.518 E1.13084
G1 X135.339 Y4.764 E.03771
G1 X136.15 Y5.407 E.03518
G1 X136.604 Y6.338 E.03519
G1 X136.611 Y7.373 E.03519
G1 X136.138 Y8.377 E.03771
G1 X132.961 Y12.444 E.17541
G1 X132.537 Y13.161 E.02829
G1 X132.29 Y13.926 E.02732
G1 X132.213 Y14.656 E.02496
G1 X132.213 Y19.093 E.1508
G1 X132.63 Y19.111 F9000
;TYPE:Outer wall
G1 F1800
G1 X132.685 Y19.274 E.00583
G1 X132.839 Y19.341 E.0057
G1 X157.64 Y19.341 E.84292
G1 X157.64 Y209.381 E6.45882
G1 X77.6 Y209.381 E2.72029
M73 P0 R127
G1 X77.6 Y174.025 E1.20166
G1 X77.536 Y173.874 E.00557
G1 X77.37 Y173.816 E.00596
G1 X72.903 Y173.816 E.15183
G1 X72.186 Y173.901 E.02454
G1 X71.514 Y174.138 E.02421
G1 X70.928 Y174.5 E.0234
G1 X66.856 Y177.682 E.17565
G1 X65.724 Y178.215 E.04253
G1 X64.499 Y178.206 E.04163
G1 X63.398 Y177.669 E.04163
G1 X62.637 Y176.709 E.04163
G1 X62.36 Y175.489 E.04253
G1 X62.36 Y142.123 E1.13401
G1 X62.637 Y140.903 E.04253
G1 X63.398 Y139.943 E.04163
G1 X64.499 Y139.406 E.04163
G1 X65.724 Y139.397 E.04163
G1 X66.856 Y139.93 E.04253
G1 X70.938 Y143.12 E.17607
G1 X71.555 Y143.494 E.02454
G1 X72.23 Y143.721 E.02421
G1 X72.915 Y143.796 E.0234
G1 X77.37 Y143.796 E.15142
G1 X77.531 Y143.742 E.00578
G1 X77.6 Y143.588 E.00576
G1 X77.6 Y19.341 E4.22271
G1 X102.401 Y19.341 E.84292
G1 X102.555 Y19.274 E.0057
G1 X102.61 Y19.111 E.00583
G1 X102.61 Y14.644 E.15183
G1 X102.525 Y13.927 E.02454
G1 X102.289 Y13.255 E.02421
G1 X101.926 Y12.67 E.0234
G1 X98.744 Y8.597 E.17565
G1 X98.211 Y7.465 E.04253
G1 X98.22 Y6.24 E.04163
G1 X98.757 Y5.139 E.04163
G1 X99.717 Y4.379 E.04163
G1 X100.937 Y4.101 E.04253
G1 X134.303 Y4.101 E1.13402
G1 X135.523 Y4.379 E.04253
G1 X136.483 Y5.139 E.04163
G1 X137.02 Y6.24 E.04163
G1 X137.029 Y7.465 E.04163
G1 X136.496 Y8.597 E.04253
G1 X133.306 Y12.679 E.17607
G1 X132.932 Y13.297 E.02454
G1 X132.705 Y13.972 E.02421
G1 X132.63 Y14.656 E.0234
G1 X132.63 Y19.071 E.15006
G1 E-.84 F2400
;WIPE_START
G1 F1800
G1 X132.685 Y19.274 E-.07552
G1 X132.839 Y19.341 E-.06042
G1 X133.461 Y19.341 E-.22406
;WIPE_END
G1 Z.6 F9000
G1 X156.254 Y19.884
G1 Z.6
G1 Z.2
G1 E1.2 F1800
;TYPE:Bottom surface
;WIDTH:0.460322
G1 F4800
G1 X156.91 Y20.54 E.03156
G1 X156.91 Y21.13 E.02008
G1 X155.851 Y20.071 E.05093
G1 X155.261 Y20.071 E.02008
G1 X156.91 Y21.72 E.07932
G1 X156.91 Y22.311 E.02008
G1 X154.671 Y20.071 E.10772
G1 X154.081 Y20.071 E.02008
G1 X156.91 Y22.901 E.13611
G1 X156.91 Y23.491 E.02008
G1 X153.49 Y20.071 E.1645
G1 X152.9 Y20.071 E.02008
G1 X156.91 Y24.081 E.1929
G1 X156.91 Y24.672 E.02008
G1 X152.31 Y20.071 E.22129
G1 X151.719 Y20.071 E.02008
G1 X156.91 Y25.262 E.24969
G1 X156.91 Y25.852 E.02008
G1 X151.129 Y20.071 E.27808
G1 X150.539 Y20.071 E.02008
G1 X156.91 Y26.443 E.30647
G1 X156.91 Y27.033 E.02008
G1 X149.948 Y20.071 E.33487
G1 X149.358 Y20.071 E.02008
G1 X156.91 Y27.623 E.36326
G1 X156.91 Y28.214 E.02008
G1 X148.768 Y20.071 E.39166
G1 X148.178 Y20.071 E.02008
G1 X156.91 Y28.804 E.42005
G1 X156.91 Y29.394 E.02008
G1 X147.587 Y20.071 E.44845
G1 X146.997 Y20.071 E.02008
G1 X156.91 Y29.984 E.47684
G1 X156.91 Y30.575 E.02008
G1 X146.407 Y20.071 E.50523
G1 X145.816 Y20.071 E.02008
G1 X156.91 Y31.165 E.53363
G1 X156.91 Y31.755 E.02008
G1 X145.226 Y20.071 E.56202
G1 X144.636 Y20.071 E.02008
G1 X156.91 Y32.346 E.59042
G1 X156.91 Y32.936 E.02008
G1 X144.045 Y20.071 E.61881
G1 X143.455 Y20.071 E.02008
G1 X156.91 Y33.526 E.6472
G1 X156.91 Y34.116 E.02008
G1 X142.865 Y20.071 E.6756
G1 X142.275 Y20.071 E.02008
G1 X156.91 Y34.707 E.70399
G1 X156.91 Y35.297 E.02008
G1 X141.684 Y20.071 E.73239
G1 X141.094 Y20.071 E.02008
G1 X156.91 Y35.887 E.76078
G1 X156.91 Y36.478 E.02008
G1 X140.504 Y20.071 E.78918
G1 X139.913 Y20.071 E.02008
G1 X156.91 Y37.068 E.81757
G1 X156.91 Y37.658 E.02008
G1 X139.323 Y20.071 E.84596
G1 X138.733 Y20.071 E.02008
G1 X156.91 Y38.249 E.87436
G1 X156.91 Y38.839 E.02008
G1 X138.143 Y20.071 E.90275
G1 X137.552 Y20.071 E.02008
G1 X156.91 Y39.429 E.93115
G1 X156.91 Y40.019 E.02008
G1 X136.962 Y20.071 E.95954
G1 X136.372 Y20.071 E.02008
G1 X156.91 Y40.61 E.98793
G1 X156.91 Y41.2 E.02008
G1 X135.781 Y20.071 E1.01633
G1 X135.191 Y20.071 E.02008
G1 X156.91 Y41.79 E1.04472
G1 X156.91 Y42.381 E.02008
G1 X134.601 Y20.071 E1.07312
G1 X134.01 Y20.071 E.02008
G1 X156.91 Y42.971 E1.10151
G1 X156.91 Y43.561 E.02008
G1 X133.232 Y19.884 E1.13893
G1 E-.84 F2400
;WIPE_START
G1 F4800
G1 X133.94 Y20.591 E-.36
;WIPE_END
G1 Z.6 F9000
G1 X136.48 Y6.603 Z.6
G1 Z.2
G1 E1.2 F1800
G1 F4800
G1 X134.852 Y4.974 E.07835
G1 X134.221 Y4.831 E.02198
G1 X134.118 Y4.831 E.00351
G1 X136.296 Y7.009 E.10474
G1 X136.298 Y7.304 E.01005
G1 X136.203 Y7.506 E.00759
G1 X133.528 Y4.831 E.12866
G1 X132.938 Y4.831 E.02008
G1 X136.014 Y7.907 E.14797
G1 X135.87 Y8.212 E.01146
G1 X135.808 Y8.292 E.00344
G1 X132.347 Y4.831 E.16647
G1 X131.757 Y4.831 E.02008
G1 X135.55 Y8.624 E.18243
G1 X135.291 Y8.955 E.01431
G1 X131.167 Y4.831 E.19838
G1 X130.576 Y4.831 E.02008
G1 X135.032 Y9.287 E.21434
G1 X134.774 Y9.619 E.01431
G1 X129.986 Y4.831 E.23029
G1 X129.396 Y4.831 E.02008
G1 X134.515 Y9.95 E.24624
G1 X134.256 Y10.282 E.01431
G1 X128.805 Y4.831 E.2622
G1 X128.215 Y4.831 E.02008
G1 X133.998 Y10.614 E.27815
G1 X133.739 Y10.946 E.01431
G1 X127.625 Y4.831 E.29411
G1 X127.035 Y4.831 E.02008
G1 X133.481 Y11.277 E.31006
G1 X133.222 Y11.609 E.01431
G1 X126.444 Y4.831 E.32602
G1 X125.854 Y4.831 E.02008
G1 X132.963 Y11.941 E.34197
G1 X132.705 Y12.272 E.01431
G1 X125.264 Y4.831 E.35793
G1 X124.673 Y4.831 E.02008
G1 X132.479 Y12.637 E.37545
G1 X132.263 Y13.011 E.0147
G1 X124.083 Y4.831 E.39346
G1 X123.493 Y4.831 E.02008
G1 X132.109 Y13.448 E.41447
G1 X132.023 Y13.694 E.00889
G1 X131.978 Y13.906 E.00737
G1 X122.903 Y4.831 E.43653
G1 X122.312 Y4.831 E.02008
G1 X131.922 Y14.441 E.46224
G1 X131.9 Y14.651 E.00717
G1 X131.9 Y15.009 E.0122
G1 X121.722 Y4.831 E.48959
G1 X121.132 Y4.831 E.02008
G1 X131.9 Y15.6 E.51799
G1 X131.9 Y16.19 E.02008
G1 X120.541 Y4.831 E.54639
G1 X119.951 Y4.831 E.02008
G1 X131.901 Y16.781 E.57479
G1 X131.901 Y17.371 E.02008
G1 X119.361 Y4.831 E.60319
G1 X118.77 Y4.831 E.02008
M73 P1 R127
G1 X131.901 Y17.962 E.6316
G1 X131.901 Y18.552 E.02008
G1 X118.18 Y4.831 E.66
G1 X117.59 Y4.831 E.02008
G1 X131.901 Y19.143 E.6884
G1 X131.94 Y19.407 E.00908
G1 X132.02 Y19.593 E.00687
G1 X132.146 Y19.767 E.00735
G1 X132.302 Y19.903 E.00702
G1 X132.559 Y20.03 E.00976
G1 X132.83 Y20.071 E.00931
G1 X156.91 Y44.151 E1.15831
G1 X156.91 Y44.742 E.02008
G1 X117 Y4.831 E1.91976
G1 X116.409 Y4.831 E.02008
G1 X156.91 Y45.332 E1.94816
G1 X156.91 Y45.922 E.02008
G1 X115.819 Y4.831 E1.97655
G1 X115.229 Y4.831 E.02008
G1 X156.91 Y46.513 E2.00494
G1 X156.91 Y47.103 E.02008
G1 X114.638 Y4.831 E2.03334
G1 X114.048 Y4.831 E.02008
G1 X156.91 Y47.693 E2.06173
G1 X156.91 Y48.284 E.02008
G1 X113.458 Y4.831 E2.09013
G1 X112.867 Y4.831 E.02008
G1 X156.91 Y48.874 E2.11852
G1 X156.91 Y49.464 E.02008
G1 X112.277 Y4.831 E2.14692
G1 X111.687 Y4.831 E.02008
G1 X156.91 Y50.054 E2.17531
G1 X156.91 Y50.645 E.02008
G1 X111.097 Y4.831 E2.2037
G1 X110.506 Y4.831 E.02008
G1 X156.91 Y51.235 E2.2321
G1 X156.91 Y51.825 E.02008
G1 X109.916 Y4.831 E2.26049
G1 X109.326 Y4.831 E.02008
G1 X156.91 Y52.416 E2.28889
G1 X156.91 Y53.006 E.02008
G1 X108.735 Y4.831 E2.31728
G1 X108.145 Y4.831 E.02008
G1 X156.91 Y53.596 E2.34567
G1 X156.91 Y54.187 E.02008
G1 X107.555 Y4.831 E2.37407
G1 X106.965 Y4.831 E.02008
M73 P1 R126
G1 X156.91 Y54.777 E2.40246
G1 X156.91 Y55.367 E.02008
G1 X106.374 Y4.831 E2.43086
G1 X105.784 Y4.831 E.02008
G1 X156.91 Y55.957 E2.45925
G1 X156.91 Y56.548 E.02008
G1 X105.194 Y4.831 E2.48765
G1 X104.603 Y4.831 E.02008
G1 X156.91 Y57.138 E2.51604
G1 X156.91 Y57.728 E.02008
G1 X104.013 Y4.831 E2.54443
G1 X103.423 Y4.831 E.02008
G1 X156.91 Y58.319 E2.57283
G1 X156.91 Y58.909 E.02008
G1 X102.832 Y4.831 E2.60122
G1 X102.242 Y4.831 E.02008
G1 X156.91 Y59.499 E2.62962
G1 X156.91 Y60.089 E.02008
G1 X101.652 Y4.831 E2.65801
G1 X101.062 Y4.831 E.02008
G1 X156.91 Y60.68 E2.6864
G1 X156.91 Y61.27 E.02008
G1 X100.573 Y4.933 E2.70992
G1 X100.092 Y5.042 E.01678
G1 X156.91 Y61.86 E2.73306
G1 X156.91 Y62.451 E.02008
G1 X99.746 Y5.287 E2.74968
G1 X99.417 Y5.548 E.01429
G1 X156.91 Y63.041 E2.76552
G1 X156.91 Y63.631 E.02008
G1 X99.192 Y5.913 E2.77635
G1 X98.998 Y6.31 E.01502
G1 X156.91 Y64.222 E2.78566
G1 X156.91 Y64.812 E.02008
G1 X98.946 Y6.847 E2.78819
G1 X98.942 Y7.304 E.01554
G1 X99.058 Y7.55 E.00924
G1 X156.91 Y65.402 E2.78278
G1 X156.91 Y65.992 E.02008
G1 X100.226 Y9.308 E2.7266
G1 X102.335 Y12.007 E.1165
G1 X156.91 Y66.583 E2.62516
G1 X156.91 Y67.173 E.02008
G1 X103.101 Y13.364 E2.5883
G1 X103.217 Y13.694 E.01191
G1 X103.26 Y13.886 E.00667
G1 X103.287 Y14.14 E.00869
G1 X156.91 Y67.763 E2.57937
G1 X156.91 Y68.354 E.02008
G1 X103.34 Y14.783 E2.57682
G1 X103.34 Y15.374 E.02007
G1 X156.91 Y68.944 E2.57682
G1 X156.91 Y69.534 E.02008
G1 X103.34 Y15.964 E2.57683
G1 X103.339 Y16.554 E.02007
G1 X156.91 Y70.124 E2.57684
G1 X156.91 Y70.715 E.02008
G1 X103.339 Y17.144 E2.57684
G1 X103.339 Y17.734 E.02007
G1 X156.91 Y71.305 E2.57685
G1 X156.91 Y71.895 E.02008
G1 X103.339 Y18.324 E2.57686
G1 X103.339 Y18.914 E.02007
G1 X156.91 Y72.486 E2.57686
G1 X156.91 Y73.076 E.02008
G1 X103.282 Y19.448 E2.57962
G1 X103.203 Y19.623 E.00656
G1 X103.052 Y19.808 E.0081
G1 X156.91 Y73.666 E2.59067
G1 X156.91 Y74.257 E.02008
G1 X102.679 Y20.026 E2.6086
G1 X102.408 Y20.071 E.00935
G1 X102.134 Y20.071 E.00931
G1 X156.91 Y74.847 E2.6348
G1 X156.91 Y75.437 E.02008
G1 X101.544 Y20.071 E2.66319
G1 X100.954 Y20.071 E.02008
G1 X156.91 Y76.027 E2.69158
G1 X156.91 Y76.618 E.02008
G1 X100.364 Y20.071 E2.71998
G1 X99.773 Y20.071 E.02008
G1 X156.91 Y77.208 E2.74837
G1 X156.91 Y77.798 E.02008
G1 X99.183 Y20.071 E2.77677
G1 X98.593 Y20.071 E.02008
G1 X156.91 Y78.389 E2.80516
G1 X156.91 Y78.979 E.02008
G1 X98.002 Y20.071 E2.83356
G1 X97.412 Y20.071 E.02008
G1 X156.91 Y79.569 E2.86195
G1 X156.91 Y80.16 E.02008
G1 X96.822 Y20.071 E2.89034
G1 X96.232 Y20.071 E.02008
G1 X156.91 Y80.75 E2.91874
G1 X156.91 Y81.34 E.02008
G1 X95.641 Y20.071 E2.94713
G1 X95.051 Y20.071 E.02008
G1 X156.91 Y81.93 E2.97553
G1 X156.91 Y82.521 E.02008
G1 X94.461 Y20.071 E3.00392
G1 X93.87 Y20.071 E.02008
G1 X156.91 Y83.111 E3.03231
G1 X156.91 Y83.701 E.02008
G1 X93.28 Y20.071 E3.06071
G1 X92.69 Y20.071 E.02008
G1 X156.91 Y84.292 E3.0891
G1 X156.91 Y84.882 E.02008
G1 X92.099 Y20.071 E3.1175
G1 X91.509 Y20.071 E.02008
M73 P2 R125
G1 X156.91 Y85.472 E3.14589
G1 X156.91 Y86.062 E.02008
G1 X90.919 Y20.071 E3.17429
G1 X90.329 Y20.071 E.02008
G1 X156.91 Y86.653 E3.20268
G1 X156.91 Y87.243 E.02008
G1 X89.738 Y20.071 E3.23107
G1 X89.148 Y20.071 E.02008
G1 X156.91 Y87.833 E3.25947
G1 X156.91 Y88.424 E.02008
G1 X88.558 Y20.071 E3.28786
G1 X87.967 Y20.071 E.02008
G1 X156.91 Y89.014 E3.31626
G1 X156.91 Y89.604 E.02008
G1 X87.377 Y20.071 E3.34465
G1 X86.787 Y20.071 E.02008
G1 X156.91 Y90.195 E3.37304
G1 X156.91 Y90.785 E.02008
G1 X86.197 Y20.071 E3.40144
G1 X85.606 Y20.071 E.02008
G1 X156.91 Y91.375 E3.42983
G1 X156.91 Y91.965 E.02008
G1 X85.016 Y20.071 E3.45823
G1 X84.426 Y20.071 E.02008
G1 X156.91 Y92.556 E3.48662
G1 X156.91 Y93.146 E.02008
G1 X83.835 Y20.071 E3.51502
G1 X83.245 Y20.071 E.02008
G1 X156.91 Y93.736 E3.54341
G1 X156.91 Y94.327 E.02008
G1 X82.655 Y20.071 E3.5718
G1 X82.064 Y20.071 E.02008
G1 X156.91 Y94.917 E3.6002
G1 X156.91 Y95.507 E.02008
G1 X81.474 Y20.071 E3.62859
G1 X80.884 Y20.071 E.02008
G1 X156.91 Y96.097 E3.65699
G1 X156.91 Y96.688 E.02008
G1 X80.294 Y20.071 E3.68538
G1 X79.703 Y20.071 E.02008
G1 X156.91 Y97.278 E3.71377
G1 X156.91 Y97.868 E.02008
G1 X79.113 Y20.071 E3.74217
G1 X78.523 Y20.071 E.02008
G1 X156.91 Y98.459 E3.77056
G1 X156.91 Y99.049 E.02008
G1 X78.33 Y20.469 E3.77984
G1 X78.33 Y21.059 E.02008
G1 X156.91 Y99.639 E3.77984
G1 X156.91 Y100.23 E.02008
G1 X78.33 Y21.649 E3.77984
G1 X78.33 Y22.24 E.02008
G1 X156.91 Y100.82 E3.77984
G1 X156.91 Y101.41 E.02008
G1 X78.33 Y22.83 E3.77984
G1 X78.33 Y23.42 E.02008
G1 X156.91 Y102 E3.77984
G1 X156.91 Y102.591 E.02008
G1 X78.33 Y24.01 E3.77984
G1 X78.33 Y24.601 E.02008
G1 X156.91 Y103.181 E3.77984
G1 X156.91 Y103.771 E.02008
G1 X78.33 Y25.191 E3.77984
G1 X78.33 Y25.781 E.02008
G1 X156.91 Y104.362 E3.77984
G1 X156.91 Y104.952 E.02008
G1 X78.33 Y26.371 E3.77985
G1 X78.33 Y26.962 E.02008
G1 X156.91 Y105.542 E3.77985
G1 X156.91 Y106.133 E.02008
G1 X78.33 Y27.552 E3.77985
G1 X78.33 Y28.142 E.02008
G1 X156.91 Y106.723 E3.77985
G1 X156.91 Y107.313 E.02008
G1 X78.33 Y28.733 E3.77985
G1 X78.33 Y29.323 E.02008
G1 X156.91 Y107.903 E3.77985
G1 X156.91 Y108.494 E.02008
G1 X78.33 Y29.913 E3.77985
G1 X78.33 Y30.503 E.02008
G1 X156.91 Y109.084 E3.77985
G1 X156.91 Y109.674 E.02008
M73 P2 R124
G1 X78.33 Y31.094 E3.77985
G1 X78.33 Y31.684 E.02008
G1 X156.91 Y110.265 E3.77985
G1 X156.91 Y110.855 E.02008
G1 X78.329 Y32.274 E3.77986
G1 X78.329 Y32.865 E.02008
G1 X156.91 Y111.445 E3.77986
G1 X156.91 Y112.035 E.02008
G1 X78.329 Y33.455 E3.77986
G1 X78.329 Y34.045 E.02008
G1 X156.91 Y112.626 E3.77986
G1 X156.91 Y113.216 E.02008
G1 X78.329 Y34.635 E3.77986
