; HEADER_BLOCK_START
; generated by OrcaSlicer 2.2.0 on 2024-12-10 at 21:21:47
; total layer number: 25
; filament_density: 1.24
; filament_diameter: 1.75
; max_z_height: 5.00
; HEADER_BLOCK_END

; external perimeters extrusion width = 0.42mm
; perimeters extrusion width = 0.45mm
; infill extrusion width = 0.45mm
; solid infill extrusion width = 0.42mm
; top infill extrusion width = 0.42mm
; first layer extrusion width = 0.46mm

; EXECUTABLE_BLOCK_START
M201 X2500 Y2500 Z500 E5000
M203 X250 Y250 Z5 E40
M204 P2500 R500 T2500 ; sets acceleration (P, T) and retract acceleration (R), mm/sec^2
M205 X10.00 Y10.00 Z0.40 E5.00 ; sets the jerk limits, mm/sec
;TYPE:Custom
M220 S100 ;Reset Feedrate 
M221 S100 ;Reset Flowrate 
 
M104 S220 ;Set final nozzle temp 
M190 S55 ;Set and wait for bed temp to stabilize 
G28 ;Home 
G92 E0 ;Reset Extruder 
G1 Z2.0 F3000 ;Move Z Axis up 
G1 X-2.1 Y20 Z0.28 F5000.0 ;Move to start position 
M109 S220 ;Wait for nozzle temp to stabilize 
G1 X-2.1 Y145.0 Z0.28 F1500.0 E15 ;Draw the first line 
G1 X-2.4 Y145.0 Z0.28 F5000.0 ;Move to side a little 
G1 X-2.4 Y20 Z0.28 F1500.0 E30 ;Draw the second line 
G92 E0  ;Reset Extruder 
G1 E-1.0000 F1800 ;Retract a bit 
G1 Z2.0 F3000 ;Move Z Axis up 
G1 E0.0000 F1800
G90
G21
M83 ; use relative distances for extrusion
; filament start gcode
M106 S0
;LAYER_CHANGE
;Z:0.2
;HEIGHT:0.2
;BEFORE_LAYER_CHANGE
;0.2
G92 E0

G1 E-1.2 F2400
;_SET_FAN_SPEED_CHANGING_LAYER
M204 P500
; printing object Board.stl_10.stl id:1487184520192 copy 0
M204 T500
G1 Z.6 F9000
G1 X124.593 Y84.622
G1 Z.6
G1 Z.2
G1 E1.2 F1800
;TYPE:Inner wall
;WIDTH:0.459999
G1 X124.593 Y84.698 E.00259
G1 X124.708 Y84.983 E.01045
G1 X124.938 Y85.181 E.01031
G1 X125.219 Y85.247 E.0098
G1 X208.803 Y85.247 E2.84075
G1 X208.803 Y134.753 E1.68254
G1 X11.197 Y134.753 E6.71596
G1 X11.197 Y85.247 E1.68254
M73 P0 R86
G1 X94.875 Y85.247 E2.84392
G1 X95.169 Y85.112 E.01102
G1 X95.351 Y84.881 E.00999
G1 X95.407 Y84.6 E.00973
G1 X95.407 Y80.105 E.15277
G1 X95.3 Y79.28 E.02829
G1 X95.023 Y78.525 E.02732
G1 X94.635 Y77.902 E.02496
G1 X91.482 Y73.866 E.17406
G1 X91.009 Y72.862 E.03772
G1 X91.016 Y71.826 E.03519
G1 X91.47 Y70.896 E.03519
G1 X92.281 Y70.253 E.03519
G1 X93.364 Y70.007 E.03771
G1 X126.636 Y70.007 E1.13084
G1 X127.719 Y70.253 E.03771
G1 X128.53 Y70.896 E.03519
G1 X128.984 Y71.826 E.03519
G1 X128.991 Y72.862 E.03519
G1 X128.518 Y73.866 E.03772
G1 X125.341 Y77.933 E.17541
G1 X124.917 Y78.649 E.02829
G1 X124.67 Y79.414 E.02732
G1 X124.593 Y80.145 E.02496
G1 X124.593 Y84.582 E.15079
G1 X125.01 Y84.6 F9000
;TYPE:Outer wall
G1 F1800
G1 X125.064 Y84.762 E.0058
G1 X125.219 Y84.83 E.00573
G1 X209.22 Y84.83 E2.85493
G1 X209.22 Y135.17 E1.71089
G1 X10.78 Y135.17 E6.74431
G1 X10.78 Y84.83 E1.71089
G1 X94.781 Y84.83 E2.85493
G1 X94.936 Y84.762 E.00573
G1 X94.99 Y84.6 E.0058
G1 X94.99 Y80.133 E.15183
G1 X94.905 Y79.416 E.02454
G1 X94.668 Y78.744 E.02421
G1 X94.306 Y78.158 E.0234
G1 X91.124 Y74.086 E.17565
G1 X90.591 Y72.954 E.04253
G1 X90.6 Y71.729 E.04163
G1 X91.137 Y70.628 E.04163
G1 X92.097 Y69.867 E.04163
G1 X93.317 Y69.59 E.04253
G1 X126.683 Y69.59 E1.13402
G1 X127.903 Y69.867 E.04253
G1 X128.863 Y70.628 E.04163
G1 X129.4 Y71.729 E.04163
G1 X129.409 Y72.954 E.04163
G1 X128.876 Y74.086 E.04253
G1 X125.686 Y78.168 E.17607
G1 X125.312 Y78.785 E.02454
G1 X125.085 Y79.46 E.02421
G1 X125.01 Y80.145 E.0234
G1 X125.01 Y84.56 E.15006
G1 E-.84 F2400
;WIPE_START
G1 F1800
G1 X125.064 Y84.762 E-.07527
G1 X125.219 Y84.83 E-.06069
G1 X125.841 Y84.83 E-.22405
;WIPE_END
G1 Z.6 F9000
G1 X207.834 Y85.372
G1 Z.6
G1 Z.2
G1 E1.2 F1800
;TYPE:Bottom surface
;WIDTH:0.460239
G1 F4800
G1 X208.49 Y86.028 E.03155
G1 X208.49 Y86.618 E.02007
G1 X207.432 Y85.56 E.05091
G1 X206.841 Y85.56 E.02007
G1 X208.49 Y87.209 E.07929
G1 X208.49 Y87.799 E.02007
G1 X206.251 Y85.56 E.10768
G1 X205.661 Y85.56 E.02007
G1 X208.49 Y88.389 E.13606
G1 X208.49 Y88.979 E.02007
G1 X205.071 Y85.56 E.16445
G1 X204.48 Y85.56 E.02007
G1 X208.49 Y89.569 E.19283
G1 X208.49 Y90.159 E.02007
G1 X203.89 Y85.56 E.22122
G1 X203.3 Y85.559 E.02007
G1 X208.49 Y90.75 E.2496
G1 X208.49 Y91.34 E.02007
G1 X202.71 Y85.559 E.27799
G1 X202.12 Y85.559 E.02007
G1 X208.49 Y91.93 E.30637
G1 X208.49 Y92.52 E.02007
G1 X201.529 Y85.559 E.33476
M73 P1 R86
G1 X200.939 Y85.559 E.02007
G1 X208.49 Y93.11 E.36314
G1 X208.49 Y93.7 E.02007
G1 X200.349 Y85.559 E.39153
G1 X199.759 Y85.559 E.02007
G1 X208.49 Y94.291 E.41991
G1 X208.49 Y94.881 E.02007
G1 X199.168 Y85.559 E.4483
G1 X198.578 Y85.559 E.02007
G1 X208.49 Y95.471 E.47668
G1 X208.49 Y96.061 E.02007
G1 X197.988 Y85.559 E.50507
G1 X197.398 Y85.559 E.02007
G1 X208.49 Y96.651 E.53345
G1 X208.49 Y97.242 E.02007
G1 X196.808 Y85.559 E.56184
G1 X196.217 Y85.559 E.02007
G1 X208.49 Y97.832 E.59022
G1 X208.49 Y98.422 E.02007
G1 X195.627 Y85.559 E.61861
G1 X195.037 Y85.559 E.02007
G1 X208.49 Y99.012 E.64699
G1 X208.49 Y99.602 E.02007
G1 X194.447 Y85.559 E.67538
G1 X193.856 Y85.559 E.02007
G1 X208.49 Y100.192 E.70377
G1 X208.49 Y100.783 E.02007
G1 X193.266 Y85.559 E.73215
G1 X192.676 Y85.559 E.02007
G1 X208.49 Y101.373 E.76054
G1 X208.49 Y101.963 E.02007
G1 X192.086 Y85.559 E.78892
G1 X191.496 Y85.559 E.02007
G1 X208.49 Y102.553 E.81731
G1 X208.49 Y103.143 E.02007
G1 X190.905 Y85.558 E.84569
G1 X190.315 Y85.558 E.02007
G1 X208.49 Y103.734 E.87408
G1 X208.49 Y104.324 E.02007
G1 X189.725 Y85.558 E.90246
G1 X189.135 Y85.558 E.02007
G1 X208.49 Y104.914 E.93085
G1 X208.49 Y105.504 E.02007
G1 X188.544 Y85.558 E.95923
G1 X187.954 Y85.558 E.02007
G1 X208.49 Y106.094 E.98762
G1 X208.49 Y106.684 E.02007
G1 X187.364 Y85.558 E1.016
G1 X186.774 Y85.558 E.02007
G1 X208.49 Y107.275 E1.04439
G1 X208.49 Y107.865 E.02007
G1 X186.183 Y85.558 E1.07277
G1 X185.593 Y85.558 E.02007
G1 X208.49 Y108.455 E1.10116
G1 X208.49 Y109.045 E.02007
G1 X185.003 Y85.558 E1.12954
G1 X184.413 Y85.558 E.02007
G1 X208.49 Y109.635 E1.15793
G1 X208.49 Y110.225 E.02007
G1 X183.823 Y85.558 E1.18631
G1 X183.232 Y85.558 E.02007
G1 X208.49 Y110.816 E1.2147
G1 X208.49 Y111.406 E.02007
G1 X182.642 Y85.558 E1.24308
G1 X182.052 Y85.558 E.02007
G1 X208.49 Y111.996 E1.27147
G1 X208.49 Y112.586 E.02007
G1 X181.462 Y85.558 E1.29985
G1 X180.871 Y85.558 E.02007
G1 X208.49 Y113.176 E1.32824
G1 X208.49 Y113.767 E.02007
G1 X180.281 Y85.558 E1.35662
G1 X179.691 Y85.558 E.02007
G1 X208.49 Y114.357 E1.38501
G1 X208.49 Y114.947 E.02007
G1 X179.101 Y85.558 E1.41339
G1 X178.511 Y85.558 E.02007
G1 X208.49 Y115.537 E1.44178
G1 X208.49 Y116.127 E.02007
G1 X177.92 Y85.557 E1.47016
G1 X177.33 Y85.557 E.02007
G1 X208.49 Y116.717 E1.49855
G1 X208.49 Y117.308 E.02007
G1 X176.74 Y85.557 E1.52693
G1 X176.15 Y85.557 E.02007
G1 X208.49 Y117.898 E1.55532
G1 X208.49 Y118.488 E.02007
G1 X175.559 Y85.557 E1.5837
G1 X174.969 Y85.557 E.02007
G1 X208.49 Y119.078 E1.61209
G1 X208.49 Y119.668 E.02007
G1 X174.379 Y85.557 E1.64047
G1 X173.789 Y85.557 E.02007
G1 X208.49 Y120.258 E1.66886
G1 X208.49 Y120.849 E.02007
G1 X173.199 Y85.557 E1.69724
G1 X172.608 Y85.557 E.02007
G1 X208.49 Y121.439 E1.72563
G1 X208.49 Y122.029 E.02007
G1 X172.018 Y85.557 E1.75401
G1 X171.428 Y85.557 E.02007
G1 X208.49 Y122.619 E1.7824
G1 X208.49 Y123.209 E.02007
M73 P1 R85
G1 X170.838 Y85.557 E1.81079
G1 X170.247 Y85.557 E.02007
G1 X208.49 Y123.8 E1.83917
G1 X208.49 Y124.39 E.02007
G1 X169.657 Y85.557 E1.86756
G1 X169.067 Y85.557 E.02007
G1 X208.49 Y124.98 E1.89594
G1 X208.49 Y125.57 E.02007
G1 X168.477 Y85.557 E1.92433
G1 X167.886 Y85.557 E.02007
G1 X208.49 Y126.16 E1.95271
G1 X208.49 Y126.75 E.02007
G1 X167.296 Y85.557 E1.9811
G1 X166.706 Y85.557 E.02007
G1 X208.49 Y127.341 E2.00948
G1 X208.49 Y127.931 E.02007
G1 X166.116 Y85.557 E2.03787
G1 X165.526 Y85.556 E.02007
G1 X208.49 Y128.521 E2.06625
G1 X208.49 Y129.111 E.02007
G1 X164.935 Y85.556 E2.09464
G1 X164.345 Y85.556 E.02007
G1 X208.49 Y129.701 E2.12302
G1 X208.49 Y130.292 E.02007
G1 X163.755 Y85.556 E2.15141
G1 X163.165 Y85.556 E.02007
G1 X208.49 Y130.882 E2.17979
G1 X208.49 Y131.472 E.02007
G1 X162.574 Y85.556 E2.20818
G1 X161.984 Y85.556 E.02007
G1 X208.49 Y132.062 E2.23656
G1 X208.49 Y132.652 E.02007
G1 X161.394 Y85.556 E2.26495
G1 X160.804 Y85.556 E.02007
G1 X208.49 Y133.242 E2.29333
G1 X208.49 Y133.833 E.02007
G1 X160.214 Y85.556 E2.32172
G1 X159.623 Y85.556 E.02007
G1 X208.49 Y134.423 E2.3501
G1 X208.49 Y134.44 E.00059
G1 X207.917 Y134.44 E.01948
G1 X159.033 Y85.556 E2.35094
G1 X158.443 Y85.556 E.02007
G1 X207.327 Y134.44 E2.35094
G1 X206.737 Y134.44 E.02007
G1 X157.853 Y85.556 E2.35094
G1 X157.262 Y85.556 E.02007
G1 X206.147 Y134.44 E2.35095
G1 X205.557 Y134.44 E.02007
G1 X156.672 Y85.556 E2.35095
G1 X156.082 Y85.556 E.02007
G1 X204.966 Y134.44 E2.35095
G1 X204.376 Y134.44 E.02007
M73 P2 R85
G1 X155.492 Y85.556 E2.35095
G1 X154.902 Y85.556 E.02007
G1 X203.786 Y134.44 E2.35095
G1 X203.196 Y134.44 E.02007
G1 X154.311 Y85.556 E2.35096
G1 X153.721 Y85.556 E.02007
G1 X202.606 Y134.44 E2.35096
G1 X202.015 Y134.44 E.02007
G1 X153.131 Y85.555 E2.35096
G1 X152.541 Y85.555 E.02007
G1 X201.425 Y134.44 E2.35096
G1 X200.835 Y134.44 E.02007
G1 X151.95 Y85.555 E2.35097
G1 X151.36 Y85.555 E.02007
G1 X200.245 Y134.44 E2.35097
G1 X199.655 Y134.44 E.02007
G1 X150.77 Y85.555 E2.35097
G1 X150.18 Y85.555 E.02007
G1 X199.065 Y134.44 E2.35097
G1 X198.474 Y134.44 E.02007
G1 X149.59 Y85.555 E2.35097
G1 X148.999 Y85.555 E.02007
G1 X197.884 Y134.44 E2.35098
G1 X197.294 Y134.44 E.02007
G1 X148.409 Y85.555 E2.35098
G1 X147.819 Y85.555 E.02007
G1 X196.704 Y134.44 E2.35098
G1 X196.114 Y134.44 E.02007
G1 X147.229 Y85.555 E2.35098
G1 X146.638 Y85.555 E.02007
G1 X195.524 Y134.44 E2.35099
G1 X194.933 Y134.44 E.02007
G1 X146.048 Y85.555 E2.35099
G1 X145.458 Y85.555 E.02007
G1 X194.343 Y134.44 E2.35099
G1 X193.753 Y134.44 E.02007
G1 X144.868 Y85.555 E2.35099
G1 X144.277 Y85.555 E.02007
G1 X193.163 Y134.44 E2.35099
G1 X192.573 Y134.44 E.02007
G1 X143.687 Y85.555 E2.351
G1 X143.097 Y85.555 E.02007
G1 X191.982 Y134.44 E2.351
G1 X191.392 Y134.44 E.02007
G1 X142.507 Y85.555 E2.351
G1 X141.917 Y85.555 E.02007
G1 X190.802 Y134.44 E2.351
G1 X190.212 Y134.44 E.02007
G1 X141.326 Y85.555 E2.35101
G1 X140.736 Y85.555 E.02007
G1 X189.622 Y134.44 E2.35101
G1 X189.032 Y134.44 E.02007
G1 X140.146 Y85.554 E2.35101
G1 X139.556 Y85.554 E.02007
G1 X188.441 Y134.44 E2.35101
G1 X187.851 Y134.44 E.02007
G1 X138.965 Y85.554 E2.35102
G1 X138.375 Y85.554 E.02007
G1 X187.261 Y134.44 E2.35102
G1 X186.671 Y134.44 E.02007
G1 X137.785 Y85.554 E2.35102
G1 X137.195 Y85.554 E.02007
G1 X186.081 Y134.44 E2.35102
G1 X185.49 Y134.44 E.02007
G1 X136.605 Y85.554 E2.35102
G1 X136.014 Y85.554 E.02007
G1 X184.9 Y134.44 E2.35103
G1 X184.31 Y134.44 E.02007
G1 X135.424 Y85.554 E2.35103
G1 X134.834 Y85.554 E.02007
M73 P2 R84
G1 X183.72 Y134.44 E2.35103
G1 X183.13 Y134.44 E.02007
G1 X134.244 Y85.554 E2.35103
G1 X133.653 Y85.554 E.02007
G1 X182.54 Y134.44 E2.35104
G1 X181.949 Y134.44 E.02007
G1 X133.063 Y85.554 E2.35104
G1 X132.473 Y85.554 E.02007
G1 X181.359 Y134.44 E2.35104
G1 X180.769 Y134.44 E.02007
G1 X131.883 Y85.554 E2.35104
G1 X131.293 Y85.554 E.02007
G1 X180.179 Y134.44 E2.35104
G1 X179.589 Y134.44 E.02007
G1 X130.702 Y85.554 E2.35105
G1 X130.112 Y85.554 E.02007
G1 X178.999 Y134.44 E2.35105
G1 X178.408 Y134.44 E.02007
G1 X129.522 Y85.554 E2.35105
G1 X128.932 Y85.554 E.02007
G1 X177.818 Y134.44 E2.35105
G1 X177.228 Y134.44 E.02007
G1 X128.341 Y85.554 E2.35106
G1 X127.751 Y85.553 E.02007
G1 X176.638 Y134.44 E2.35106
G1 X176.048 Y134.44 E.02007
G1 X127.161 Y85.553 E2.35106
G1 X126.571 Y85.553 E.02007
G1 X175.457 Y134.44 E2.35106
G1 X174.867 Y134.44 E.02007
G1 X125.793 Y85.366 E2.36009
G1 E-.84 F2400
;WIPE_START
G1 F4800
G1 X126.5 Y86.073 E-.36
;WIPE_END
G1 Z.6 F9000
G1 X128.859 Y71.907 Z.6
G1 Z.2
M73 P3 R84
G1 E1.2 F1800
G1 F4800
G1 X127.469 Y70.517 E.06684
G1 X126.706 Y70.344 E.02663
G1 X128.674 Y72.312 E.09468
G1 X128.678 Y72.793 E.01634
G1 X128.642 Y72.87 E.00289
G1 X126.092 Y70.32 E.12263
G1 X125.502 Y70.32 E.02007
G1 X128.453 Y73.271 E.14193
G1 X128.264 Y73.672 E.01508
G1 X124.911 Y70.32 E.16123
G1 X124.321 Y70.32 E.02007
G1 X128.01 Y74.009 E.17741
G1 X127.752 Y74.341 E.0143
G1 X123.731 Y70.32 E.19336
G1 X123.141 Y70.32 E.02007
G1 X127.493 Y74.672 E.20931
G1 X127.235 Y75.004 E.0143
G1 X122.551 Y70.32 E.22526
G1 X121.96 Y70.32 E.02007
G1 X126.976 Y75.335 E.24121
G1 X126.717 Y75.667 E.0143
G1 X121.37 Y70.32 E.25715
G1 X120.78 Y70.32 E.02007
G1 X126.459 Y75.999 E.2731
G1 X126.2 Y76.33 E.0143
G1 X120.19 Y70.32 E.28905
G1 X119.6 Y70.32 E.02007
G1 X125.942 Y76.662 E.305
G1 X125.683 Y76.993 E.0143
G1 X119.01 Y70.32 E.32095
G1 X118.419 Y70.32 E.02007
G1 X125.425 Y77.325 E.33689
G1 X125.166 Y77.657 E.0143
G1 X117.829 Y70.32 E.35284
G1 X117.239 Y70.32 E.02007
G1 X124.929 Y78.01 E.36982
G1 X124.706 Y78.377 E.01461
G1 X116.649 Y70.32 E.38748
G1 X116.059 Y70.32 E.02007
G1 X124.54 Y78.801 E.40788
G1 X124.389 Y79.24 E.0158
G1 X115.468 Y70.32 E.42901
G1 X114.878 Y70.32 E.02007
G1 X124.322 Y79.763 E.45415
G1 X124.28 Y80.139 E.01286
G1 X124.28 Y80.312 E.00588
G1 X114.288 Y70.32 E.48054
G1 X113.698 Y70.32 E.02007
G1 X124.281 Y80.903 E.50895
G1 X124.281 Y81.493 E.02009
G1 X113.108 Y70.32 E.53736
G1 X112.518 Y70.32 E.02007
G1 X124.282 Y82.084 E.56577
G1 X124.282 Y82.675 E.02009
G1 X111.927 Y70.32 E.59418
G1 X111.337 Y70.32 E.02007
G1 X124.283 Y83.266 E.62259
G1 X124.284 Y83.856 E.02009
G1 X110.747 Y70.32 E.651
G1 X110.157 Y70.32 E.02007
G1 X124.284 Y84.447 E.67941
G1 X124.284 Y84.719 E.00926
G1 X124.363 Y85.011 E.01028
G1 X124.538 Y85.269 E.0106
G1 X124.664 Y85.379 E.00567
G1 X124.802 Y85.463 E.00549
G1 X125.098 Y85.553 E.01054
G1 X125.39 Y85.553 E.00994
G1 X174.277 Y134.44 E2.35107
G1 X173.687 Y134.44 E.02007
G1 X109.567 Y70.32 E3.08367
G1 X108.977 Y70.32 E.02007
G1 X173.097 Y134.44 E3.08367
G1 X172.507 Y134.44 E.02007
G1 X108.386 Y70.32 E3.08367
G1 X107.796 Y70.32 E.02007
G1 X171.916 Y134.44 E3.08367
G1 X171.326 Y134.44 E.02007
G1 X107.206 Y70.32 E3.08367
G1 X106.616 Y70.32 E.02007
G1 X170.736 Y134.44 E3.08367
G1 X170.146 Y134.44 E.02007
G1 X106.026 Y70.32 E3.08367
G1 X105.435 Y70.32 E.02007
G1 X169.556 Y134.44 E3.08367
G1 X168.966 Y134.44 E.02007
G1 X104.845 Y70.32 E3.08367
G1 X104.255 Y70.32 E.02007
G1 X168.375 Y134.44 E3.08367
G1 X167.785 Y134.44 E.02007
G1 X103.665 Y70.32 E3.08367
G1 X103.075 Y70.32 E.02007
G1 X167.195 Y134.44 E3.08367
G1 X166.605 Y134.44 E.02007
G1 X102.485 Y70.32 E3.08367
G1 X101.894 Y70.32 E.02007
G1 X166.015 Y134.44 E3.08367
G1 X165.424 Y134.44 E.02007
G1 X101.304 Y70.32 E3.08367
G1 X100.714 Y70.32 E.02007
G1 X164.834 Y134.44 E3.08367
G1 X164.244 Y134.44 E.02007
G1 X100.124 Y70.32 E3.08367
G1 X99.534 Y70.32 E.02007
G1 X163.654 Y134.44 E3.08367
G1 X163.064 Y134.44 E.02007
G1 X98.943 Y70.32 E3.08367
G1 X98.353 Y70.32 E.02007
G1 X162.474 Y134.44 E3.08367
G1 X161.883 Y134.44 E.02007
G1 X97.763 Y70.32 E3.08367
G1 X97.173 Y70.32 E.02007
G1 X161.293 Y134.44 E3.08367
G1 X160.703 Y134.44 E.02007
G1 X96.583 Y70.32 E3.08367
G1 X95.993 Y70.32 E.02007
G1 X160.113 Y134.44 E3.08367
G1 X159.523 Y134.44 E.02007
G1 X95.402 Y70.32 E3.08367
G1 X94.812 Y70.32 E.02007
G1 X158.932 Y134.44 E3.08367
G1 X158.342 Y134.44 E.02007
M73 P3 R83
G1 X94.222 Y70.32 E3.08367
G1 X93.632 Y70.32 E.02007
G1 X157.752 Y134.44 E3.08367
G1 X157.162 Y134.44 E.02007
G1 X93.108 Y70.386 E3.0805
G1 X92.627 Y70.495 E.01677
G1 X156.572 Y134.44 E3.07524
G1 X155.982 Y134.44 E.02007
G1 X92.232 Y70.691 E3.06583
G1 X91.903 Y70.952 E.01429
G1 X155.391 Y134.44 E3.05328
G1 X154.801 Y134.44 E.02007
G1 X91.634 Y71.273 E3.03783
G1 X91.441 Y71.67 E.01501
G1 X154.211 Y134.44 E3.01875
G1 X153.621 Y134.44 E.02007
M73 P4 R83
G1 X91.327 Y72.146 E2.99585
G1 X91.323 Y72.732 E.01993
G1 X153.031 Y134.44 E2.96766
G1 X152.441 Y134.44 E.02007
G1 X91.922 Y73.922 E2.91045
G1 X94.031 Y76.62 E.11645
G1 X151.85 Y134.44 E2.78067
G1 X151.26 Y134.44 E.02007
G1 X95.376 Y78.556 E2.68758
G1 X95.625 Y79.282 E.02609
G1 X95.639 Y79.409 E.00437
G1 X150.67 Y134.44 E2.64654
G1 X150.08 Y134.44 E.02007
G1 X95.713 Y80.073 E2.61463
G1 X95.719 Y80.67 E.0203
G1 X149.49 Y134.44 E2.58592
G1 X148.899 Y134.44 E.02007
G1 X95.719 Y81.26 E2.55756
