; HEADER_BLOCK_START
; generated by OrcaSlicer 2.2.0 on 2025-02-17 at 11:43:32
; total layer number: 40
; filament_density: 1.24
; filament_diameter: 1.75
; max_z_height: 8.00
; HEADER_BLOCK_END

; external perimeters extrusion width = 0.42mm
; perimeters extrusion width = 0.45mm
; infill extrusion width = 0.45mm
; solid infill extrusion width = 0.42mm
; top infill extrusion width = 0.42mm
; first layer extrusion width = 0.46mm

; EXECUTABLE_BLOCK_START
M201 X2500 Y2500 Z500 E5000
M203 X250 Y250 Z5 E40
M204 P2500 R500 T2500 ; sets acceleration (P, T) and retract acceleration (R), mm/sec^2
M205 X10.00 Y10.00 Z0.40 E5.00 ; sets the jerk limits, mm/sec
;TYPE:Custom
M220 S100 ;Reset Feedrate 
M221 S100 ;Reset Flowrate 
 
M104 S220 ;Set final nozzle temp 
M190 S55 ;Set and wait for bed temp to stabilize 
G28 ;Home 
G92 E0 ;Reset Extruder 
G1 Z2.0 F3000 ;Move Z Axis up 
G1 X-2.1 Y20 Z0.28 F5000.0 ;Move to start position 
M109 S220 ;Wait for nozzle temp to stabilize 
G1 X-2.1 Y145.0 Z0.28 F1500.0 E15 ;Draw the first line 
G1 X-2.4 Y145.0 Z0.28 F5000.0 ;Move to side a little 
M73 P1 R7
G1 X-2.4 Y20 Z0.28 F1500.0 E30 ;Draw the second line 
G92 E0  ;Reset Extruder 
G1 E-1.0000 F1800 ;Retract a bit 
M73 P2 R7
G1 Z2.0 F3000 ;Move Z Axis up 
G1 E0.0000 F1800
G90
G21
M83 ; use relative distances for extrusion
; filament start gcode
M106 S0
;LAYER_CHANGE
;Z:0.2
;HEIGHT:0.2
;BEFORE_LAYER_CHANGE
;0.2
G92 E0

G1 E-1.2 F2400
;_SET_FAN_SPEED_CHANGING_LAYER
M204 P500
; printing object bearing_cap.STL id:1 copy 0
M204 T500
G1 Z.6 F9000
G1 X120.198 Y107.731
G1 Z.6
G1 Z.2
G1 E1.2 F1800
;TYPE:Inner wall
;WIDTH:0.459999
G1 X120.224 Y107.827 E.00338
G1 X120.309 Y108.367 E.01859
G1 X120.401 Y109.033 E.02286
G1 X120.445 Y110.126 E.03715
M73 P3 R7
G1 X120.395 Y111.093 E.03291
G1 X120.224 Y112.173 E.03718
G1 X119.94 Y113.23 E.03718
G1 X119.548 Y114.251 E.03718
G1 X119.052 Y115.226 E.03718
G1 X118.456 Y116.144 E.03718
G1 X117.767 Y116.994 E.03718
G1 X116.994 Y117.767 E.03718
G1 X116.155 Y118.447 E.0367
G1 X115.226 Y119.052 E.03767
G1 X114.251 Y119.548 E.03717
G1 X113.23 Y119.94 E.03718
G1 X112.173 Y120.224 E.03718
G1 X111.093 Y120.395 E.03718
G1 X110 Y120.452 E.03718
G1 X108.907 Y120.395 E.03718
G1 X107.827 Y120.224 E.03718
G1 X106.77 Y119.94 E.03718
G1 X105.749 Y119.548 E.03718
G1 X104.774 Y119.052 E.03718
G1 X103.856 Y118.456 E.03718
G1 X103.006 Y117.767 E.03718
G1 X102.233 Y116.994 E.03718
G1 X101.553 Y116.155 E.0367
G1 X100.948 Y115.226 E.03767
G1 X100.452 Y114.251 E.03717
G1 X100.06 Y113.23 E.03718
G1 X99.776 Y112.173 E.03718
G1 X99.605 Y111.093 E.03718
G1 X99.548 Y110 E.03718
G1 X99.605 Y108.907 E.03718
G1 X99.776 Y107.827 E.03718
G1 X100.06 Y106.77 E.03718
G1 X100.452 Y105.749 E.03718
G1 X100.948 Y104.774 E.03718
G1 X101.544 Y103.856 E.03718
G1 X102.233 Y103.006 E.03718
G1 X103.006 Y102.233 E.03718
G1 X103.856 Y101.544 E.03718
G1 X104.774 Y100.948 E.03718
G1 X105.749 Y100.452 E.03718
G1 X106.77 Y100.06 E.03718
G1 X107.827 Y99.776 E.03718
G1 X108.907 Y99.605 E.03718
G1 X110 Y99.548 E.03718
G1 X111.078 Y99.604 E.0367
G1 X112.174 Y99.776 E.03767
G1 X113.23 Y100.06 E.03717
G1 X114.251 Y100.452 E.03718
G1 X115.226 Y100.948 E.03718
G1 X116.144 Y101.544 E.03718
G1 X116.994 Y102.233 E.03718
G1 X117.767 Y103.006 E.03718
G1 X118.456 Y103.856 E.03718
G1 X119.052 Y104.774 E.03718
G1 X119.548 Y105.749 E.03718
G1 X119.94 Y106.77 E.03718
G1 X120.188 Y107.692 E.03244
G1 X120.601 Y107.623 F9000
;TYPE:Outer wall
G1 F1800
G1 X120.632 Y107.74 E.00412
G1 X120.81 Y108.864 E.03867
G1 X120.862 Y110.147 E.04366
G1 X120.81 Y111.136 E.03365
G1 X120.632 Y112.26 E.03867
G1 X120.338 Y113.359 E.03867
G1 X119.93 Y114.421 E.03867
G1 X119.413 Y115.435 E.03867
G1 X118.794 Y116.389 E.03867
G1 X118.078 Y117.273 E.03867
G1 X117.273 Y118.078 E.03867
G1 X116.4 Y118.785 E.03818
G1 X115.435 Y119.413 E.03916
G1 X114.421 Y119.93 E.03866
G1 X113.359 Y120.338 E.03867
G1 X112.26 Y120.632 E.03867
G1 X111.136 Y120.81 E.03867
G1 X110 Y120.87 E.03867
G1 X108.864 Y120.81 E.03867
G1 X107.74 Y120.632 E.03867
G1 X106.641 Y120.338 E.03867
G1 X105.579 Y119.93 E.03867
G1 X104.565 Y119.413 E.03867
G1 X103.611 Y118.794 E.03867
G1 X102.727 Y118.078 E.03867
G1 X101.922 Y117.273 E.03867
G1 X101.215 Y116.4 E.03818
G1 X100.587 Y115.435 E.03916
G1 X100.07 Y114.421 E.03866
G1 X99.662 Y113.359 E.03867
G1 X99.368 Y112.26 E.03867
G1 X99.19 Y111.136 E.03867
G1 X99.13 Y110 E.03867
G1 X99.19 Y108.864 E.03867
G1 X99.368 Y107.74 E.03867
G1 X99.662 Y106.641 E.03867
G1 X100.07 Y105.579 E.03867
G1 X100.587 Y104.565 E.03867
G1 X101.206 Y103.611 E.03867
G1 X101.922 Y102.727 E.03867
G1 X102.727 Y101.922 E.03867
G1 X103.611 Y101.206 E.03867
G1 X104.565 Y100.587 E.03867
G1 X105.579 Y100.07 E.03867
G1 X106.641 Y99.662 E.03867
G1 X107.74 Y99.368 E.03867
G1 X108.864 Y99.19 E.03867
G1 X110 Y99.13 E.03867
G1 X111.122 Y99.189 E.03818
G1 X112.26 Y99.368 E.03916
G1 X113.359 Y99.662 E.03866
G1 X114.421 Y100.07 E.03867
G1 X115.435 Y100.587 E.03867
G1 X116.389 Y101.206 E.03867
G1 X117.273 Y101.922 E.03867
G1 X118.078 Y102.727 E.03867
G1 X118.794 Y103.611 E.03867
G1 X119.413 Y104.565 E.03867
G1 X119.93 Y105.579 E.03867
G1 X120.338 Y106.641 E.03867
M73 P4 R7
G1 X120.59 Y107.584 E.03318
G1 E-.84 F2400
;WIPE_START
G1 F1800
G1 X120.632 Y107.74 E-.05808
G1 X120.763 Y108.568 E-.30192
;WIPE_END
G1 Z.6 F9000
G1 X108.244 Y115.361 Z.6
G1 Z.2
G1 E1.2 F1800
;TYPE:Inner wall
G1 X107.65 Y115.122 E.02174
G1 X107.237 Y114.912 E.01577
G1 X106.722 Y114.596 E.02054
G1 X106.182 Y114.146 E.02387
G1 X105.854 Y113.818 E.01577
G1 X105.462 Y113.358 E.02055
G1 X104.968 Y112.564 E.03177
G1 X104.661 Y111.827 E.02711
G1 X104.472 Y111.092 E.0258
G1 X104.402 Y110.652 E.01516
G1 X104.355 Y110.049 E.02054
G1 X104.402 Y109.348 E.02387
G1 X104.475 Y108.89 E.01577
G1 X104.616 Y108.302 E.02054
G1 X104.878 Y107.65 E.02387
G1 X105.088 Y107.237 E.01577
G1 X105.384 Y106.755 E.01921
G1 X105.867 Y106.17 E.0258
G1 X106.182 Y105.854 E.01516
G1 X106.642 Y105.462 E.02055
G1 X107.237 Y105.088 E.02387
G1 X107.65 Y104.878 E.01577
G1 X108.209 Y104.646 E.02054
G1 X108.89 Y104.475 E.02387
G1 X109.348 Y104.402 E.01577
G1 X109.912 Y104.358 E.01921
G1 X110.657 Y104.404 E.02538
G1 X111.112 Y104.475 E.01565
G1 X111.698 Y104.616 E.02048
G1 X112.35 Y104.878 E.02387
G1 X112.763 Y105.088 E.01577
G1 X113.278 Y105.404 E.02054
M73 P4 R6
G1 X113.818 Y105.854 E.02387
G1 X114.146 Y106.182 E.01577
G1 X114.538 Y106.642 E.02055
G1 X114.912 Y107.237 E.02387
G1 X115.122 Y107.65 E.01577
G1 X115.354 Y108.209 E.02054
G1 X115.525 Y108.89 E.02387
G1 X115.598 Y109.348 E.01577
G1 X115.645 Y109.951 E.02054
G1 X115.598 Y110.652 E.02387
G1 X115.525 Y111.11 E.01577
G1 X115.384 Y111.698 E.02054
G1 X115.122 Y112.35 E.02387
G1 X114.912 Y112.763 E.01577
G1 X114.596 Y113.278 E.02054
G1 X114.146 Y113.818 E.02387
G1 X113.818 Y114.146 E.01577
G1 X113.358 Y114.538 E.02055
G1 X112.761 Y114.913 E.02394
G1 X112.35 Y115.122 E.0157
G1 X111.791 Y115.354 E.02054
G1 X111.11 Y115.525 E.02387
G1 X110.652 Y115.598 E.01577
G1 X110.049 Y115.645 E.02054
G1 X109.348 Y115.598 E.02387
G1 X108.89 Y115.525 E.01577
G1 X108.302 Y115.384 E.02054
G1 X108.281 Y115.376 E.00077
G1 X108.398 Y114.978 F9000
;TYPE:Outer wall
G1 F1800
G1 X107.81 Y114.737 E.02158
G1 X107.455 Y114.556 E.01355
G1 X106.939 Y114.24 E.02054
G1 X106.453 Y113.828 E.02165
G1 X106.172 Y113.547 E.01354
G1 X105.779 Y113.087 E.02055
G1 X105.443 Y112.543 E.02172
G1 X105.047 Y111.668 E.03266
G1 X104.877 Y110.992 E.02369
G1 X104.771 Y110.016 E.03335
G1 X104.818 Y109.381 E.02165
G1 X104.88 Y108.987 E.01355
G1 X105.021 Y108.4 E.02054
G1 X105.263 Y107.81 E.02165
G1 X105.739 Y106.973 E.03273
G1 X106.186 Y106.438 E.02369
G1 X106.913 Y105.779 E.03335
G1 X107.455 Y105.444 E.02165
G1 X107.81 Y105.263 E.01355
G1 X108.368 Y105.032 E.02054
G1 X108.987 Y104.88 E.02165
G1 X109.944 Y104.774 E.03273
G1 X110.627 Y104.82 E.02326
G1 X111.015 Y104.881 E.01332
G1 X111.6 Y105.021 E.02048
G1 X112.19 Y105.263 E.02165
G1 X112.545 Y105.444 E.01355
G1 X113.061 Y105.76 E.02054
G1 X113.547 Y106.172 E.02165
G1 X113.828 Y106.453 E.01354
G1 X114.221 Y106.913 E.02055
G1 X114.556 Y107.455 E.02165
G1 X114.737 Y107.81 E.01355
G1 X114.968 Y108.368 E.02054
G1 X115.12 Y108.987 E.02165
G1 X115.182 Y109.381 E.01355
G1 X115.229 Y109.984 E.02054
G1 X115.182 Y110.619 E.02165
G1 X115.12 Y111.013 E.01355
G1 X114.979 Y111.6 E.02054
G1 X114.737 Y112.19 E.02165
G1 X114.556 Y112.545 E.01355
G1 X114.24 Y113.061 E.02054
G1 X113.828 Y113.547 E.02165
G1 X113.547 Y113.828 E.01354
G1 X113.087 Y114.221 E.02055
G1 X112.543 Y114.557 E.02172
G1 X111.632 Y114.968 E.034
G1 X111.013 Y115.12 E.02165
G1 X110.619 Y115.182 E.01355
G1 X110.016 Y115.229 E.02054
G1 X109.381 Y115.182 E.02165
G1 X108.987 Y115.12 E.01355
G1 X108.436 Y114.987 E.01925
G1 E-.84 F2400
;WIPE_START
G1 F1800
G1 X107.81 Y114.737 E-.24287
G1 X107.52 Y114.589 E-.11713
;WIPE_END
G1 Z.6 F9000
G1 X115.759 Y101.444
G1 Z.6
G1 Z.2
G1 E1.2 F1800
;TYPE:Bottom surface
;WIDTH:0.464693
G1 F4800
G1 X117.549 Y103.234 E.08701
G1 X118.202 Y104.041 E.03569
G1 X118.78 Y104.931 E.03647
G1 X118.916 Y105.198 E.0103
G1 X114.802 Y101.084 E.19997
G1 X114.124 Y100.738 E.02618
G1 X113.696 Y100.573 E.01575
G1 X119.427 Y106.304 E.27854
G1 X119.643 Y106.867 E.02072
M73 P5 R6
G1 X119.734 Y107.208 E.01214
G1 X112.792 Y100.266 E.33742
G1 X111.994 Y100.065 E.02827
G1 X119.935 Y108.006 E.38596
G1 X120.048 Y108.715 E.02466
G1 X111.287 Y99.954 E.42581
G1 X111.046 Y99.916 E.00838
G1 X110.631 Y99.894 E.01429
G1 X120.106 Y109.369 E.46053
G1 X120.139 Y109.999 E.02166
G1 X110.012 Y99.872 E.49223
G1 X109.439 Y99.896 E.01969
G1 X120.109 Y110.566 E.51861
G1 X120.073 Y111.126 E.01929
G1 X108.874 Y99.927 E.54431
G1 X108.359 Y100.009 E.01792
G1 X119.991 Y111.641 E.56537
G1 X119.906 Y112.151 E.0178
G1 X115.499 Y107.745 E.21417
G1 X115.669 Y108.158 E.01534
G1 X115.782 Y108.624 E.01648
G1 X119.78 Y112.622 E.19431
G1 X119.653 Y113.092 E.01674
G1 X115.903 Y109.342 E.18227
G1 X115.96 Y109.995 E.02253
G1 X119.491 Y113.527 E.17165
G1 X119.326 Y113.958 E.01587
G1 X115.913 Y110.545 E.16588
G1 X115.853 Y111.082 E.01856
G1 X119.138 Y114.367 E.15967
G1 X118.937 Y114.762 E.01524
G1 X115.737 Y111.561 E.15556
G1 X115.669 Y111.842 E.00991
G1 X115.596 Y112.018 E.00653
G1 X118.728 Y115.15 E.15223
G1 X118.494 Y115.511 E.01482
G1 X115.423 Y112.441 E.14924
G1 X115.229 Y112.843 E.01536
M73 P6 R6
G1 X118.259 Y115.873 E.14724
G1 X117.999 Y116.21 E.01462
G1 X115.003 Y113.213 E.14567
G1 X114.847 Y113.467 E.01024
G1 X114.761 Y113.568 E.00455
G1 X117.733 Y116.54 E.14442
G1 X117.458 Y116.861 E.01454
G1 X114.488 Y113.891 E.14434
G1 X114.215 Y114.215 E.01455
G1 X117.159 Y117.159 E.14313
G1 X116.861 Y117.458 E.0145
G1 X113.891 Y114.487 E.14439
G1 X113.566 Y114.759 E.01455
G1 X116.54 Y117.733 E.14451
G1 X116.21 Y118 E.01458
G1 X113.213 Y115.002 E.14569
G1 X112.842 Y115.228 E.01492
G1 X115.872 Y118.258 E.14727
G1 X115.511 Y118.493 E.01482
G1 X112.439 Y115.422 E.14927
G1 X112.019 Y115.598 E.01567
G1 X115.149 Y118.728 E.15216
G1 X114.762 Y118.937 E.01513
G1 X111.557 Y115.732 E.15579
G1 X111.079 Y115.851 E.01692
G1 X114.367 Y119.139 E.15981
G1 X113.958 Y119.326 E.01546
G1 X110.549 Y115.917 E.16569
G1 X109.995 Y115.96 E.01909
G1 X113.527 Y119.491 E.17165
G1 X113.092 Y119.654 E.01594
G1 X109.342 Y115.903 E.18228
G1 X109.003 Y115.874 E.0117
G1 X108.624 Y115.782 E.0134
G1 X112.622 Y119.78 E.19431
G1 X112.151 Y119.906 E.01674
G1 X107.381 Y115.136 E.23184
G1 E-.84 F2400
;WIPE_START
G1 F4800
G1 X108.089 Y115.843 E-.36
;WIPE_END
G1 Z.6 F9000
G1 X112.605 Y104.85 Z.6
G1 Z.2
G1 E1.2 F1800
G1 F4800
G1 X107.849 Y100.094 E.23117
G1 X107.378 Y100.22 E.01674
G1 X111.383 Y104.225 E.19464
G1 X110.931 Y104.113 E.01599
M73 P7 R6
G1 X110.655 Y104.094 E.0095
G1 X106.908 Y100.347 E.18215
G1 X106.473 Y100.509 E.01594
G1 X110.015 Y104.051 E.17217
G1 X109.916 Y104.044 E.00341
G1 X109.45 Y104.082 E.01608
G1 X106.042 Y100.674 E.16564
G1 X105.633 Y100.862 E.01546
G1 X108.92 Y104.148 E.15975
G1 X108.438 Y104.262 E.01703
G1 X105.238 Y101.063 E.15551
G1 X104.85 Y101.272 E.01513
G1 X107.987 Y104.408 E.15244
G1 X107.561 Y104.579 E.01576
G1 X104.489 Y101.506 E.14932
G1 X104.127 Y101.741 E.01482
G1 X107.163 Y104.777 E.14755
G1 X106.79 Y105.001 E.01494
G1 X103.79 Y102.001 E.14584
G1 X103.46 Y102.267 E.01458
G1 X106.429 Y105.236 E.14429
G1 X106.107 Y105.511 E.01454
G1 X103.139 Y102.542 E.14428
G1 X102.841 Y102.841 E.0145
G1 X105.785 Y105.785 E.14313
G1 X105.515 Y106.111 E.01456
G1 X102.542 Y103.139 E.14447
G1 X102.267 Y103.46 E.01454
G1 X105.244 Y106.437 E.14468
G1 X105.121 Y106.585 E.00663
G1 X104.998 Y106.787 E.00812
G1 X102 Y103.79 E.14568
G1 X101.741 Y104.127 E.01462
G1 X104.772 Y107.158 E.14732
G1 X104.689 Y107.294 E.00547
G1 X104.578 Y107.561 E.00992
G1 X101.506 Y104.489 E.1493
G1 X101.272 Y104.85 E.01482
G1 X104.402 Y107.981 E.15217
G1 X104.354 Y108.096 E.00428
G1 X104.268 Y108.443 E.0123
G1 X101.063 Y105.238 E.15579
G1 X100.861 Y105.633 E.01524
G1 X104.149 Y108.921 E.15981
G1 X104.113 Y109.067 E.00517
G1 X104.083 Y109.451 E.01324
G1 X100.674 Y106.042 E.16569
G1 X100.509 Y106.473 E.01587
G1 X104.04 Y110.005 E.17165
G1 X104.091 Y110.652 E.02232
G1 X100.346 Y106.908 E.18201
G1 X100.22 Y107.378 E.01674
M73 P8 R6
G1 X104.228 Y111.386 E.19481
G1 X104.369 Y111.94 E.01965
G1 X104.501 Y112.255 E.01173
G1 X100.094 Y107.849 E.21419
G1 X100.009 Y108.359 E.0178
G1 X111.641 Y119.991 E.56537
G1 X111.126 Y120.073 E.01792
G1 X99.927 Y108.874 E.5443
G1 X99.891 Y109.435 E.01929
G1 X110.565 Y120.109 E.51884
G1 X109.999 Y120.139 E.01951
G1 X99.861 Y110.001 E.49272
G1 X99.894 Y110.631 E.02166
G1 X109.369 Y120.106 E.46053
G1 X108.94 Y120.083 E.01476
G1 X108.714 Y120.047 E.00786
G1 X99.953 Y111.286 E.42587
G1 X100.065 Y111.994 E.02466
G1 X108.006 Y119.935 E.38597
G1 X107.208 Y119.734 E.02828
G1 X100.266 Y112.792 E.3374
G1 X100.357 Y113.133 E.01213
G1 X100.574 Y113.696 E.02073
G1 X106.304 Y119.426 E.27852
G1 X105.876 Y119.262 E.01574
G1 X105.197 Y118.916 E.02619
G1 X101.084 Y114.803 E.19994
G1 X101.219 Y115.069 E.01027
G1 X101.806 Y115.97 E.03697
G1 X102.452 Y116.767 E.03524
G1 X104.241 Y118.556 E.08696
; stop printing object bearing_cap.STL id:1 copy 0
M106 S255
;LAYER_CHANGE
;Z:0.4
;HEIGHT:0.2
;BEFORE_LAYER_CHANGE
;0.4
G92 E0

G1 E-.84 F2400
;WIPE_START
G1 F4800
G1 X103.534 Y117.849 E-.36
;WIPE_END
;_SET_FAN_SPEED_CHANGING_LAYER
M204 P2500
; printing object bearing_cap.STL id:1 copy 0
M204 T2500
G1 Z.8 F9000
G1 X120.239 Y107.709 Z.8
G1 Z.4
G1 E1.2 F1800
M204 P2000
;TYPE:Inner wall
;WIDTH:0.449999
G1 F5400
G1 X120.268 Y107.818 E.00374
G1 X120.354 Y108.36 E.01822
G1 X120.446 Y109.031 E.02247
G1 X120.49 Y110.128 E.03642
G1 X120.44 Y111.097 E.0322
G1 X120.268 Y112.182 E.03645
G1 X119.983 Y113.244 E.03645
G1 X119.59 Y114.27 E.03645
G1 X119.091 Y115.249 E.03645
G1 X118.492 Y116.17 E.03645
M73 P9 R6
G1 X117.801 Y117.024 E.03645
G1 X117.024 Y117.801 E.03645
G1 X116.203 Y118.466 E.03504
G1 X115.248 Y119.091 E.03789
G1 X114.27 Y119.59 E.03641
G1 X113.244 Y119.983 E.03645
G1 X112.182 Y120.268 E.03645
G1 X111.097 Y120.44 E.03645
G1 X110 Y120.497 E.03645
G1 X108.903 Y120.44 E.03645
G1 X107.818 Y120.268 E.03645
G1 X106.756 Y119.983 E.03645
G1 X105.73 Y119.59 E.03645
G1 X104.751 Y119.091 E.03645
G1 X103.83 Y118.492 E.03645
G1 X102.976 Y117.801 E.03645
G1 X102.199 Y117.024 E.03645
G1 X101.534 Y116.203 E.03504
G1 X100.909 Y115.248 E.03789
G1 X100.41 Y114.27 E.03641
G1 X100.017 Y113.244 E.03645
G1 X99.732 Y112.182 E.03645
G1 X99.56 Y111.097 E.03645
G1 X99.503 Y110 E.03645
G1 X99.56 Y108.903 E.03645
G1 X99.732 Y107.818 E.03645
G1 X100.017 Y106.756 E.03645
G1 X100.41 Y105.73 E.03645
G1 X100.909 Y104.751 E.03645
G1 X101.508 Y103.83 E.03645
G1 X102.199 Y102.976 E.03645
G1 X102.976 Y102.199 E.03645
G1 X103.83 Y101.508 E.03645
G1 X104.751 Y100.909 E.03645
G1 X105.73 Y100.41 E.03645
G1 X106.756 Y100.017 E.03645
G1 X107.818 Y99.732 E.03645
G1 X108.903 Y99.56 E.03645
G1 X110 Y99.503 E.03645
G1 X111.055 Y99.558 E.03504
G1 X112.184 Y99.733 E.03788
G1 X113.244 Y100.017 E.03641
G1 X114.27 Y100.41 E.03645
G1 X115.249 Y100.909 E.03645
G1 X116.17 Y101.508 E.03645
G1 X117.024 Y102.199 E.03645
G1 X117.801 Y102.976 E.03645
