; HEADER_BLOCK_START
; generated by OrcaSlicer 2.0.0 on 2024-05-13 at 07:16:22
; total layer number: 15
; filament_density: 1.24
; filament_diameter: 1.75
; max_z_height: 3.00
; HEADER_BLOCK_END

; THUMBNAIL_BLOCK_START

;
; THUMBNAIL_BLOCK_END

; THUMBNAIL_BLOCK_START

;
; THUMBNAIL_BLOCK_END

; external perimeters extrusion width = 0.45mm
; perimeters extrusion width = 0.45mm
; infill extrusion width = 0.45mm
; solid infill extrusion width = 0.45mm
; top infill extrusion width = 0.40mm

; EXECUTABLE_BLOCK_START
M73 P0 R70
M201 X5000 Y5000 Z500 E5000
M203 X500 Y500 Z30 E100
M204 P5000 R2500 T5000 ; sets acceleration (P, T) and retract acceleration (R), mm/sec^2
M205 X10.00 Y10.00 Z0.40 E5.00 ; sets the jerk limits, mm/sec
;TYPE:Custom
M220 S100 ;Reset Feedrate 
M221 S100 ;Reset Flowrate 
 
M140 S55 ;Set final bed temp 
G28 ;Home 
M420 S1; Enable mesh leveling 
G92 E0 ;Reset Extruder 
G1 Z2.0 F3000 ;Move Z Axis up 
M104 S220 ;Set final nozzle temp 
G1 X-2.1 Y20 Z0.28 F5000.0 ;Move to start position 
M190 S55 ;Wait for bed temp to stabilize 
M109 S220 ;Wait for nozzle temp to stabilize 
G1 X-2.1 Y145.0 Z0.28 F1500.0 E15 ;Draw the first line 
G1 X-2.4 Y145.0 Z0.28 F5000.0 ;Move to side a little 
G1 X-2.4 Y20 Z0.28 F1500.0 E30 ;Draw the second line 
G92 E0  ;Reset Extruder 
G1 E-1.0000 F1800 ;Retract a bit 
G1 Z2.0 F3000 ;Move Z Axis up 
G1 E0.0000 F1800
G90
G21
M83 ; use relative distances for extrusion
; filament start gcode
M106 S0
;LAYER_CHANGE
;Z:0.2
;HEIGHT:0.2
;BEFORE_LAYER_CHANGE
;0.2
G92 E0

G1 E-1.2 F1800
;_SET_FAN_SPEED_CHANGING_LAYER
M204 P300
M204 T300
G1 Z.4 F7200
G1 X45.151 Y45.151
G1 Z.4
G1 Z.2
G1 E1.2 F1800
;TYPE:Skirt
;WIDTH:0.45
G1 F3000
G1 X45.372 Y44.93 E.01038
G1 X45.982 Y44.487 E.02498
G1 X46.539 Y44.203 E.02076
G1 X47.255 Y43.97 E.02498
G1 X48.25 Y43.843 E.03326
G1 X172.127 Y43.873 E4.10921
G1 X172.745 Y43.97 E.02076
G1 X173.461 Y44.203 E.02498
G1 X174.018 Y44.487 E.02076
G1 X174.628 Y44.93 E.02498
G1 X175.07 Y45.372 E.02076
G1 X175.513 Y45.982 E.02498
G1 X175.797 Y46.539 E.02076
G1 X176.03 Y47.255 E.02498
G1 X176.157 Y48.25 E.03326
G1 X176.157 Y171.75 E4.09672
G1 X176.03 Y172.745 E.03326
G1 X175.797 Y173.461 E.02498
G1 X175.513 Y174.018 E.02076
G1 X175.07 Y174.628 E.02498
G1 X174.628 Y175.07 E.02076
G1 X174.018 Y175.513 E.02498
G1 X173.461 Y175.797 E.02076
G1 X172.745 Y176.03 E.02498
G1 X171.75 Y176.157 E.03326
G1 X48.25 Y176.157 E4.09672
G1 X47.255 Y176.03 E.03326
G1 X46.539 Y175.797 E.02498
G1 X45.982 Y175.513 E.02076
G1 X45.372 Y175.07 E.02498
G1 X44.93 Y174.628 E.02076
G1 X44.487 Y174.018 E.02498
G1 X44.203 Y173.461 E.02076
G1 X43.97 Y172.745 E.02498
G1 X43.843 Y171.75 E.03326
G1 X43.843 Y48.25 E4.09672
G1 X43.97 Y47.255 E.03326
G1 X44.203 Y46.539 E.02498
G1 X44.487 Y45.982 E.02076
G1 X44.93 Y45.372 E.02498
G1 X45.123 Y45.179 E.00905
; printing object frame.stl id:0 copy 0
G1 E-.84 F1800
;WIPE_START
G1 F3000
G1 X45.372 Y44.93 E-.127
G1 X45.896 Y44.549 E-.233
;WIPE_END
G1 Z.6 F7200
G1 X173.043 Y47.83 Z.6
G1 Z.2
G1 E1.2 F1800
;TYPE:Inner wall
;WIDTH:0.449999
G1 X173.118 Y48.421 E.01976
G1 X173.118 Y171.579 E4.08539
G1 X173.043 Y172.17 E.01976
G1 X172.85 Y172.549 E.01412
G1 X172.549 Y172.85 E.01412
G1 X172.186 Y173.035 E.01353
G1 X171.697 Y173.118 E.01645
G1 X48.421 Y173.118 E4.0893
G1 X47.83 Y173.043 E.01976
G1 X47.451 Y172.85 E.01412
G1 X47.15 Y172.549 E.01412
G1 X46.965 Y172.186 E.01353
G1 X46.882 Y171.697 E.01645
G1 X46.882 Y48.421 E4.0893
G1 X46.957 Y47.83 E.01976
G1 X47.15 Y47.451 E.01412
G1 X47.451 Y47.15 E.01412
G1 X47.814 Y46.965 E.01353
G1 X48.303 Y46.882 E.01645
G1 X171.579 Y46.882 E4.08929
G1 X172.153 Y46.954 E.01918
G1 X172.552 Y47.152 E.01477
G1 X172.85 Y47.451 E.01401
G1 X173.025 Y47.794 E.01279
G1 X173.435 Y47.702 F7200
;TYPE:Outer wall
G1 F1800
G1 X173.525 Y48.421 E.02402
G1 X173.525 Y171.732 E4.09046
G1 X173.435 Y172.298 E.01899
M73 P1 R70
G1 X173.184 Y172.792 E.01839
G1 X172.792 Y173.184 E.01839
G1 X172.315 Y173.427 E.01774
G1 X171.731 Y173.525 E.01965
G1 X48.268 Y173.525 E4.0955
G1 X47.702 Y173.435 E.01899
G1 X47.208 Y173.184 E.01839
G1 X46.816 Y172.792 E.01839
G1 X46.573 Y172.315 E.01774
G1 X46.475 Y171.731 E.01965
G1 X46.475 Y48.268 E4.0955
G1 X46.565 Y47.702 E.01899
G1 X46.816 Y47.208 E.01839
G1 X47.208 Y46.816 E.01839
G1 X47.685 Y46.573 E.01774
G1 X48.269 Y46.475 E.01965
G1 X171.732 Y46.475 E4.0955
G1 X172.278 Y46.561 E.01833
M73 P1 R69
G1 X172.792 Y46.817 E.01905
G1 X173.184 Y47.208 E.01835
G1 X173.417 Y47.667 E.01707
G1 E-.84
;WIPE_START
G1 X173.525 Y48.421 E-.27424
G1 X173.525 Y48.659 E-.08576
;WIPE_END
G1 Z.6 F7200
G1 X135.418 Y157.918 Z.6
G1 Z.2
G1 E1.2 F1800
;TYPE:Inner wall
G1 X135.418 Y144.582 E.44237
G1 X129.582 Y144.582 E.19359
G1 X129.582 Y151.471 E.22853
G1 X129.532 Y151.714 E.00822
G1 X129.403 Y151.903 E.00759
G1 X129.214 Y152.032 E.00759
G1 X128.971 Y152.082 E.00822
G1 X121.029 Y152.082 E.26348
G1 X120.786 Y152.032 E.00822
G1 X120.597 Y151.903 E.00759
G1 X120.468 Y151.714 E.00759
G1 X120.418 Y151.471 E.00822
G1 X120.418 Y144.582 E.22853
G1 X114.582 Y144.582 E.19359
G1 X114.582 Y157.918 E.44237
G1 X121.471 Y157.918 E.22853
G1 X121.759 Y157.99 E.00983
G1 X121.96 Y158.162 E.00879
G1 X122.082 Y158.44 E.01006
G1 X122.082 Y166.471 E.26642
G1 X122.04 Y166.695 E.00753
G1 X121.865 Y166.939 E.00997
G1 X121.557 Y167.082 E.01125
G1 X106.029 Y167.082 E.51512
G1 X105.748 Y167.014 E.00957
G1 X105.548 Y166.849 E.00861
G1 X105.418 Y166.564 E.01038
G1 X105.418 Y159.582 E.23161
G1 X99.582 Y159.582 E.19359
G1 X99.582 Y166.471 E.22853
G1 X99.54 Y166.695 E.00753
G1 X99.365 Y166.939 E.00997
G1 X99.057 Y167.082 E.01125
G1 X76.029 Y167.082 E.7639
G1 X75.77 Y167.025 E.00879
G1 X75.575 Y166.881 E.00803
G1 X75.418 Y166.587 E.01106
G1 X75.418 Y159.582 E.23235
G1 X68.529 Y159.582 E.22853
G1 X68.273 Y159.526 E.00868
G1 X68.044 Y159.343 E.00973
G1 X67.928 Y159.082 E.00946
G1 X67.918 Y158.529 E.01837
G1 X67.918 Y151.029 E.24879
G1 X67.968 Y150.786 E.00822
G1 X68.097 Y150.597 E.00759
G1 X68.286 Y150.468 E.00759
G1 X68.529 Y150.418 E.00822
G1 X75.418 Y150.418 E.22853
G1 X75.418 Y144.582 E.19359
G1 X62.082 Y144.582 E.44237
G1 X62.082 Y151.471 E.22853
G1 X62.025 Y151.73 E.00879
G1 X61.881 Y151.925 E.00803
G1 X61.622 Y152.063 E.00974
G1 X61.029 Y152.082 E.01969
G1 X53.529 Y152.082 E.24879
G1 X53.294 Y152.035 E.00794
G1 X53.119 Y151.925 E.00684
G1 X52.975 Y151.73 E.00803
G1 X52.918 Y151.471 E.00879
G1 X52.918 Y136.029 E.51227
G1 X52.986 Y135.748 E.00957
G1 X53.151 Y135.548 E.00861
G1 X53.436 Y135.418 E.01038
G1 X60.418 Y135.418 E.23161
G1 X60.418 Y129.582 E.19359
G1 X53.529 Y129.582 E.22853
G1 X53.305 Y129.54 E.00753
G1 X53.061 Y129.365 E.00997
G1 X52.918 Y129.057 E.01125
G1 X52.918 Y91.029 E1.26148
G1 X52.986 Y90.748 E.00957
G1 X53.151 Y90.548 E.00861
G1 X53.436 Y90.418 E.01038
G1 X60.418 Y90.418 E.23161
G1 X60.418 Y84.582 E.19359
G1 X53.529 Y84.582 E.22853
G1 X53.305 Y84.54 E.00753
G1 X53.061 Y84.365 E.00997
G1 X52.918 Y84.057 E.01125
G1 X52.918 Y68.529 E.51512
G1 X52.933 Y68.395 E.00447
G1 X53.04 Y68.162 E.00849
G1 X53.206 Y68.01 E.00747
G1 X53.469 Y67.918 E.00924
G1 X61.471 Y67.918 E.26546
G1 X61.706 Y67.965 E.00794
G1 X61.881 Y68.075 E.00684
G1 X62.025 Y68.27 E.00803
G1 X62.082 Y68.529 E.00879
G1 X62.082 Y75.418 E.22853
G1 X75.418 Y75.418 E.44237
G1 X75.418 Y69.582 E.19359
G1 X68.529 Y69.582 E.22853
G1 X68.286 Y69.532 E.00822
G1 X68.097 Y69.403 E.00759
G1 X67.968 Y69.214 E.00759
G1 X67.918 Y68.971 E.00822
G1 X67.918 Y61.029 E.26348
G1 X67.988 Y60.744 E.00973
G1 X68.166 Y60.537 E.00903
G1 X68.444 Y60.418 E.01005
G1 X75.418 Y60.418 E.23132
G1 X75.418 Y53.529 E.22853
G1 X75.465 Y53.294 E.00794
G1 X75.575 Y53.119 E.00684
G1 X75.77 Y52.975 E.00803
G1 X76.029 Y52.918 E.00879
G1 X98.971 Y52.918 E.76106
G1 X99.252 Y52.986 E.00957
G1 X99.452 Y53.151 E.00861
G1 X99.582 Y53.436 E.01038
G1 X99.582 Y60.418 E.23161
G1 X105.418 Y60.418 E.19359
G1 X105.418 Y53.529 E.22853
G1 X105.46 Y53.305 E.00753
G1 X105.635 Y53.061 E.00997
G1 X105.943 Y52.918 E.01125
G1 X121.471 Y52.918 E.51512
G1 X121.752 Y52.986 E.00957
G1 X121.952 Y53.151 E.00861
G1 X122.082 Y53.436 E.01038
G1 X122.082 Y61.471 E.26655
G1 X122.004 Y61.771 E.01027
G1 X121.873 Y61.932 E.00687
G1 X121.622 Y62.063 E.00941
G1 X121.029 Y62.082 E.01969
G1 X114.582 Y62.082 E.21384
G1 X114.582 Y75.418 E.44237
G1 X120.418 Y75.418 E.19359
G1 X120.418 Y68.529 E.22853
G1 X120.468 Y68.286 E.00822
G1 X120.597 Y68.097 E.00759
G1 X120.786 Y67.968 E.00759
G1 X121.029 Y67.918 E.00822
G1 X128.971 Y67.918 E.26348
G1 X129.214 Y67.968 E.00822
G1 X129.403 Y68.097 E.00759
G1 X129.532 Y68.286 E.00759
G1 X129.582 Y68.529 E.00822
G1 X129.582 Y75.418 E.22853
G1 X135.418 Y75.418 E.19359
G1 X135.418 Y62.082 E.44237
G1 X128.529 Y62.082 E.22853
G1 X128.241 Y62.01 E.00983
G1 X128.04 Y61.838 E.00879
G1 X127.918 Y61.56 E.01006
G1 X127.918 Y53.529 E.26642
G1 X127.96 Y53.305 E.00753
G1 X128.135 Y53.061 E.00997
G1 X128.443 Y52.918 E.01125
G1 X143.971 Y52.918 E.51512
G1 X144.252 Y52.986 E.00957
G1 X144.452 Y53.151 E.00861
G1 X144.582 Y53.436 E.01038
G1 X144.582 Y60.418 E.23161
G1 X150.418 Y60.418 E.19359
G1 X150.418 Y53.529 E.22853
G1 X150.46 Y53.305 E.00753
G1 X150.635 Y53.061 E.00997
G1 X150.943 Y52.918 E.01125
G1 X166.471 Y52.918 E.51512
G1 X166.714 Y52.968 E.00822
G1 X166.903 Y53.097 E.00759
G1 X167.032 Y53.286 E.00759
G1 X167.082 Y53.529 E.00822
G1 X167.082 Y61.471 E.26348
G1 X167.014 Y61.752 E.00957
G1 X166.849 Y61.952 E.00861
G1 X166.564 Y62.082 E.01038
G1 X159.582 Y62.082 E.23161
G1 X159.582 Y67.918 E.19359
G1 X166.471 Y67.918 E.22853
G1 X166.695 Y67.96 E.00753
G1 X166.939 Y68.135 E.00997
G1 X167.082 Y68.417 E.01049
G1 X167.082 Y76.471 E.26717
G1 X167.014 Y76.752 E.00957
G1 X166.849 Y76.952 E.00861
G1 X166.564 Y77.082 E.01038
G1 X151.029 Y77.082 E.51534
G1 X150.729 Y77.004 E.01027
G1 X150.568 Y76.873 E.00687
G1 X150.418 Y76.586 E.01075
G1 X150.418 Y69.582 E.23233
G1 X144.582 Y69.582 E.19359
G1 X144.582 Y90.418 E.69116
M73 P2 R69
G1 X150.418 Y90.418 E.19359
G1 X150.418 Y83.529 E.22853
G1 X150.49 Y83.241 E.00983
G1 X150.662 Y83.04 E.00879
G1 X150.94 Y82.918 E.01006
G1 X166.471 Y82.918 E.51521
G1 X166.695 Y82.96 E.00753
G1 X166.939 Y83.135 E.00997
G1 X167.082 Y83.417 E.01049
G1 X167.082 Y91.471 E.26717
G1 X167.014 Y91.752 E.00957
G1 X166.849 Y91.952 E.00861
G1 X166.564 Y92.082 E.01038
G1 X159.582 Y92.082 E.23161
G1 X159.582 Y97.918 E.19359
G1 X166.471 Y97.918 E.22853
G1 X166.695 Y97.96 E.00753
G1 X166.939 Y98.135 E.00997
G1 X167.082 Y98.417 E.01049
G1 X167.082 Y121.471 E.76475
G1 X167.014 Y121.752 E.00957
G1 X166.849 Y121.952 E.00861
G1 X166.564 Y122.082 E.01038
G1 X159.582 Y122.082 E.23161
G1 X159.582 Y127.918 E.19359
G1 X166.471 Y127.918 E.22853
G1 X166.695 Y127.96 E.00753
G1 X166.939 Y128.135 E.00997
G1 X167.082 Y128.417 E.01049
G1 X167.082 Y136.471 E.26717
G1 X167.014 Y136.752 E.00957
G1 X166.849 Y136.952 E.00861
G1 X166.564 Y137.082 E.01038
G1 X151.029 Y137.082 E.51534
G1 X150.729 Y137.004 E.01027
G1 X150.568 Y136.873 E.00687
G1 X150.418 Y136.586 E.01075
G1 X150.418 Y129.582 E.23233
G1 X144.582 Y129.582 E.19359
G1 X144.582 Y150.418 E.69116
G1 X150.418 Y150.418 E.19359
G1 X150.418 Y143.529 E.22853
G1 X150.49 Y143.241 E.00983
G1 X150.662 Y143.04 E.00879
G1 X150.94 Y142.918 E.01006
G1 X166.471 Y142.918 E.51521
G1 X166.695 Y142.96 E.00753
G1 X166.939 Y143.135 E.00997
G1 X167.082 Y143.417 E.01049
G1 X167.082 Y151.471 E.26717
G1 X167.014 Y151.752 E.00957
G1 X166.849 Y151.952 E.00861
G1 X166.564 Y152.082 E.01038
G1 X159.582 Y152.082 E.23161
G1 X159.582 Y157.918 E.19359
G1 X166.471 Y157.918 E.22853
G1 X166.695 Y157.96 E.00753
G1 X166.939 Y158.135 E.00997
G1 X167.082 Y158.417 E.01049
G1 X167.082 Y166.471 E.26717
G1 X167.032 Y166.714 E.00822
G1 X166.903 Y166.903 E.00759
G1 X166.714 Y167.032 E.00759
G1 X166.471 Y167.082 E.00822
G1 X151.029 Y167.082 E.51227
G1 X150.748 Y167.014 E.00957
G1 X150.548 Y166.849 E.00861
G1 X150.418 Y166.564 E.01038
G1 X150.418 Y159.582 E.23161
G1 X144.582 Y159.582 E.19359
G1 X144.582 Y166.471 E.22853
G1 X144.54 Y166.695 E.00753
G1 X144.365 Y166.939 E.00997
G1 X144.057 Y167.082 E.01125
G1 X128.529 Y167.082 E.51512
G1 X128.248 Y167.014 E.00957
G1 X128.048 Y166.849 E.00861
G1 X127.918 Y166.564 E.01038
G1 X127.918 Y158.529 E.26655
G1 X127.996 Y158.229 E.01027
G1 X128.127 Y158.068 E.00687
G1 X128.378 Y157.937 E.00941
G1 X128.971 Y157.918 E.01969
G1 X135.378 Y157.918 E.21251
G1 X135.825 Y158.325 F7200
;TYPE:Outer wall
G1 F1800
G1 X135.825 Y144.175 E.46938
G1 X129.175 Y144.175 E.22059
G1 X129.175 Y151.471 E.24204
G1 X129.115 Y151.615 E.00517
G1 X128.971 Y151.675 E.00517
G1 X121.029 Y151.675 E.26348
G1 X120.885 Y151.615 E.00517
G1 X120.825 Y151.471 E.00517
G1 X120.825 Y144.175 E.24204
G1 X114.175 Y144.175 E.22059
G1 X114.175 Y158.325 E.46938
G1 X121.471 Y158.325 E.24204
G1 X121.605 Y158.375 E.00474
G1 X121.675 Y158.529 E.00559
G1 X121.675 Y166.471 E.26348
G1 X121.602 Y166.627 E.0057
G1 X121.471 Y166.675 E.00463
G1 X106.029 Y166.675 E.51227
G1 X105.898 Y166.627 E.00463
G1 X105.825 Y166.471 E.0057
G1 X105.825 Y159.175 E.24204
G1 X99.175 Y159.175 E.22059
G1 X99.175 Y166.471 E.24204
G1 X99.102 Y166.627 E.0057
G1 X98.971 Y166.675 E.00463
G1 X76.029 Y166.675 E.76106
G1 X75.877 Y166.608 E.00548
G1 X75.825 Y166.471 E.00485
G1 X75.825 Y159.175 E.24204
G1 X68.529 Y159.175 E.24204
G1 X68.379 Y159.109 E.00543
G1 X68.325 Y158.971 E.00491
G1 X68.325 Y151.029 E.26348
G1 X68.385 Y150.885 E.00517
G1 X68.529 Y150.825 E.00517
G1 X75.825 Y150.825 E.24204
G1 X75.825 Y144.175 E.22059
G1 X61.675 Y144.175 E.46938
G1 X61.675 Y151.471 E.24204
G1 X61.608 Y151.623 E.00548
G1 X61.471 Y151.675 E.00485
G1 X53.529 Y151.675 E.26348
G1 X53.392 Y151.623 E.00485
G1 X53.325 Y151.471 E.00548
G1 X53.325 Y136.029 E.51227
G1 X53.373 Y135.898 E.00463
G1 X53.529 Y135.825 E.0057
G1 X60.825 Y135.825 E.24204
G1 X60.825 Y129.175 E.22059
G1 X53.529 Y129.175 E.24204
G1 X53.373 Y129.102 E.0057
G1 X53.325 Y128.971 E.00463
G1 X53.325 Y91.029 E1.25863
G1 X53.373 Y90.898 E.00463
G1 X53.529 Y90.825 E.0057
G1 X60.825 Y90.825 E.24204
G1 X60.825 Y84.175 E.22059
G1 X53.529 Y84.175 E.24204
G1 X53.373 Y84.102 E.0057
G1 X53.325 Y83.971 E.00463
G1 X53.325 Y68.529 E.51227
G1 X53.421 Y68.356 E.00656
G1 X53.529 Y68.325 E.00371
G1 X61.471 Y68.325 E.26348
G1 X61.608 Y68.377 E.00485
G1 X61.675 Y68.529 E.00548
G1 X61.675 Y75.825 E.24204
G1 X75.825 Y75.825 E.46938
G1 X75.825 Y69.175 E.22059
G1 X68.529 Y69.175 E.24204
G1 X68.385 Y69.115 E.00517
G1 X68.325 Y68.971 E.00517
G1 X68.325 Y61.029 E.26348
G1 X68.392 Y60.877 E.00549
G1 X68.529 Y60.825 E.00484
G1 X75.825 Y60.825 E.24204
G1 X75.825 Y53.529 E.24204
G1 X75.877 Y53.392 E.00485
G1 X76.029 Y53.325 E.00548
G1 X98.971 Y53.325 E.76106
G1 X99.102 Y53.373 E.00463
G1 X99.175 Y53.529 E.0057
G1 X99.175 Y60.825 E.24204
G1 X105.825 Y60.825 E.22059
G1 X105.825 Y53.529 E.24204
G1 X105.898 Y53.373 E.0057
G1 X106.029 Y53.325 E.00463
G1 X121.471 Y53.325 E.51227
G1 X121.602 Y53.373 E.00463
G1 X121.675 Y53.529 E.0057
G1 X121.675 Y61.471 E.26348
G1 X121.605 Y61.625 E.00559
G1 X121.471 Y61.675 E.00474
G1 X114.175 Y61.675 E.24204
G1 X114.175 Y75.825 E.46938
G1 X120.825 Y75.825 E.22059
M73 P2 R68
G1 X120.825 Y68.529 E.24204
G1 X120.885 Y68.385 E.00517
G1 X121.029 Y68.325 E.00517
G1 X128.971 Y68.325 E.26348
G1 X129.115 Y68.385 E.00517
G1 X129.175 Y68.529 E.00517
G1 X129.175 Y75.825 E.24204
G1 X135.825 Y75.825 E.22059
G1 X135.825 Y61.675 E.46938
G1 X128.529 Y61.675 E.24204
G1 X128.395 Y61.625 E.00474
G1 X128.325 Y61.471 E.00559
G1 X128.325 Y53.529 E.26348
G1 X128.398 Y53.373 E.0057
G1 X128.529 Y53.325 E.00463
G1 X143.971 Y53.325 E.51227
G1 X144.102 Y53.373 E.00463
G1 X144.175 Y53.529 E.0057
G1 X144.175 Y60.825 E.24204
G1 X150.825 Y60.825 E.22059
G1 X150.825 Y53.529 E.24204
G1 X150.898 Y53.373 E.0057
G1 X151.029 Y53.325 E.00463
G1 X166.471 Y53.325 E.51227
G1 X166.615 Y53.385 E.00517
G1 X166.675 Y53.529 E.00517
G1 X166.675 Y61.471 E.26348
G1 X166.627 Y61.602 E.00463
G1 X166.471 Y61.675 E.0057
G1 X159.175 Y61.675 E.24204
G1 X159.175 Y68.325 E.22059
G1 X166.471 Y68.325 E.24204
G1 X166.627 Y68.398 E.0057
G1 X166.675 Y68.529 E.00463
G1 X166.675 Y76.471 E.26348
G1 X166.627 Y76.602 E.00463
