; HEADER_BLOCK_START
; generated by OrcaSlicer 2.0.0 on 2024-06-14 at 11:00:08
; total layer number: 15
; filament_density: 1.24
; filament_diameter: 1.75
; max_z_height: 3.00
; HEADER_BLOCK_END

; THUMBNAIL_BLOCK_START

;
; THUMBNAIL_BLOCK_END

; THUMBNAIL_BLOCK_START

;
; THUMBNAIL_BLOCK_END

; external perimeters extrusion width = 0.45mm
; perimeters extrusion width = 0.45mm
; infill extrusion width = 0.45mm
; solid infill extrusion width = 0.45mm
; top infill extrusion width = 0.40mm

; external perimeters extrusion width = 0.45mm
; perimeters extrusion width = 0.45mm
; infill extrusion width = 0.45mm
; solid infill extrusion width = 0.45mm
; top infill extrusion width = 0.40mm

; external perimeters extrusion width = 0.45mm
; perimeters extrusion width = 0.45mm
; infill extrusion width = 0.45mm
; solid infill extrusion width = 0.45mm
; top infill extrusion width = 0.40mm

; external perimeters extrusion width = 0.45mm
; perimeters extrusion width = 0.45mm
; infill extrusion width = 0.45mm
; solid infill extrusion width = 0.45mm
; top infill extrusion width = 0.40mm

; EXECUTABLE_BLOCK_START
M73 P0 R51
M201 X5000 Y5000 Z500 E5000
M203 X500 Y500 Z30 E100
M204 P5000 R2500 T5000 ; sets acceleration (P, T) and retract acceleration (R), mm/sec^2
M205 X10.00 Y10.00 Z0.40 E5.00 ; sets the jerk limits, mm/sec
;TYPE:Custom
M220 S100 ;Reset Feedrate 
M221 S100 ;Reset Flowrate 
 
M140 S55 ;Set final bed temp 
G28 ;Home 
M420 S1; Enable mesh leveling 
G92 E0 ;Reset Extruder 
G1 Z2.0 F3000 ;Move Z Axis up 
M104 S220 ;Set final nozzle temp 
G1 X-2.1 Y20 Z0.28 F5000.0 ;Move to start position 
M190 S55 ;Wait for bed temp to stabilize 
M109 S220 ;Wait for nozzle temp to stabilize 
G1 X-2.1 Y145.0 Z0.28 F1500.0 E15 ;Draw the first line 
G1 X-2.4 Y145.0 Z0.28 F5000.0 ;Move to side a little 
G1 X-2.4 Y20 Z0.28 F1500.0 E30 ;Draw the second line 
G92 E0  ;Reset Extruder 
G1 E-1.0000 F1800 ;Retract a bit 
G1 Z2.0 F3000 ;Move Z Axis up 
G1 E0.0000 F1800
G90
G21
M83 ; use relative distances for extrusion
; filament start gcode
M106 S0
;LAYER_CHANGE
;Z:0.2
;HEIGHT:0.2
;BEFORE_LAYER_CHANGE
;0.2
G92 E0

G1 E-1.2 F1800
;_SET_FAN_SPEED_CHANGING_LAYER
M204 P300
M204 T300
G1 Z.4 F7200
G1 X90.261 Y60.414
G1 Z.4
G1 Z.2
G1 E1.2 F1800
;TYPE:Skirt
;WIDTH:0.45
G1 F3000
G1 X93.509 Y55.561 E.19369
G1 X94.566 Y54.685 E.04555
G1 X95.509 Y54.493 E.03192
G1 X117.609 Y54.493 E.7331
G1 X119.333 Y55.22 E.06208
G1 X172.034 Y109.32 E2.50534
G1 X172.717 Y111 E.06014
G1 X172.717 Y163.1 E1.72825
G1 X172.326 Y164.416 E.04555
G1 X171.278 Y165.304 E.04555
G1 X170.31 Y165.507 E.0328
G1 X71.038 Y165.505 E3.29305
G1 X70.092 Y165.312 E.03201
G1 X63.563 Y162.523 E.23552
G1 X62.494 Y161.627 E.04628
G1 X47.693 Y138.995 E.89702
G1 X47.301 Y137.679 E.04555
G1 X47.494 Y136.732 E.03206
G1 X62.279 Y102.22 E1.24546
G1 X90.239 Y60.447 E1.66744
; printing object tile05.stl id:0 copy 0
G1 E-.84 F1800
;WIPE_START
G1 F3000
G1 X90.795 Y59.616 E-.36
;WIPE_END
G1 Z.6 F7200
G1 X110.61 Y100.884 Z.6
G1 Z.2
G1 E1.2 F1800
;TYPE:Inner wall
;WIDTH:0.449999
G1 X110.531 Y100.868 E.0027
G1 X102.588 Y100.868 E.26348
G1 X102.345 Y100.918 E.00822
G1 X102.156 Y101.047 E.00759
G1 X102.027 Y101.236 E.00759
G1 X101.977 Y101.479 E.00822
G1 X101.977 Y108.368 E.22853
G1 X96.141 Y108.368 E.19359
G1 X96.141 Y95.032 E.44237
G1 X102.588 Y95.032 E.21384
M73 P0 R50
G1 X103.181 Y95.013 E.01969
G1 X103.432 Y94.882 E.00941
G1 X103.563 Y94.721 E.00687
G1 X103.641 Y94.421 E.01027
G1 X103.641 Y86.364 E.26728
G1 X103.491 Y86.077 E.01075
G1 X103.33 Y85.946 E.00687
G1 X103.031 Y85.868 E.01027
G1 X96.141 Y85.868 E.22853
G1 X96.141 Y80.032 E.19359
G1 X103.119 Y80.032 E.23148
G1 X103.397 Y79.91 E.01006
G1 X103.569 Y79.709 E.00879
G1 X103.641 Y79.421 E.00983
G1 X103.641 Y71.39 E.26643
G1 X103.519 Y71.112 E.01006
G1 X103.318 Y70.94 E.00879
G1 X103.031 Y70.868 E.00983
G1 X96.141 Y70.868 E.22853
G1 X96.141 Y57.532 E.44237
G1 X101.977 Y57.532 E.19359
G1 X101.977 Y64.421 E.22853
G1 X102.027 Y64.664 E.00822
G1 X102.156 Y64.853 E.00759
G1 X102.345 Y64.982 E.00759
G1 X102.588 Y65.032 E.00822
G1 X110.531 Y65.032 E.26348
G1 X110.773 Y64.982 E.00822
G1 X110.962 Y64.853 E.00759
G1 X111.091 Y64.664 E.00759
G1 X111.141 Y64.421 E.00822
G1 X111.141 Y57.532 E.22853
G1 X116.977 Y57.532 E.19359
G1 X116.977 Y70.868 E.44237
G1 X110.531 Y70.868 E.21384
G1 X109.937 Y70.887 E.01969
G1 X109.686 Y71.018 E.00941
G1 X109.555 Y71.179 E.00687
G1 X109.477 Y71.479 E.01027
G1 X109.477 Y94.51 E.764
G1 X109.599 Y94.788 E.01006
G1 X109.8 Y94.96 E.00879
G1 X110.088 Y95.032 E.00983
G1 X116.977 Y95.032 E.22853
G1 X116.977 Y108.368 E.44237
G1 X111.141 Y108.368 E.19359
G1 X111.141 Y101.479 E.22853
G1 X111.091 Y101.236 E.00822
G1 X110.962 Y101.047 E.00759
G1 X110.773 Y100.918 E.00759
G1 X110.649 Y100.893 E.00419
G1 X110.531 Y101.275 F7200
;TYPE:Outer wall
G1 F1800
G1 X102.588 Y101.275 E.26348
G1 X102.444 Y101.335 E.00517
G1 X102.384 Y101.479 E.00517
G1 X102.384 Y108.775 E.24204
G1 X95.734 Y108.775 E.22059
M73 P1 R50
G1 X95.734 Y94.625 E.46938
G1 X103.031 Y94.625 E.24204
G1 X103.164 Y94.575 E.00474
G1 X103.234 Y94.421 E.00559
G1 X103.234 Y86.479 E.26348
G1 X103.184 Y86.345 E.00474
G1 X103.031 Y86.275 E.00559
G1 X95.734 Y86.275 E.24204
G1 X95.734 Y79.625 E.22059
G1 X103.031 Y79.625 E.24204
G1 X103.184 Y79.555 E.00559
G1 X103.234 Y79.421 E.00474
G1 X103.234 Y71.479 E.26348
G1 X103.164 Y71.325 E.00559
G1 X103.031 Y71.275 E.00474
G1 X95.734 Y71.275 E.24204
G1 X95.734 Y57.125 E.46938
G1 X102.384 Y57.125 E.22059
G1 X102.384 Y64.421 E.24204
G1 X102.444 Y64.565 E.00517
G1 X102.588 Y64.625 E.00517
G1 X110.531 Y64.625 E.26348
G1 X110.675 Y64.565 E.00517
G1 X110.734 Y64.421 E.00517
G1 X110.734 Y57.125 E.24204
G1 X117.384 Y57.125 E.22059
G1 X117.384 Y71.275 E.46938
G1 X110.088 Y71.275 E.24204
G1 X109.954 Y71.325 E.00474
G1 X109.884 Y71.479 E.00559
G1 X109.884 Y94.421 E.76106
G1 X109.954 Y94.575 E.00559
G1 X110.088 Y94.625 E.00474
G1 X117.384 Y94.625 E.24204
G1 X117.384 Y108.775 E.46938
G1 X110.734 Y108.775 E.22059
G1 X110.734 Y101.479 E.24204
G1 X110.675 Y101.335 E.00517
G1 X110.568 Y101.29 E.00384
G1 E-.84
;WIPE_START
G1 X109.568 Y101.288 E-.36
;WIPE_END
G1 Z.6 F7200
G1 X116.814 Y58.521
G1 Z.6
G1 Z.2
G1 E1.2 F1800
;TYPE:Bottom surface
;WIDTH:0.451672
G1 F3600
G1 X116.171 Y57.878 E.0303
G1 X115.593 Y57.878 E.01925
G1 X116.631 Y58.916 E.0489
G1 X116.631 Y59.494 E.01925
G1 X115.015 Y57.878 E.07613
G1 X114.437 Y57.878 E.01925
G1 X116.631 Y60.072 E.10336
G1 X116.631 Y60.65 E.01925
G1 X113.859 Y57.878 E.13059
G1 X113.281 Y57.878 E.01925
G1 X116.631 Y61.228 E.15782
G1 X116.631 Y61.807 E.01925
G1 X112.703 Y57.878 E.18505
G1 X112.125 Y57.878 E.01925
G1 X116.631 Y62.385 E.21228
G1 X116.631 Y62.963 E.01925
G1 X111.546 Y57.878 E.23951
G1 X111.487 Y57.878 E.00197
G1 X111.487 Y58.397 E.01728
G1 X116.631 Y63.541 E.2423
G1 X116.631 Y64.119 E.01925
G1 X111.487 Y58.975 E.2423
G1 X111.487 Y59.553 E.01925
G1 X116.631 Y64.697 E.2423
G1 X116.631 Y65.275 E.01925
G1 X111.487 Y60.131 E.2423
G1 X111.487 Y60.709 E.01925
G1 X116.631 Y65.853 E.2423
G1 X116.631 Y66.431 E.01925
G1 X111.487 Y61.287 E.2423
G1 X111.487 Y61.865 E.01925
G1 X116.631 Y67.009 E.2423
G1 X116.631 Y67.587 E.01925
G1 X111.487 Y62.443 E.2423
G1 X111.487 Y63.021 E.01925
G1 X116.631 Y68.165 E.2423
G1 X116.631 Y68.743 E.01925
G1 X111.487 Y63.6 E.2423
G1 X111.487 Y64.178 E.01925
G1 X116.631 Y69.321 E.2423
G1 X116.631 Y69.899 E.01925
G1 X111.439 Y64.708 E.24456
G1 X111.409 Y64.801 E.00328
G1 X111.32 Y64.964 E.00617
G1 X111.228 Y65.074 E.00479
G1 X116.631 Y70.477 E.25453
G1 X116.631 Y70.522 E.00148
G1 X116.097 Y70.522 E.01778
G1 X110.884 Y65.309 E.24557
G1 X110.727 Y65.359 E.0055
G1 X110.376 Y65.378 E.01171
G1 X115.519 Y70.522 E.2423
G1 X114.941 Y70.522 E.01925
G1 X109.797 Y65.378 E.2423
G1 X109.219 Y65.378 E.01925
G1 X114.363 Y70.522 E.2423
G1 X113.785 Y70.522 E.01925
G1 X108.641 Y65.378 E.2423
G1 X108.063 Y65.378 E.01925
G1 X113.207 Y70.522 E.2423
G1 X112.629 Y70.522 E.01925
G1 X107.485 Y65.378 E.2423
G1 X106.907 Y65.378 E.01925
G1 X112.051 Y70.522 E.2423
G1 X111.473 Y70.522 E.01925
G1 X106.329 Y65.378 E.2423
G1 X105.751 Y65.378 E.01925
G1 X110.895 Y70.522 E.2423
G1 X110.317 Y70.522 E.01925
G1 X105.173 Y65.378 E.2423
G1 X104.595 Y65.378 E.01925
G1 X109.795 Y70.578 E.24495
G1 X109.64 Y70.632 E.00547
G1 X109.428 Y70.789 E.00879
G1 X104.017 Y65.378 E.2549
G1 X103.439 Y65.378 E.01925
G1 X109.195 Y71.134 E.27114
G1 X109.147 Y71.303 E.00583
G1 X109.131 Y71.648 E.01153
G1 X102.678 Y65.195 E.30399
G1 E-.84 F1800
;WIPE_START
G1 F3600
G1 X103.385 Y65.902 E-.36
;WIPE_END
G1 Z.6 F7200
G1 X101.814 Y58.551 Z.6
G1 Z.2
G1 E1.2 F1800
G1 F3600
G1 X101.141 Y57.878 E.0317
G1 X100.563 Y57.878 E.01925
G1 X101.631 Y58.946 E.0503
G1 X101.631 Y59.524 E.01925
G1 X99.985 Y57.878 E.07753
G1 X99.407 Y57.878 E.01925
G1 X101.631 Y60.102 E.10476
G1 X101.631 Y60.68 E.01925
G1 X98.829 Y57.878 E.13199
G1 X98.251 Y57.878 E.01925
G1 X101.631 Y61.258 E.15922
G1 X101.631 Y61.836 E.01925
G1 X97.673 Y57.878 E.18644
G1 X97.095 Y57.878 E.01925
G1 X101.631 Y62.414 E.21367
G1 X101.631 Y62.992 E.01925
G1 X96.517 Y57.878 E.2409
G1 X96.487 Y57.878 E.00099
G1 X96.487 Y58.427 E.01827
G1 X101.631 Y63.57 E.2423
G1 X101.631 Y64.148 E.01925
G1 X96.487 Y59.005 E.2423
G1 X96.487 Y59.583 E.01925
G1 X109.131 Y72.227 E.59558
G1 X109.131 Y72.805 E.01925
G1 X96.487 Y60.161 E.59558
G1 X96.487 Y60.739 E.01925
G1 X109.131 Y73.383 E.59558
G1 X109.131 Y73.961 E.01925
G1 X96.487 Y61.317 E.59558
G1 X96.487 Y61.895 E.01925
G1 X109.131 Y74.539 E.59558
G1 X109.131 Y75.117 E.01925
G1 X96.487 Y62.473 E.59558
G1 X96.487 Y63.051 E.01925
G1 X109.131 Y75.695 E.59558
G1 X109.131 Y76.273 E.01925
G1 X96.487 Y63.629 E.59558
G1 X96.487 Y64.207 E.01925
G1 X102.802 Y70.522 E.29745
G1 X102.224 Y70.522 E.01925
G1 X96.487 Y64.785 E.27022
G1 X96.487 Y65.363 E.01925
G1 X101.646 Y70.522 E.24299
G1 X101.068 Y70.522 E.01925
G1 X96.487 Y65.941 E.21576
G1 X96.487 Y66.519 E.01925
G1 X100.49 Y70.522 E.18854
G1 X99.912 Y70.522 E.01925
G1 X96.487 Y67.098 E.16131
G1 X96.487 Y67.676 E.01925
G1 X99.334 Y70.522 E.13408
G1 X98.756 Y70.522 E.01925
G1 X96.487 Y68.254 E.10685
G1 X96.487 Y68.832 E.01925
G1 X98.177 Y70.522 E.07962
G1 X97.599 Y70.522 E.01925
G1 X96.487 Y69.41 E.05239
G1 X96.487 Y69.988 E.01925
G1 X97.205 Y70.705 E.03379
G1 E-.84 F1800
;WIPE_START
G1 F3600
G1 X96.497 Y69.998 E-.36
;WIPE_END
G1 Z.6 F7200
G1 X103.804 Y71.524 Z.6
G1 Z.2
G1 E1.2 F1800
G1 F3600
G1 X109.131 Y76.851 E.25093
G1 X109.131 Y77.429 E.01925
G1 X103.987 Y72.285 E.2423
G1 X103.987 Y72.863 E.01925
G1 X109.131 Y78.007 E.2423
G1 X109.131 Y78.585 E.01925
G1 X103.987 Y73.441 E.2423
G1 X103.987 Y74.019 E.01925
G1 X109.131 Y79.163 E.2423
G1 X109.131 Y79.741 E.01925
G1 X103.987 Y74.598 E.2423
G1 X103.987 Y75.176 E.01925
G1 X109.131 Y80.319 E.2423
G1 X109.131 Y80.897 E.01925
G1 X103.987 Y75.754 E.2423
G1 X103.987 Y76.332 E.01925
G1 X109.131 Y81.476 E.2423
G1 X109.131 Y82.054 E.01925
G1 X103.987 Y76.91 E.2423
G1 X103.987 Y77.488 E.01925
M73 P2 R50
G1 X109.131 Y82.632 E.2423
G1 X109.131 Y83.21 E.01925
G1 X103.987 Y78.066 E.2423
G1 X103.987 Y78.644 E.01925
G1 X109.131 Y83.788 E.2423
G1 X109.131 Y84.366 E.01925
G1 X103.987 Y79.222 E.2423
G1 X103.987 Y79.43 E.00694
G1 X103.959 Y79.657 E.00761
G1 X103.927 Y79.74 E.00296
G1 X109.131 Y84.944 E.24514
G1 X109.131 Y85.522 E.01925
G1 X103.704 Y80.095 E.25562
G1 X103.607 Y80.185 E.00442
G1 X103.499 Y80.256 E.0043
G1 X103.353 Y80.322 E.00534
G1 X109.131 Y86.1 E.27219
G1 X109.131 Y86.678 E.01925
G1 X102.831 Y80.378 E.29676
G1 X102.253 Y80.378 E.01925
G1 X109.131 Y87.256 E.32399
G1 X109.131 Y87.834 E.01925
G1 X101.675 Y80.378 E.35122
G1 X101.097 Y80.378 E.01925
G1 X109.131 Y88.412 E.37845
G1 X109.131 Y88.99 E.01925
G1 X100.519 Y80.378 E.40568
G1 X99.941 Y80.378 E.01925
G1 X109.131 Y89.568 E.43291
G1 X109.131 Y90.146 E.01925
G1 X99.363 Y80.378 E.46014
G1 X98.785 Y80.378 E.01925
G1 X109.131 Y90.725 E.48737
G1 X109.131 Y91.303 E.01925
G1 X98.207 Y80.378 E.51459
G1 X97.629 Y80.378 E.01925
G1 X102.772 Y85.522 E.2423
G1 X102.194 Y85.522 E.01925
G1 X97.05 Y80.378 E.2423
G1 X96.487 Y80.378 E.01876
G1 X96.487 Y80.393 E.00049
G1 X101.616 Y85.522 E.2416
G1 X101.038 Y85.522 E.01925
G1 X96.487 Y80.971 E.21437
G1 X96.487 Y81.549 E.01925
G1 X100.46 Y85.522 E.18714
G1 X99.882 Y85.522 E.01925
G1 X96.487 Y82.127 E.15991
G1 X96.487 Y82.705 E.01925
G1 X99.304 Y85.522 E.13268
G1 X98.726 Y85.522 E.01925
G1 X96.487 Y83.283 E.10545
G1 X96.487 Y83.861 E.01925
G1 X98.148 Y85.522 E.07822
G1 X97.57 Y85.522 E.01925
G1 X96.487 Y84.439 E.05099
G1 X96.487 Y85.017 E.01925
G1 X97.175 Y85.705 E.03239
G1 E-.84 F1800
;WIPE_START
G1 F3600
G1 X96.487 Y85.017 E-.35009
G1 X96.487 Y84.99 E-.00991
;WIPE_END
G1 Z.6 F7200
G1 X103.804 Y86.554 Z.6
G1 Z.2
G1 E1.2 F1800
G1 F3600
G1 X109.131 Y91.881 E.25093
G1 X109.131 Y92.459 E.01925
G1 X103.987 Y87.315 E.2423
G1 X103.987 Y87.893 E.01925
G1 X109.131 Y93.037 E.2423
G1 X109.131 Y93.615 E.01925
G1 X103.987 Y88.471 E.2423
G1 X103.987 Y89.049 E.01925
G1 X109.314 Y94.376 E.25093
G1 E-.84 F1800
;WIPE_START
G1 F3600
G1 X108.607 Y93.669 E-.36
;WIPE_END
G1 Z.6 F7200
G1 X115.914 Y95.195 Z.6
G1 Z.2
G1 E1.2 F1800
G1 F3600
G1 X116.631 Y95.912 E.03379
G1 X116.631 Y96.49 E.01925
G1 X115.519 Y95.378 E.05239
G1 X114.941 Y95.378 E.01925
G1 X116.631 Y97.068 E.07962
G1 X116.631 Y97.646 E.01925
G1 X114.363 Y95.378 E.10685
G1 X113.785 Y95.378 E.01925
G1 X116.631 Y98.225 E.13408
G1 X116.631 Y98.803 E.01925
G1 X113.207 Y95.378 E.16131
G1 X112.629 Y95.378 E.01925
G1 X116.631 Y99.381 E.18854
G1 X116.631 Y99.959 E.01925
G1 X112.05 Y95.378 E.21577
G1 X111.472 Y95.378 E.01925
G1 X116.631 Y100.537 E.243
G1 X116.631 Y101.115 E.01925
G1 X110.894 Y95.378 E.27023
G1 X110.316 Y95.378 E.01925
G1 X116.631 Y101.693 E.29746
G1 X116.631 Y102.271 E.01925
G1 X103.987 Y89.627 E.59558
G1 X103.987 Y90.205 E.01925
G1 X116.631 Y102.849 E.59558
G1 X116.631 Y103.427 E.01925
G1 X103.987 Y90.783 E.59558
G1 X103.987 Y91.361 E.01925
G1 X116.631 Y104.005 E.59558
G1 X116.631 Y104.583 E.01925
G1 X103.987 Y91.939 E.59558
G1 X103.987 Y92.517 E.01925
G1 X116.631 Y105.161 E.59558
G1 X116.631 Y105.739 E.01925
G1 X103.987 Y93.096 E.59558
G1 X103.987 Y93.674 E.01925
G1 X116.631 Y106.317 E.59558
G1 X116.631 Y106.895 E.01925
G1 X111.487 Y101.752 E.2423
G1 X111.487 Y102.33 E.01925
G1 X116.631 Y107.474 E.2423
G1 X116.631 Y108.022 E.01827
G1 X116.601 Y108.022 E.00099
G1 X111.487 Y102.908 E.2409
G1 X111.487 Y103.486 E.01925
G1 X116.023 Y108.022 E.21367
G1 X115.445 Y108.022 E.01925
G1 X111.487 Y104.064 E.18644
G1 X111.487 Y104.642 E.01925
G1 X114.867 Y108.022 E.15921
G1 X114.289 Y108.022 E.01925
G1 X111.487 Y105.22 E.13198
G1 X111.487 Y105.798 E.01925
G1 X113.711 Y108.022 E.10475
G1 X113.133 Y108.022 E.01925
G1 X111.487 Y106.376 E.07752
G1 X111.487 Y106.954 E.01925
G1 X112.555 Y108.022 E.05029
G1 X111.977 Y108.022 E.01925
G1 X111.304 Y107.349 E.03169
G1 E-.84 F1800
;WIPE_START
G1 F3600
G1 X111.977 Y108.022 E-.34255
G1 X112.025 Y108.022 E-.01745
;WIPE_END
G1 Z.6 F7200
G1 X110.441 Y100.705 Z.6
G1 Z.2
G1 E1.2 F1800
G1 F3600
G1 X103.987 Y94.252 E.30399
G1 X103.971 Y94.597 E.01153
G1 X103.923 Y94.766 E.00583
G1 X109.679 Y100.522 E.27114
G1 X109.101 Y100.522 E.01925
G1 X103.69 Y95.111 E.2549
G1 X103.479 Y95.268 E.00879
G1 X103.323 Y95.322 E.00548
G1 X108.523 Y100.522 E.24495
G1 X107.945 Y100.522 E.01925
G1 X102.801 Y95.378 E.2423
G1 X102.223 Y95.378 E.01925
G1 X107.367 Y100.522 E.2423
G1 X106.789 Y100.522 E.01925
M73 P2 R49
G1 X101.645 Y95.378 E.2423
G1 X101.067 Y95.378 E.01925
G1 X106.211 Y100.522 E.2423
G1 X105.633 Y100.522 E.01925
G1 X100.489 Y95.378 E.2423
G1 X99.911 Y95.378 E.01925
G1 X105.055 Y100.522 E.2423
G1 X104.477 Y100.522 E.01925
G1 X99.333 Y95.378 E.2423
G1 X98.755 Y95.378 E.01925
G1 X103.899 Y100.522 E.2423
G1 X103.321 Y100.522 E.01925
G1 X98.177 Y95.378 E.2423
G1 X97.599 Y95.378 E.01925
G1 X102.743 Y100.522 E.2423
G1 X102.392 Y100.541 E.01171
G1 X102.234 Y100.591 E.0055
G1 X97.021 Y95.378 E.24557
G1 X96.487 Y95.378 E.01777
G1 X96.487 Y95.423 E.00148
G1 X101.891 Y100.826 E.25453
G1 X101.799 Y100.936 E.00479
G1 X101.709 Y101.099 E.00617
G1 X101.679 Y101.193 E.00328
