; HEADER_BLOCK_START
; generated by OrcaSlicer 2.0.0 on 2024-06-14 at 11:00:45
; total layer number: 15
; filament_density: 1.24
; filament_diameter: 1.75
; max_z_height: 3.00
; HEADER_BLOCK_END

; THUMBNAIL_BLOCK_START

;
; THUMBNAIL_BLOCK_END

; THUMBNAIL_BLOCK_START

;
; THUMBNAIL_BLOCK_END

; external perimeters extrusion width = 0.45mm
; perimeters extrusion width = 0.45mm
; infill extrusion width = 0.45mm
; solid infill extrusion width = 0.45mm
; top infill extrusion width = 0.40mm

; external perimeters extrusion width = 0.45mm
; perimeters extrusion width = 0.45mm
; infill extrusion width = 0.45mm
; solid infill extrusion width = 0.45mm
; top infill extrusion width = 0.40mm

; external perimeters extrusion width = 0.45mm
; perimeters extrusion width = 0.45mm
; infill extrusion width = 0.45mm
; solid infill extrusion width = 0.45mm
; top infill extrusion width = 0.40mm

; external perimeters extrusion width = 0.45mm
; perimeters extrusion width = 0.45mm
; infill extrusion width = 0.45mm
; solid infill extrusion width = 0.45mm
; top infill extrusion width = 0.40mm

; external perimeters extrusion width = 0.45mm
; perimeters extrusion width = 0.45mm
; infill extrusion width = 0.45mm
; solid infill extrusion width = 0.45mm
; top infill extrusion width = 0.40mm

; EXECUTABLE_BLOCK_START
M73 P0 R33
M201 X5000 Y5000 Z500 E5000
M203 X500 Y500 Z30 E100
M204 P5000 R2500 T5000 ; sets acceleration (P, T) and retract acceleration (R), mm/sec^2
M205 X10.00 Y10.00 Z0.40 E5.00 ; sets the jerk limits, mm/sec
;TYPE:Custom
M220 S100 ;Reset Feedrate 
M221 S100 ;Reset Flowrate 
 
M140 S55 ;Set final bed temp 
G28 ;Home 
M420 S1; Enable mesh leveling 
G92 E0 ;Reset Extruder 
G1 Z2.0 F3000 ;Move Z Axis up 
M104 S220 ;Set final nozzle temp 
G1 X-2.1 Y20 Z0.28 F5000.0 ;Move to start position 
M190 S55 ;Wait for bed temp to stabilize 
M109 S220 ;Wait for nozzle temp to stabilize 
G1 X-2.1 Y145.0 Z0.28 F1500.0 E15 ;Draw the first line 
G1 X-2.4 Y145.0 Z0.28 F5000.0 ;Move to side a little 
G1 X-2.4 Y20 Z0.28 F1500.0 E30 ;Draw the second line 
G92 E0  ;Reset Extruder 
G1 E-1.0000 F1800 ;Retract a bit 
G1 Z2.0 F3000 ;Move Z Axis up 
G1 E0.0000 F1800
G90
G21
M83 ; use relative distances for extrusion
; filament start gcode
M106 S0
;LAYER_CHANGE
;Z:0.2
;HEIGHT:0.2
;BEFORE_LAYER_CHANGE
;0.2
G92 E0

G1 E-1.2 F1800
;_SET_FAN_SPEED_CHANGING_LAYER
M204 P300
M204 T300
G1 Z.4 F7200
G1 X97.671 Y67.468
G1 Z.4
G1 Z.2
G1 E1.2 F1800
;TYPE:Skirt
;WIDTH:0.45
G1 F3000
G1 X98.719 Y66.581 E.04555
G1 X100.143 Y66.421 E.04754
G1 X132.743 Y72.722 E1.1014
G1 X133.96 Y73.357 E.04555
G1 X134.439 Y74.009 E.02684
G1 X141.939 Y89.009 E.55631
G1 X152.29 Y113.241 E.87407
G1 X152.483 Y114.186 E.032
G1 X152.483 Y136.286 E.7331
G1 X152.229 Y137.362 E.03669
G1 X144.729 Y152.362 E.55631
G1 X143.79 Y153.364 E.04555
G1 X142.576 Y153.693 E.04172
G1 X97.955 Y153.651 E1.48018
G1 X96.799 Y153.354 E.03959
G1 X76.264 Y142.07 E.77724
G1 X75.271 Y141.037 E.04755
G1 X67.771 Y126.037 E.55631
G1 X67.517 Y124.96 E.03669
G1 X67.517 Y117.86 E.23552
G1 X67.771 Y116.784 E.03669
G1 X75.409 Y101.544 E.56548
G1 X97.649 Y67.502 E1.34888
; printing object tile13.stl id:192183009286 copy 0
G1 E-.84 F1800
;WIPE_START
G1 F3000
G1 X98.407 Y66.849 E-.36
;WIPE_END
G1 Z.6 F7200
G1 X136.092 Y144.287 Z.6
G1 Z.2
G1 E1.2 F1800
;TYPE:Inner wall
;WIDTH:0.449999
G1 X136.108 Y144.207 E.0027
G1 X136.108 Y129.207 E.49758
G1 X136.09 Y128.614 E.01969
M73 P1 R33
G1 X135.958 Y128.363 E.00941
G1 X135.797 Y128.232 E.00687
G1 X135.498 Y128.154 E.01027
G1 X127.466 Y128.154 E.26643
G1 X127.188 Y128.276 E.01006
G1 X127.016 Y128.477 E.00879
G1 X126.944 Y128.764 E.00983
G1 X126.944 Y135.654 E.22853
G1 X121.108 Y135.654 E.19359
G1 X121.108 Y114.818 E.69116
G1 X126.944 Y114.818 E.19359
G1 X126.944 Y121.822 E.23233
G1 X127.095 Y122.109 E.01075
G1 X127.255 Y122.239 E.00687
G1 X127.555 Y122.318 E.01027
G1 X135.587 Y122.318 E.26643
G1 X135.864 Y122.196 E.01006
G1 X136.037 Y121.995 E.00879
G1 X136.108 Y121.707 E.00983
G1 X136.108 Y114.818 E.22853
G1 X149.444 Y114.818 E.44237
G1 X149.444 Y120.654 E.19359
G1 X142.555 Y120.654 E.22853
G1 X142.312 Y120.704 E.00822
G1 X142.123 Y120.833 E.00759
G1 X141.994 Y121.022 E.00759
G1 X141.944 Y121.264 E.00822
G1 X141.944 Y128.764 E.24879
G1 X141.963 Y129.358 E.01969
G1 X142.095 Y129.609 E.00941
G1 X142.255 Y129.739 E.00687
G1 X142.555 Y129.818 E.01027
G1 X149.444 Y129.818 E.22853
G1 X149.444 Y135.654 E.19359
G1 X142.466 Y135.654 E.23148
G1 X142.188 Y135.776 E.01006
G1 X142.016 Y135.977 E.00879
G1 X141.944 Y136.264 E.00983
G1 X141.944 Y150.654 E.47732
G1 X128.608 Y150.654 E.44237
G1 X128.608 Y144.818 E.19359
G1 X135.498 Y144.818 E.22853
G1 X135.74 Y144.768 E.00822
G1 X135.93 Y144.639 E.00759
G1 X136.058 Y144.45 E.00759
G1 X136.084 Y144.326 E.00419
G1 X135.701 Y144.207 F7200
;TYPE:Outer wall
G1 F1800
G1 X135.701 Y128.764 E.51227
G1 X135.651 Y128.631 E.00474
G1 X135.498 Y128.561 E.00559
G1 X127.555 Y128.561 E.26348
G1 X127.401 Y128.631 E.00559
G1 X127.351 Y128.764 E.00474
G1 X127.351 Y136.061 E.24204
G1 X120.701 Y136.061 E.22059
G1 X120.701 Y114.411 E.71817
G1 X127.351 Y114.411 E.22059
G1 X127.351 Y121.707 E.24204
G1 X127.401 Y121.841 E.00474
G1 X127.555 Y121.911 E.00559
G1 X135.498 Y121.911 E.26348
G1 X135.651 Y121.841 E.00559
G1 X135.701 Y121.707 E.00474
G1 X135.701 Y114.411 E.24204
G1 X149.851 Y114.411 E.46938
G1 X149.851 Y121.061 E.22059
G1 X142.555 Y121.061 E.24204
G1 X142.411 Y121.12 E.00517
G1 X142.351 Y121.264 E.00517
G1 X142.351 Y129.207 E.26348
G1 X142.401 Y129.341 E.00474
M73 P1 R32
G1 X142.555 Y129.411 E.00559
G1 X149.851 Y129.411 E.24204
G1 X149.851 Y136.061 E.22059
G1 X142.555 Y136.061 E.24204
G1 X142.401 Y136.131 E.00559
G1 X142.351 Y136.264 E.00474
G1 X142.351 Y151.061 E.49082
G1 X128.201 Y151.061 E.46938
G1 X128.201 Y144.411 E.22059
G1 X135.498 Y144.411 E.24204
G1 X135.642 Y144.351 E.00517
G1 X135.686 Y144.244 E.00384
G1 E-.84
;WIPE_START
G1 X135.687 Y143.244 E-.36
;WIPE_END
G1 Z.6 F7200
G1 X148.454 Y114.981
G1 Z.6
G1 Z.2
G1 E1.2 F1800
;TYPE:Bottom surface
;WIDTH:0.451888
G1 F3600
G1 X149.098 Y115.624 E.03034
G1 X149.098 Y116.203 E.01927
G1 X148.059 Y115.164 E.04896
G1 X147.481 Y115.164 E.01927
G1 X149.098 Y116.781 E.07622
G1 X149.098 Y117.36 E.01927
G1 X146.903 Y115.164 E.10348
G1 X146.324 Y115.164 E.01927
G1 X149.098 Y117.938 E.13074
G1 X149.098 Y118.516 E.01927
G1 X145.746 Y115.164 E.158
G1 X145.167 Y115.164 E.01927
G1 X149.098 Y119.095 E.18526
G1 X149.098 Y119.673 E.01927
G1 X144.589 Y115.164 E.21251
G1 X144.011 Y115.164 E.01927
G1 X149.098 Y120.251 E.23977
G1 X149.098 Y120.308 E.00188
G1 X148.576 Y120.308 E.0174
G1 X143.432 Y115.164 E.24243
G1 X142.854 Y115.164 E.01927
G1 X147.998 Y120.308 E.24243
G1 X147.419 Y120.308 E.01927
G1 X142.276 Y115.164 E.24243
G1 X141.697 Y115.164 E.01927
G1 X146.841 Y120.308 E.24243
G1 X146.263 Y120.308 E.01927
G1 X141.119 Y115.164 E.24243
G1 X140.541 Y115.164 E.01927
G1 X145.684 Y120.308 E.24243
G1 X145.106 Y120.308 E.01927
G1 X139.962 Y115.164 E.24243
G1 X139.384 Y115.164 E.01927
G1 X144.528 Y120.308 E.24243
G1 X143.949 Y120.308 E.01927
G1 X138.805 Y115.164 E.24243
G1 X138.227 Y115.164 E.01927
G1 X143.371 Y120.308 E.24243
G1 X142.792 Y120.308 E.01927
G1 X137.649 Y115.164 E.24243
G1 X137.07 Y115.164 E.01927
G1 X142.264 Y120.357 E.24477
G1 X142.175 Y120.386 E.00311
M73 P2 R32
G1 X142.013 Y120.475 E.00618
G1 X141.898 Y120.57 E.00495
G1 X136.492 Y115.164 E.25481
G1 X136.454 Y115.164 E.00125
G1 X136.454 Y115.705 E.01802
G1 X141.666 Y120.916 E.24562
G1 X141.618 Y121.068 E.00531
G1 X141.598 Y121.427 E.01197
G1 X136.454 Y116.283 E.24243
G1 X136.454 Y116.861 E.01927
G1 X141.598 Y122.005 E.24243
G1 X141.598 Y122.584 E.01927
G1 X136.454 Y117.44 E.24243
G1 X136.454 Y118.018 E.01927
G1 X141.598 Y123.162 E.24243
G1 X141.598 Y123.74 E.01927
G1 X136.454 Y118.597 E.24243
G1 X136.454 Y119.175 E.01927
G1 X141.598 Y124.319 E.24243
G1 X141.598 Y124.897 E.01927
G1 X136.454 Y119.753 E.24243
G1 X136.454 Y120.332 E.01927
G1 X141.598 Y125.475 E.24243
G1 X141.598 Y126.054 E.01927
G1 X136.454 Y120.91 E.24243
G1 X136.454 Y121.488 E.01927
G1 X141.598 Y126.632 E.24243
G1 X141.598 Y127.211 E.01927
G1 X136.399 Y122.012 E.24502
G1 X136.343 Y122.157 E.00521
G1 X136.181 Y122.372 E.00895
G1 X141.598 Y127.789 E.2553
G1 X141.598 Y128.367 E.01927
G1 X135.834 Y122.603 E.27165
G1 X135.674 Y122.648 E.00555
G1 X135.316 Y122.664 E.01192
G1 X141.781 Y129.129 E.3047
G1 E-.84 F1800
;WIPE_START
G1 F3600
G1 X141.074 Y128.422 E-.36
;WIPE_END
G1 Z.6 F7200
G1 X148.417 Y129.98 Z.6
G1 Z.2
G1 E1.2 F1800
G1 F3600
G1 X149.098 Y130.662 E.03213
G1 X149.098 Y131.24 E.01927
G1 X148.021 Y130.163 E.05076
G1 X147.443 Y130.163 E.01928
G1 X149.098 Y131.819 E.07803
G1 X149.098 Y132.397 E.01927
G1 X146.864 Y130.163 E.1053
G1 X146.285 Y130.163 E.01928
G1 X149.098 Y132.975 E.13257
G1 X149.098 Y133.554 E.01927
G1 X145.707 Y130.162 E.15984
G1 X145.128 Y130.162 E.01928
G1 X149.098 Y134.132 E.18711
G1 X149.098 Y134.711 E.01927
G1 X144.549 Y130.162 E.21439
G1 X143.971 Y130.161 E.01928
G1 X149.098 Y135.289 E.24166
G1 X149.098 Y135.308 E.00063
G1 X148.539 Y135.308 E.01864
G1 X143.392 Y130.161 E.24257
G1 X142.813 Y130.161 E.01928
G1 X147.961 Y135.308 E.24259
G1 X147.383 Y135.309 E.01927
G1 X134.738 Y122.664 E.59595
G1 X134.159 Y122.663 E.01928
G1 X146.805 Y135.309 E.59598
G1 X146.226 Y135.309 E.01927
G1 X133.581 Y122.663 E.596
G1 X133.002 Y122.663 E.01928
G1 X145.648 Y135.309 E.59602
G1 X145.07 Y135.31 E.01927
G1 X132.423 Y122.663 E.59604
G1 X131.845 Y122.662 E.01928
G1 X144.492 Y135.31 E.59607
G1 X143.914 Y135.31 E.01927
G1 X131.266 Y122.662 E.59609
G1 X130.688 Y122.662 E.01928
G1 X143.336 Y135.31 E.59611
G1 X142.758 Y135.311 E.01927
G1 X136.454 Y129.007 E.29708
G1 X136.454 Y129.586 E.01927
G1 X142.233 Y135.364 E.27234
G1 X141.982 Y135.497 E.00945
G1 X141.881 Y135.591 E.00461
G1 X136.454 Y130.164 E.25576
G1 X136.454 Y130.742 E.01927
G1 X141.658 Y135.946 E.24527
G1 X141.627 Y136.029 E.00295
G1 X141.598 Y136.255 E.00761
G1 X141.598 Y136.464 E.00697
G1 X136.454 Y131.321 E.24243
G1 X136.454 Y131.899 E.01927
G1 X141.598 Y137.043 E.24243
G1 X141.598 Y137.621 E.01927
G1 X136.454 Y132.477 E.24243
G1 X136.454 Y133.056 E.01927
G1 X141.598 Y138.2 E.24243
G1 X141.598 Y138.778 E.01927
G1 X136.454 Y133.634 E.24243
G1 X136.454 Y134.213 E.01927
G1 X141.598 Y139.356 E.24243
G1 X141.598 Y139.935 E.01927
G1 X136.454 Y134.791 E.24243
G1 X136.454 Y135.369 E.01927
G1 X141.598 Y140.513 E.24243
G1 X141.598 Y141.091 E.01927
G1 X136.454 Y135.948 E.24243
G1 X136.454 Y136.526 E.01927
G1 X141.598 Y141.67 E.24243
G1 X141.598 Y142.248 E.01927
G1 X136.454 Y137.104 E.24243
G1 X136.454 Y137.683 E.01927
G1 X141.598 Y142.827 E.24243
G1 X141.598 Y143.405 E.01927
G1 X136.454 Y138.261 E.24243
G1 X136.454 Y138.839 E.01927
G1 X141.598 Y143.983 E.24243
G1 X141.598 Y144.562 E.01927
G1 X136.454 Y139.418 E.24243
G1 X136.454 Y139.996 E.01927
G1 X141.598 Y145.14 E.24243
G1 X141.598 Y145.718 E.01927
G1 X136.454 Y140.575 E.24243
G1 X136.454 Y141.153 E.01927
G1 X141.598 Y146.297 E.24243
G1 X141.598 Y146.875 E.01927
G1 X136.454 Y141.731 E.24243
G1 X136.454 Y142.31 E.01927
G1 X141.598 Y147.453 E.24243
G1 X141.598 Y148.032 E.01927
G1 X136.454 Y142.888 E.24243
G1 X136.454 Y143.466 E.01927
G1 X141.598 Y148.61 E.24243
G1 X141.598 Y149.189 E.01927
G1 X136.454 Y144.045 E.24243
G1 X136.435 Y144.403 E.01197
G1 X136.387 Y144.555 E.00532
G1 X141.598 Y149.767 E.24562
G1 X141.598 Y150.308 E.01802
G1 X141.561 Y150.308 E.00125
G1 X136.154 Y144.901 E.25481
G1 X136.04 Y144.996 E.00495
G1 X135.878 Y145.086 E.00618
G1 X135.789 Y145.114 E.00311
G1 X140.982 Y150.308 E.24477
G1 X140.404 Y150.308 E.01927
G1 X135.26 Y145.164 E.24243
G1 X134.682 Y145.164 E.01927
G1 X139.825 Y150.308 E.24243
G1 X139.247 Y150.308 E.01927
M73 P3 R32
G1 X134.103 Y145.164 E.24243
G1 X133.525 Y145.164 E.01927
G1 X138.669 Y150.308 E.24243
G1 X138.09 Y150.308 E.01927
G1 X132.947 Y145.164 E.24243
G1 X132.368 Y145.164 E.01927
G1 X137.512 Y150.308 E.24243
G1 X136.934 Y150.308 E.01927
G1 X131.79 Y145.164 E.24243
G1 X131.211 Y145.164 E.01927
G1 X136.355 Y150.308 E.24243
G1 X135.777 Y150.308 E.01927
G1 X130.633 Y145.164 E.24243
G1 X130.055 Y145.164 E.01927
G1 X135.199 Y150.308 E.24243
G1 X134.62 Y150.308 E.01927
G1 X129.476 Y145.164 E.24243
G1 X128.954 Y145.164 E.0174
G1 X128.954 Y145.22 E.00188
G1 X134.042 Y150.308 E.23977
G1 X133.463 Y150.308 E.01927
G1 X128.954 Y145.799 E.21251
G1 X128.954 Y146.377 E.01927
G1 X132.885 Y150.308 E.18525
G1 X132.307 Y150.308 E.01927
G1 X128.954 Y146.955 E.15799
G1 X128.954 Y147.534 E.01927
G1 X131.728 Y150.308 E.13074
G1 X131.15 Y150.308 E.01927
G1 X128.954 Y148.112 E.10348
G1 X128.954 Y148.691 E.01927
G1 X130.572 Y150.308 E.07622
G1 X129.993 Y150.308 E.01927
G1 X128.954 Y149.269 E.04896
G1 X128.954 Y149.847 E.01927
G1 X129.598 Y150.491 E.03034
G1 E-.84 F1800
;WIPE_START
G1 F3600
G1 X128.954 Y149.847 E-.3277
G1 X128.954 Y149.758 E-.0323
;WIPE_END
G1 Z.6 F7200
G1 X135.441 Y127.994 Z.6
G1 Z.2
G1 E1.2 F1800
G1 F3600
G1 X130.109 Y122.662 E.2513
G1 X129.53 Y122.662 E.01928
G1 X134.679 Y127.81 E.24266
G1 X134.101 Y127.81 E.01928
G1 X128.952 Y122.661 E.24266
G1 X128.373 Y122.661 E.01928
G1 X133.522 Y127.81 E.24266
G1 X132.944 Y127.81 E.01928
G1 X127.611 Y122.478 E.2513
G1 E-.84 F1800
;WIPE_START
G1 F3600
G1 X128.318 Y123.185 E-.36
;WIPE_END
G1 Z.6 F7200
G1 X126.781 Y115.864 Z.6
G1 Z.2
G1 E1.2 F1800
G1 F3600
G1 X126.081 Y115.164 E.03299
G1 X125.503 Y115.164 E.01927
G1 X126.598 Y116.259 E.05162
G1 X126.598 Y116.838 E.01927
G1 X124.925 Y115.164 E.07888
G1 X124.346 Y115.164 E.01927
G1 X126.598 Y117.416 E.10614
G1 X126.598 Y117.994 E.01927
G1 X123.768 Y115.164 E.13339
G1 X123.189 Y115.164 E.01927
G1 X126.598 Y118.573 E.16065
G1 X126.598 Y119.151 E.01927
G1 X122.611 Y115.164 E.18791
G1 X122.033 Y115.164 E.01927
G1 X126.598 Y119.729 E.21517
G1 X126.598 Y120.308 E.01927
G1 X121.454 Y115.164 E.24243
G1 X121.454 Y115.742 E.01927
G1 X126.598 Y120.886 E.24243
G1 X126.598 Y121.464 E.01927
G1 X121.454 Y116.321 E.24243
G1 X121.454 Y116.899 E.01927
G1 X132.365 Y127.81 E.51421
G1 X131.786 Y127.809 E.01928
G1 X121.454 Y117.477 E.48694
G1 X121.454 Y118.056 E.01927
G1 X131.208 Y127.809 E.45967
G1 X130.629 Y127.809 E.01928
G1 X121.454 Y118.634 E.4324
G1 X121.454 Y119.213 E.01927
G1 X130.051 Y127.809 E.40513
G1 X129.472 Y127.808 E.01928
G1 X121.454 Y119.791 E.37787
G1 X121.454 Y120.369 E.01927
G1 X128.893 Y127.808 E.3506
G1 X128.315 Y127.808 E.01928
G1 X121.454 Y120.948 E.32333
G1 X121.454 Y121.526 E.01927
G1 X127.736 Y127.808 E.29606
G1 X127.379 Y127.823 E.01192
G1 X127.218 Y127.868 E.00556
G1 X121.454 Y122.104 E.27165
G1 X121.454 Y122.683 E.01927
G1 X126.871 Y128.1 E.2553
G1 X126.71 Y128.314 E.00895
G1 X126.653 Y128.46 E.00521
G1 X121.454 Y123.261 E.24502
G1 X121.454 Y123.839 E.01927
G1 X126.598 Y128.983 E.24243
G1 X126.598 Y129.562 E.01927
G1 X121.454 Y124.418 E.24243
G1 X121.454 Y124.996 E.01927
G1 X126.598 Y130.14 E.24243
G1 X126.598 Y130.718 E.01927
G1 X121.454 Y125.575 E.24243
G1 X121.454 Y126.153 E.01927
G1 X126.598 Y131.297 E.24243
G1 X126.598 Y131.875 E.01927
G1 X121.454 Y126.731 E.24243
G1 X121.454 Y127.31 E.01927
G1 X126.598 Y132.453 E.24243
G1 X126.598 Y133.032 E.01927
G1 X121.454 Y127.888 E.24243
G1 X121.454 Y128.466 E.01927
G1 X126.598 Y133.61 E.24243
G1 X126.598 Y134.189 E.01927
G1 X121.454 Y129.045 E.24243
G1 X121.454 Y129.623 E.01927
G1 X126.598 Y134.767 E.24243
G1 X126.598 Y135.308 E.01802
G1 X126.561 Y135.308 E.00125
G1 X121.454 Y130.202 E.24065
G1 X121.454 Y130.78 E.01927
G1 X125.982 Y135.308 E.2134
G1 X125.404 Y135.308 E.01927
G1 X121.454 Y131.358 E.18614
G1 X121.454 Y131.937 E.01927
G1 X124.825 Y135.308 E.15888
G1 X124.247 Y135.308 E.01927
G1 X121.454 Y132.515 E.13162
G1 X121.454 Y133.093 E.01927
G1 X123.669 Y135.308 E.10436
G1 X123.09 Y135.308 E.01927
G1 X121.454 Y133.672 E.0771
G1 X121.454 Y134.25 E.01927
G1 X122.512 Y135.308 E.04985
G1 X121.934 Y135.308 E.01927
G1 X121.271 Y134.645 E.03122
G1 E-.84 F1800
;WIPE_START
G1 F3600
G1 X121.934 Y135.308 E-.33726
G1 X121.997 Y135.308 E-.02274
;WIPE_END
G1 Z.6 F7200
G1 X142.609 Y130.121 Z.6
G1 Z.2
G1 E1.2 F1800
;TYPE:Gap infill
