; HEADER_BLOCK_START
; generated by OrcaSlicer 2.2.0 on 2025-03-06 at 19:36:22
; total layer number: 105
; filament_density: 1.24
; filament_diameter: 1.75
; max_z_height: 21.00
; HEADER_BLOCK_END

; external perimeters extrusion width = 0.42mm
; perimeters extrusion width = 0.45mm
; infill extrusion width = 0.45mm
; solid infill extrusion width = 0.42mm
; top infill extrusion width = 0.42mm
; first layer extrusion width = 0.46mm

; external perimeters extrusion width = 0.42mm
; perimeters extrusion width = 0.45mm
; infill extrusion width = 0.45mm
; solid infill extrusion width = 0.42mm
; top infill extrusion width = 0.42mm
; first layer extrusion width = 0.46mm

; EXECUTABLE_BLOCK_START
M201 X2500 Y2500 Z500 E5000
M203 X250 Y250 Z5 E40
M204 P2500 R500 T2500 ; sets acceleration (P, T) and retract acceleration (R), mm/sec^2
M205 X10.00 Y10.00 Z0.40 E5.00 ; sets the jerk limits, mm/sec
;TYPE:Custom
M220 S100 ;Reset Feedrate 
M221 S100 ;Reset Flowrate 
 
M104 S220 ;Set final nozzle temp 
M190 S55 ;Set and wait for bed temp to stabilize 
G28 ;Home 
G92 E0 ;Reset Extruder 
G1 Z2.0 F3000 ;Move Z Axis up 
G1 X-2.1 Y20 Z0.28 F5000.0 ;Move to start position 
M109 S220 ;Wait for nozzle temp to stabilize 
G1 X-2.1 Y145.0 Z0.28 F1500.0 E15 ;Draw the first line 
G1 X-2.4 Y145.0 Z0.28 F5000.0 ;Move to side a little 
G1 X-2.4 Y20 Z0.28 F1500.0 E30 ;Draw the second line 
G92 E0  ;Reset Extruder 
G1 E-1.0000 F1800 ;Retract a bit 
G1 Z2.0 F3000 ;Move Z Axis up 
G1 E0.0000 F1800
G90
G21
M83 ; use relative distances for extrusion
; filament start gcode
M106 S0
;LAYER_CHANGE
;Z:0.2
;HEIGHT:0.2
;BEFORE_LAYER_CHANGE
;0.2
G92 E0

G1 E-1.2 F2400
;_SET_FAN_SPEED_CHANGING_LAYER
M204 P500
; printing object smazat.stl_1 id:0 copy 0
M204 T500
G1 Z.6 F9000
G1 X114.511 Y139.171
G1 Z.6
G1 Z.2
G1 E1.2 F1800
;TYPE:Inner wall
;WIDTH:0.459999
G1 X114.427 Y139.577 E.01409
G1 X114.416 Y140.086 E.01729
G1 X114.497 Y140.616 E.01822
G1 X114.681 Y141.163 E.01964
G1 X114.873 Y141.492 E.01294
G1 X115.208 Y141.982 E.02016
G1 X115.656 Y142.393 E.02067
G1 X116.248 Y142.747 E.02345
G1 X116.671 Y142.892 E.01519
G1 X116.802 Y143.266 E.01349
G1 X116.958 Y143.843 E.02029
G1 X117.122 Y144.558 E.02494
G1 X116.927 Y144.764 E.00966
G1 X116.77 Y145.007 E.00982
G1 X116.442 Y145.637 E.02415
G1 X116.298 Y146.191 E.01945
G1 X116.262 Y146.83 E.02177
G1 X116.336 Y147.394 E.0193
G1 X116.504 Y147.922 E.01883
G1 X116.839 Y148.524 E.02341
G1 X117.134 Y148.861 E.01522
G1 X116.948 Y149.702 E.02927
G1 X116.683 Y150.531 E.0296
G1 X116.268 Y150.675 E.01492
G1 X115.679 Y151.032 E.02341
G1 X115.231 Y151.446 E.02072
G1 X115.078 Y151.657 E.00886
G1 X114.706 Y152.272 E.02441
G1 X114.527 Y152.815 E.01946
G1 X114.45 Y153.319 E.01731
G1 X114.463 Y153.854 E.0182
G1 X114.548 Y154.26 E.01409
G1 X114.289 Y154.561 E.01348
G1 X113.804 Y155.048 E.02336
G1 X113.331 Y155.484 E.02186
G1 X113.013 Y155.408 E.01112
G1 X112.429 Y155.388 E.01985
G1 X111.912 Y155.465 E.01777
G1 X111.478 Y155.619 E.01563
G1 X110.981 Y155.84 E.01851
G1 X110.512 Y156.189 E.01986
G1 X110.109 Y156.63 E.02031
G1 X109.755 Y157.221 E.02341
G1 X109.611 Y157.644 E.01519
G1 X109.236 Y157.775 E.01349
G1 X108.659 Y157.931 E.02029
G1 X107.944 Y158.095 E.02494
G1 X107.738 Y157.899 E.00966
G1 X107.496 Y157.742 E.00982
G1 X106.865 Y157.415 E.02415
G1 X106.311 Y157.27 E.01946
G1 X105.731 Y157.229 E.01976
G1 X105.162 Y157.293 E.01947
G1 X104.58 Y157.477 E.02072
G1 X103.979 Y157.812 E.02341
G1 X103.641 Y158.106 E.01522
G1 X102.8 Y157.921 E.02927
G1 X101.971 Y157.655 E.0296
G1 X101.891 Y157.387 E.00952
G1 X101.692 Y157.018 E.01427
G1 X101.359 Y156.514 E.02053
G1 X100.944 Y156.113 E.01959
G1 X100.302 Y155.71 E.02576
G1 X99.798 Y155.528 E.01822
G1 X99.225 Y155.428 E.01976
G1 X98.648 Y155.436 E.01962
G1 X98.242 Y155.521 E.01409
G1 X97.942 Y155.262 E.01348
G1 X97.454 Y154.777 E.02336
G1 X97.019 Y154.304 E.02186
G1 X97.102 Y153.898 E.01409
G1 X97.107 Y153.32 E.01962
G1 X96.982 Y152.686 E.02196
G1 X96.785 Y152.183 E.01836
G1 X96.321 Y151.493 E.02827
G1 X95.872 Y151.081 E.02071
G1 X95.281 Y150.728 E.02341
G1 X94.858 Y150.583 E.01519
G1 X94.727 Y150.208 E.01349
G1 X94.572 Y149.632 E.02029
G1 X94.407 Y148.917 E.02494
G1 X94.603 Y148.711 E.00966
G1 X94.826 Y148.347 E.0145
G1 X95.088 Y147.838 E.01946
G1 X95.236 Y147.235 E.02112
G1 X95.273 Y146.704 E.01807
G1 X95.209 Y146.135 E.01947
G1 X95.026 Y145.553 E.02072
G1 X94.69 Y144.951 E.02341
G1 X94.396 Y144.614 E.01522
G1 X94.581 Y143.773 E.02927
G1 X94.847 Y142.944 E.0296
G1 X95.115 Y142.864 E.00952
G1 X95.502 Y142.654 E.01496
G1 X95.976 Y142.343 E.01926
G1 X96.389 Y141.917 E.02017
G1 X96.788 Y141.284 E.02541
G1 X96.982 Y140.748 E.01939
G1 X97.074 Y140.198 E.01895
G1 X97.067 Y139.62 E.01962
G1 X96.981 Y139.215 E.01409
G1 X97.24 Y138.914 E.01348
G1 X97.725 Y138.427 E.02336
G1 X98.198 Y137.991 E.02186
G1 X98.604 Y138.075 E.01409
G1 X99.215 Y138.074 E.02073
G1 X99.778 Y137.969 E.01949
G1 X100.319 Y137.758 E.01972
G1 X101.009 Y137.294 E.02827
G1 X101.421 Y136.845 E.02071
G1 X101.774 Y136.254 E.02341
G1 X101.919 Y135.831 E.01519
G1 X102.294 Y135.7 E.01349
G1 X102.87 Y135.544 E.02029
G1 X103.585 Y135.38 E.02494
G1 X103.791 Y135.576 E.00966
G1 X104.034 Y135.732 E.00982
G1 X104.711 Y136.074 E.02578
G1 X105.218 Y136.205 E.01779
G1 X105.798 Y136.246 E.01976
G1 X106.367 Y136.182 E.01947
G1 X106.949 Y135.998 E.02072
G1 X107.551 Y135.663 E.02341
G1 X107.888 Y135.368 E.01522
G1 X108.729 Y135.554 E.02927
G1 X109.558 Y135.819 E.0296
G1 X109.703 Y136.234 E.01492
G1 X110.059 Y136.823 E.02341
G1 X110.43 Y137.226 E.0186
G1 X110.784 Y137.488 E.01497
G1 X111.299 Y137.796 E.02039
G1 X111.843 Y137.975 E.01946
G1 X112.373 Y138.053 E.01822
G1 X112.882 Y138.039 E.01729
G1 X113.287 Y137.954 E.01409
G1 X113.588 Y138.213 E.01349
G1 X114.075 Y138.698 E.02336
G1 X114.484 Y139.142 E.0205
G1 X114.965 Y139.057 F9000
;TYPE:Outer wall
G1 F1800
G1 X114.967 Y139.059 E.00009
G1 X114.844 Y139.588 E.01845
G1 X114.835 Y140.089 E.01702
G1 X114.918 Y140.587 E.01717
G1 X115.095 Y141.066 E.01734
G1 X115.498 Y141.682 E.02504
G1 X115.871 Y142.036 E.01747
G1 X116.511 Y142.411 E.02521
G1 X116.994 Y142.551 E.0171
G1 X117.201 Y143.143 E.02131
G1 X117.452 Y144.074 E.03276
G1 X117.573 Y144.689 E.0213
G1 X117.229 Y145.051 E.01697
G1 X116.846 Y145.741 E.02683
G1 X116.713 Y146.228 E.01715
G1 X116.671 Y146.731 E.01717
G1 X116.737 Y147.279 E.01874
G1 X116.924 Y147.818 E.0194
G1 X117.235 Y148.364 E.02133
G1 X117.585 Y148.729 E.01722
G1 X117.572 Y148.809 E.00272
G1 X117.351 Y149.811 E.03487
G1 X117.013 Y150.868 E.03775
G1 X116.484 Y151.032 E.01881
G1 X115.992 Y151.33 E.01954
G1 X115.714 Y151.558 E.01223
G1 X115.43 Y151.881 E.01461
G1 X115.117 Y152.372 E.0198
G1 X114.944 Y152.857 E.01748
G1 X114.865 Y153.368 E.01758
G1 X114.883 Y153.871 E.0171
G1 X115.005 Y154.37 E.01746
G1 X114.595 Y154.844 E.0213
G1 X113.915 Y155.528 E.03276
G1 X113.443 Y155.939 E.0213
G1 X112.914 Y155.817 E.01845
G1 X112.413 Y155.807 E.01702
G1 X111.798 Y155.938 E.02139
G1 X111.223 Y156.18 E.02121
G1 X110.812 Y156.479 E.01727
G1 X110.467 Y156.844 E.01708
G1 X110.092 Y157.484 E.02521
G1 X109.951 Y157.967 E.0171
G1 X109.359 Y158.173 E.02131
G1 X108.428 Y158.425 E.03276
G1 X107.813 Y158.546 E.0213
G1 X107.408 Y158.17 E.01878
G1 X106.797 Y157.834 E.0237
G1 X106.306 Y157.691 E.01738
G1 X105.781 Y157.643 E.01791
G1 X105.277 Y157.694 E.01724
G1 X104.783 Y157.841 E.01749
G1 X104.139 Y158.208 E.02521
G1 X103.773 Y158.558 E.01722
G1 X103.694 Y158.545 E.00272
G1 X102.692 Y158.324 E.03487
G1 X101.634 Y157.985 E.03775
G1 X101.491 Y157.505 E.01701
G1 X101.084 Y156.83 E.02682
G1 X100.72 Y156.465 E.01749
G1 X100.135 Y156.094 E.02357
G1 X99.66 Y155.921 E.01718
G1 X99.161 Y155.84 E.01717
G1 X98.632 Y155.855 E.01802
G1 X98.132 Y155.978 E.01746
G1 X97.658 Y155.568 E.0213
G1 X96.975 Y154.888 E.03276
G1 X96.563 Y154.416 E.0213
G1 X96.685 Y153.887 E.01845
G1 X96.695 Y153.386 E.01702
G1 X96.611 Y152.888 E.01717
G1 X96.435 Y152.409 E.01734
G1 X96.031 Y151.793 E.02504
G1 X95.658 Y151.439 E.01747
G1 X95.018 Y151.064 E.02521
G1 X94.535 Y150.924 E.0171
G1 X94.329 Y150.332 E.02131
G1 X94.077 Y149.401 E.03276
G1 X93.956 Y148.786 E.0213
G1 X94.3 Y148.424 E.01697
G1 X94.674 Y147.758 E.02593
G1 X94.815 Y147.261 E.01756
G1 X94.859 Y146.756 E.01724
G1 X94.808 Y146.249 E.0173
G1 X94.661 Y145.756 E.01749
G1 X94.294 Y145.111 E.02521
G1 X93.944 Y144.745 E.01722
G1 X93.957 Y144.666 E.00272
G1 X94.178 Y143.664 E.03487
G1 X94.517 Y142.607 E.03775
G1 X94.997 Y142.464 E.01701
G1 X95.673 Y142.057 E.02682
G1 X96.037 Y141.693 E.01749
G1 X96.409 Y141.108 E.02357
G1 X96.581 Y140.633 E.01718
G1 X96.662 Y140.134 E.01717
G1 X96.647 Y139.604 E.01802
G1 X96.525 Y139.105 E.01746
G1 X96.934 Y138.631 E.0213
G1 X97.614 Y137.947 E.03276
G1 X98.086 Y137.535 E.0213
G1 X98.615 Y137.658 E.01845
G1 X99.116 Y137.667 E.01702
G1 X99.614 Y137.584 E.01717
G1 X100.093 Y137.407 E.01734
G1 X100.68 Y137.029 E.02373
G1 X101.034 Y136.669 E.01717
G1 X101.438 Y135.991 E.02682
G1 X101.579 Y135.508 E.0171
G1 X102.171 Y135.301 E.02131
G1 X103.101 Y135.05 E.03276
G1 X103.716 Y134.929 E.0213
G1 X104.078 Y135.273 E.01697
G1 X104.75 Y135.649 E.02616
G1 X105.249 Y135.788 E.0176
G1 X105.753 Y135.831 E.01721
G1 X106.253 Y135.78 E.01707
G1 X106.797 Y135.606 E.01941
G1 X107.391 Y135.267 E.02325
G1 X107.757 Y134.917 E.01722
G1 X107.836 Y134.93 E.00272
G1 X108.838 Y135.151 E.03487
G1 X109.896 Y135.49 E.03775
G1 X110.059 Y136.018 E.01881
G1 X110.386 Y136.558 E.02145
G1 X110.728 Y136.935 E.01728
G1 X110.967 Y137.11 E.01006
G1 X111.418 Y137.394 E.01812
G1 X111.894 Y137.561 E.01716
G1 X112.391 Y137.637 E.01708
G1 X112.898 Y137.619 E.01724
M73 P0 R35
G1 X113.397 Y137.497 E.01746
G1 X113.871 Y137.907 E.0213
G1 X114.555 Y138.587 E.03276
G1 X114.939 Y139.027 E.01985
G1 E-.84 F2400
;WIPE_START
G1 F1800
G1 X114.967 Y139.059 E-.01539
G1 X114.844 Y139.588 E-.19544
G1 X114.836 Y140.002 E-.14917
;WIPE_END
G1 Z.6 F9000
G1 X104.291 Y139.81 Z.6
G1 Z.2
G1 E1.2 F1800
;TYPE:Inner wall
G1 X104.737 Y139.773 E.01521
G1 X105.472 Y139.756 E.02499
G1 X106.168 Y139.809 E.02372
G1 X106.865 Y139.941 E.0241
G1 X107.336 Y140.069 E.01659
G1 X108.034 Y140.339 E.02545
G1 X108.65 Y140.656 E.02353
G1 X109.088 Y140.942 E.01779
G1 X109.752 Y141.452 E.02843
G1 X110.38 Y142.009 E.02855
G1 X111.021 Y142.738 E.033
G1 X111.43 Y143.347 E.02492
G1 X111.676 Y143.783 E.01701
G1 X112.092 Y144.663 E.03307
G1 X112.266 Y145.15 E.01759
G1 X112.489 Y145.953 E.02832
G1 X112.607 Y147.17 E.04157
G1 X112.593 Y147.807 E.02164
G1 X112.506 Y148.535 E.02491
G1 X112.348 Y149.204 E.02337
G1 X112.096 Y149.914 E.0256
G1 X111.818 Y150.494 E.02186
G1 X111.413 Y151.167 E.02669
G1 X110.987 Y151.742 E.02434
G1 X110.603 Y152.169 E.0195
G1 X110.024 Y152.694 E.02656
G1 X109.574 Y153.038 E.01927
G1 X108.895 Y153.476 E.02744
G1 X108.253 Y153.804 E.0245
G1 X107.594 Y154.065 E.02409
G1 X106.924 Y154.254 E.02365
G1 X106.25 Y154.378 E.02329
G1 X105.641 Y154.439 E.02083
G1 X104.87 Y154.431 E.02618
G1 X104.097 Y154.303 E.02665
G1 X103.456 Y154.136 E.02251
G1 X102.664 Y153.84 E.02873
G1 X101.799 Y153.405 E.0329
G1 X100.723 Y152.631 E.04503
G1 X100.327 Y152.258 E.01851
G1 X99.747 Y151.617 E.02938
G1 X99.318 Y151.044 E.02433
G1 X98.852 Y150.257 E.03107
G1 X98.361 Y149.048 E.04437
G1 X98.189 Y148.382 E.02338
G1 X98.064 Y147.596 E.02705
G1 X98.011 Y146.887 E.02416
G1 X98.025 Y146.206 E.02314
G1 X98.104 Y145.531 E.02309
G1 X98.299 Y144.819 E.02511
G1 X98.511 Y144.258 E.02038
G1 X98.735 Y143.8 E.01732
G1 X99.241 Y142.926 E.03434
G1 X99.677 Y142.355 E.02441
G1 X100.055 Y141.941 E.01904
G1 X100.436 Y141.594 E.01751
G1 X100.974 Y141.169 E.02332
G1 X101.588 Y140.77 E.02487
G1 X102.422 Y140.336 E.03196
G1 X103.093 Y140.081 E.02441
G1 X104.233 Y139.815 E.03976
G1 X104.251 Y139.814 E.00063
G1 X104.325 Y140.222 F9000
;TYPE:Outer wall
G1 F1800
G1 X105.134 Y140.164 E.02756
G1 X105.834 Y140.184 E.02381
M73 P1 R35
G1 X106.496 Y140.278 E.0227
G1 X107.151 Y140.446 E.02301
G1 X107.778 Y140.688 E.02283
G1 X108.457 Y141.026 E.02578
G1 X109.068 Y141.429 E.02486
G1 X110.095 Y142.314 E.04611
G1 X110.702 Y143.007 E.03128
G1 X111.076 Y143.568 E.02292
G1 X111.348 Y144.064 E.01923
G1 X111.715 Y144.841 E.02921
G1 X111.958 Y145.532 E.02487
G1 X112.083 Y146.051 E.01814
G1 X112.191 Y147.208 E.03952
G1 X112.176 Y147.795 E.01994
G1 X112.092 Y148.48 E.02347
G1 X111.943 Y149.107 E.02188
G1 X111.704 Y149.772 E.02404
G1 X111.443 Y150.311 E.02034
G1 X111.059 Y150.948 E.02527
G1 X110.653 Y151.493 E.02311
G1 X110.295 Y151.888 E.01812
G1 X109.753 Y152.378 E.02482
G1 X109.327 Y152.702 E.01818
G1 X108.682 Y153.117 E.02608
G1 X108.075 Y153.427 E.02315
G1 X107.455 Y153.671 E.02265
G1 X106.827 Y153.849 E.02218
G1 X106.196 Y153.964 E.02182
G1 X105.622 Y154.022 E.01958
G1 X104.902 Y154.015 E.02449
G1 X104.182 Y153.895 E.02481
G1 X103.583 Y153.739 E.02103
G1 X102.825 Y153.455 E.02749
G1 X101.996 Y153.037 E.03156
G1 X100.968 Y152.294 E.04311
G1 X100.564 Y151.908 E.01899
G1 X100.066 Y151.348 E.02545
G1 X99.661 Y150.807 E.02299
G1 X99.214 Y150.05 E.02986
G1 X98.748 Y148.893 E.04241
G1 X98.594 Y148.281 E.02143
G1 X98.478 Y147.54 E.0255
G1 X98.428 Y146.87 E.02283
G1 X98.442 Y146.221 E.02209
G1 X98.518 Y145.581 E.02189
G1 X98.7 Y144.933 E.02287
G1 X98.901 Y144.407 E.01915
G1 X99.238 Y143.725 E.02586
G1 X99.596 Y143.145 E.02315
G1 X100.007 Y142.61 E.02296
G1 X100.362 Y142.223 E.01783
G1 X100.859 Y141.775 E.02276
G1 X101.411 Y141.364 E.02336
G1 X101.851 Y141.098 E.01749
G1 X102.606 Y140.71 E.02884
G1 X103.24 Y140.472 E.02302
G1 X104.286 Y140.231 E.0365
G1 E-.84 F2400
;WIPE_START
G1 F1800
G1 X105.134 Y140.164 E-.30617
G1 X105.284 Y140.168 E-.05383
;WIPE_END
G1 Z.6 F9000
G1 X113.06 Y138.13
G1 Z.6
G1 Z.2
G1 E1.2 F1800
;TYPE:Bottom surface
;WIDTH:0.467273
G1 F4800
G1 X114.171 Y139.257 E.05473
G1 X114.115 Y139.562 E.0107
G1 X114.112 Y139.782 E.00761
G1 X112.686 Y138.356 E.06973
G1 X112.304 Y138.362 E.0132
G1 X112.053 Y138.323 E.00878
G1 X114.388 Y140.658 E.11418
G1 E-.84 F2400
;WIPE_START
G1 F4800
G1 X113.681 Y139.951 E-.36
;WIPE_END
G1 Z.6 F9000
G1 X116.775 Y143.644 Z.6
G1 Z.2
G1 E1.2 F1800
G1 F4800
G1 X116.199 Y143.069 E.02812
G1 X115.377 Y142.578 E.03312
G1 X114.881 Y142.08 E.02433
G1 X114.471 Y141.446 E.0261
G1 X114.379 Y141.249 E.00749
G1 X111.233 Y138.103 E.15385
G1 X111.007 Y138 E.00859
G1 X110.404 Y137.617 E.02472
G1 X110.254 Y137.494 E.00672
G1 X109.919 Y137.151 E.01655
G1 X109.795 Y136.99 E.00703
G1 X109.432 Y136.39 E.02426
G1 X109.361 Y136.231 E.00602
G1 X109.146 Y136.016 E.01052
G1 X108.647 Y135.856 E.0181
G1 X108.312 Y135.782 E.01187
G1 X116.731 Y144.201 E.41168
G1 X116.784 Y144.46 E.00916
G1 X116.604 Y144.674 E.00968
G1 X107.798 Y135.868 E.43065
G1 X107.423 Y136.093 E.01513
G1 X116.386 Y145.056 E.43832
G1 X116.18 Y145.45 E.01538
G1 X107.031 Y136.301 E.44739
G1 X106.907 Y136.353 E.00464
G1 X106.57 Y136.441 E.01203
G1 X116.044 Y145.914 E.46328
G1 X115.993 Y146.104 E.00678
G1 X115.962 Y146.433 E.01143
G1 X106.062 Y136.533 E.48415
G1 X105.713 Y136.562 E.0121
G1 X105.469 Y136.54 E.00846
G1 X115.974 Y147.045 E.5137
G1 X115.994 Y147.306 E.00907
G1 X116.127 Y147.798 E.01762
G1 X111.941 Y143.612 E.20472
G1 X111.418 Y142.737 E.03523
G1 X110.731 Y141.91 E.03718
G1 X110.211 Y141.426 E.02458
G1 X109.495 Y140.837 E.03206
G1 X108.861 Y140.417 E.02628
G1 X108.622 Y140.293 E.00931
G1 X104.73 Y136.401 E.19032
G1 X104.386 Y136.283 E.01258
G1 X103.765 Y135.942 E.02449
G1 X103.625 Y135.847 E.00586
G1 X103.487 Y135.718 E.00653
G1 X103.453 Y135.724 E.00119
G1 X107.543 Y139.814 E.2
G1 X107.404 Y139.76 E.00515
G1 X106.71 Y139.581 E.0248
G1 X102.97 Y135.841 E.18288
G1 X102.498 Y135.969 E.01692
G1 X106.001 Y139.472 E.17131
G1 X105.37 Y139.441 E.02185
G1 X102.134 Y136.205 E.15824
G1 X102.045 Y136.41 E.00772
G1 X101.931 Y136.602 E.00773
G1 X104.788 Y139.46 E.13975
G1 X104.232 Y139.504 E.01929
G1 X101.706 Y136.978 E.12354
G1 X101.582 Y137.151 E.00738
G1 X101.43 Y137.302 E.00739
G1 X103.736 Y139.608 E.11278
G1 X103.248 Y139.72 E.01733
G1 X101.128 Y137.6 E.10364
G1 X100.766 Y137.838 E.01499
G1 X102.791 Y139.863 E.09905
G1 X102.353 Y140.025 E.01615
G1 X100.399 Y138.071 E.09559
G1 X99.96 Y138.232 E.01616
G1 X101.949 Y140.221 E.09725
