; HEADER_BLOCK_START
; generated by OrcaSlicer 2.0.0 on 2024-06-02 at 20:39:33
; total layer number: 25
; filament_density: 1.24
; filament_diameter: 1.75
; max_z_height: 5.00
; HEADER_BLOCK_END

; THUMBNAIL_BLOCK_START

;
; THUMBNAIL_BLOCK_END

; THUMBNAIL_BLOCK_START

;
; THUMBNAIL_BLOCK_END

; external perimeters extrusion width = 0.45mm
; perimeters extrusion width = 0.45mm
; infill extrusion width = 0.45mm
; solid infill extrusion width = 0.45mm
; top infill extrusion width = 0.40mm

; external perimeters extrusion width = 0.45mm
; perimeters extrusion width = 0.45mm
; infill extrusion width = 0.45mm
; solid infill extrusion width = 0.45mm
; top infill extrusion width = 0.40mm

; external perimeters extrusion width = 0.45mm
; perimeters extrusion width = 0.45mm
; infill extrusion width = 0.45mm
; solid infill extrusion width = 0.45mm
; top infill extrusion width = 0.40mm

; external perimeters extrusion width = 0.45mm
; perimeters extrusion width = 0.45mm
; infill extrusion width = 0.45mm
; solid infill extrusion width = 0.45mm
; top infill extrusion width = 0.40mm

; external perimeters extrusion width = 0.45mm
; perimeters extrusion width = 0.45mm
; infill extrusion width = 0.45mm
; solid infill extrusion width = 0.45mm
; top infill extrusion width = 0.40mm

; external perimeters extrusion width = 0.45mm
; perimeters extrusion width = 0.45mm
; infill extrusion width = 0.45mm
; solid infill extrusion width = 0.45mm
; top infill extrusion width = 0.40mm

; external perimeters extrusion width = 0.45mm
; perimeters extrusion width = 0.45mm
; infill extrusion width = 0.45mm
; solid infill extrusion width = 0.45mm
; top infill extrusion width = 0.40mm

; external perimeters extrusion width = 0.45mm
; perimeters extrusion width = 0.45mm
; infill extrusion width = 0.45mm
; solid infill extrusion width = 0.45mm
; top infill extrusion width = 0.40mm

; EXECUTABLE_BLOCK_START
M73 P0 R47
M201 X5000 Y5000 Z500 E5000
M203 X500 Y500 Z30 E100
M204 P5000 R2500 T5000 ; sets acceleration (P, T) and retract acceleration (R), mm/sec^2
M205 X10.00 Y10.00 Z0.40 E5.00 ; sets the jerk limits, mm/sec
;TYPE:Custom
M220 S100 ;Reset Feedrate 
M221 S100 ;Reset Flowrate 
 
M140 S55 ;Set final bed temp 
G28 ;Home 
M420 S1; Enable mesh leveling 
G92 E0 ;Reset Extruder 
G1 Z2.0 F3000 ;Move Z Axis up 
M104 S220 ;Set final nozzle temp 
G1 X-2.1 Y20 Z0.28 F5000.0 ;Move to start position 
M190 S55 ;Wait for bed temp to stabilize 
M109 S220 ;Wait for nozzle temp to stabilize 
G1 X-2.1 Y145.0 Z0.28 F1500.0 E15 ;Draw the first line 
G1 X-2.4 Y145.0 Z0.28 F5000.0 ;Move to side a little 
G1 X-2.4 Y20 Z0.28 F1500.0 E30 ;Draw the second line 
G92 E0  ;Reset Extruder 
G1 E-1.0000 F1800 ;Retract a bit 
G1 Z2.0 F3000 ;Move Z Axis up 
G1 E0.0000 F1800
G90
G21
M83 ; use relative distances for extrusion
; filament start gcode
M106 S0
;LAYER_CHANGE
;Z:0.2
;HEIGHT:0.2
;BEFORE_LAYER_CHANGE
;0.2
G92 E0

G1 E-1.2 F1800
;_SET_FAN_SPEED_CHANGING_LAYER
M204 P300
M204 T300
G1 Z.4 F7200
G1 X95.193 Y67.975
G1 Z.4
G1 Z.2
G1 E1.2 F1800
;TYPE:Skirt
;WIDTH:0.45
G1 F3000
G1 X95.569 Y67.487 E.02042
G1 X102.566 Y60.49 E.32824
G1 X103.774 Y59.837 E.04555
G1 X105.712 Y60.266 E.06584
G1 X146.023 Y90.471 E1.67094
G1 X146.792 Y91.448 E.04126
G1 X152.366 Y104.446 E.46912
G1 X152.538 Y105.063 E.02124
G1 X156.401 Y132.806 E.92918
G1 X156.379 Y133.599 E.02631
M73 P0 R46
G1 X152.097 Y155.546 E.74174
G1 X151.461 Y156.763 E.04555
G1 X150.379 Y157.404 E.04172
G1 X140.845 Y160.053 E.32824
G1 X140.2 Y160.14 E.02157
G1 X95.233 Y160.132 E1.49164
G1 X93.917 Y159.741 E.04555
G1 X93.387 Y159.269 E.02353
G1 X64.133 Y124.274 E1.51304
G1 X63.589 Y123.013 E.04555
G1 X63.901 Y121.516 E.05074
G1 X95.173 Y68.009 E2.05581
; printing object Object_13 id:0 copy 0
G1 E-.84 F1800
;WIPE_START
G1 F3000
G1 X95.569 Y67.487 E-.23595
G1 X95.813 Y67.243 E-.12405
;WIPE_END
G1 Z.6 F7200
G1 X131.584 Y90.402 Z.6
G1 Z.2
G1 E1.2 F1800
;TYPE:Inner wall
;WIDTH:0.449999
G1 X125.481 Y96.505 E.28631
G1 X98.165 Y69.189 E1.28146
G1 X104.268 Y63.086 E.28631
G1 X131.556 Y90.374 E1.28013
G1 X132.16 Y90.402 F7200
;TYPE:Outer wall
G1 F1800
G1 X125.481 Y97.081 E.31331
G1 X97.589 Y69.189 E1.30847
G1 X104.268 Y62.51 E.31331
G1 X132.132 Y90.374 E1.30714
G1 E-.84
;WIPE_START
G1 X131.428 Y91.084 E-.36
;WIPE_END
G1 Z.6 F7200
G1 X131.221 Y90.536
G1 Z.6
G1 Z.2
G1 E1.2 F1800
;TYPE:Bottom surface
;WIDTH:0.460223
G1 F3600
G1 X104.265 Y63.579 E1.29634
G1 X103.969 Y63.874 E.01419
G1 X130.796 Y90.701 E1.29011
G1 X130.501 Y90.996 E.01419
M73 P1 R46
G1 X103.674 Y64.169 E1.29011
G1 X103.379 Y64.464 E.01419
G1 X130.206 Y91.291 E1.29011
G1 X129.911 Y91.586 E.01419
G1 X103.084 Y64.759 E1.29011
G1 X102.789 Y65.055 E.01419
G1 X129.616 Y91.881 E1.29011
G1 X129.321 Y92.177 E.01419
G1 X102.494 Y65.35 E1.29011
G1 X102.199 Y65.645 E.01419
G1 X129.026 Y92.472 E1.29011
G1 X128.731 Y92.767 E.01419
G1 X101.904 Y65.94 E1.29011
G1 X101.609 Y66.235 E.01419
G1 X128.436 Y93.062 E1.29011
G1 X128.141 Y93.357 E.01419
G1 X101.314 Y66.53 E1.29011
G1 X101.019 Y66.825 E.01419
G1 X127.846 Y93.652 E1.29011
G1 X127.551 Y93.947 E.01419
G1 X100.724 Y67.12 E1.29011
G1 X100.429 Y67.415 E.01419
G1 X127.255 Y94.242 E1.29011
G1 X126.96 Y94.537 E.01419
G1 X100.133 Y67.71 E1.29011
G1 X99.838 Y68.005 E.01419
G1 X126.665 Y94.832 E1.29011
G1 X126.37 Y95.127 E.01419
G1 X99.543 Y68.3 E1.29011
G1 X99.248 Y68.595 E.01419
G1 X126.075 Y95.422 E1.29011
G1 X125.78 Y95.717 E.01419
G1 X98.953 Y68.891 E1.29011
G1 X98.658 Y69.186 E.01419
G1 X125.615 Y96.142 E1.29634
; stop printing object Object_13 id:0 copy 0
; printing object Object_8 id:1075838976 copy 0
G1 E-.84 F1800
;WIPE_START
G1 F3600
G1 X124.907 Y95.435 E-.36
;WIPE_END
G1 Z.6 F7200
G1 X140.295 Y101.937 Z.6
G1 Z.2
G1 E1.2 F1800
;TYPE:Inner wall
;WIDTH:0.449999
G1 X140.375 Y102.09 E.00573
G1 X140.614 Y102.262 E.00977
G1 X149.332 Y105.747 E.31146
G1 X142.417 Y123.047 E.61802
G1 X134.403 Y119.843 E.28631
G1 X137.918 Y111.05 E.31415
G1 X137.911 Y110.741 E.01023
G1 X137.786 Y110.503 E.00891
G1 X137.547 Y110.331 E.00977
G1 X128.829 Y106.846 E.31146
G1 X135.744 Y89.546 E.61802
G1 X143.758 Y92.749 E.28631
G1 X140.243 Y101.543 E.31415
G1 X140.25 Y101.852 E.01023
G1 X140.276 Y101.901 E.00186
G1 X140.653 Y101.775 F7200
;TYPE:Outer wall
G1 F1800
G1 X140.765 Y101.884 E.00517
G1 X149.862 Y105.52 E.32497
G1 X142.644 Y123.576 E.64503
G1 X133.874 Y120.07 E.31331
G1 X137.51 Y110.974 E.32497
G1 X137.508 Y110.818 E.00517
G1 X137.396 Y110.709 E.00517
G1 X128.3 Y107.073 E.32497
G1 X135.517 Y89.017 E.64503
G1 X144.287 Y92.523 E.31331
G1 X140.651 Y101.619 E.32497
G1 X140.653 Y101.735 E.00384
G1 E-.84
;WIPE_START
G1 X140.765 Y101.884 E-.06704
G1 X141.52 Y102.186 E-.29296
;WIPE_END
G1 Z.6 F7200
G1 X143.309 Y93.434 Z.6
G1 Z.2
G1 E1.2 F1800
;TYPE:Bottom surface
;WIDTH:0.45259
G1 F3600
G1 X142.491 Y92.615 E.03866
G1 X141.525 Y92.23 E.0347
G1 X143.003 Y93.707 E.06976
G1 X142.838 Y94.121 E.01488
G1 X140.56 Y91.844 E.10751
G1 X139.595 Y91.458 E.0347
G1 X142.672 Y94.535 E.14527
G1 X142.507 Y94.949 E.01488
G1 X138.63 Y91.072 E.18302
G1 X137.665 Y90.686 E.0347
G1 X142.341 Y95.363 E.22077
G1 X142.176 Y95.777 E.01488
G1 X136.7 Y90.301 E.25853
G1 X135.937 Y89.996 E.02743
G1 X135.902 Y90.082 E.00312
G1 X142.01 Y96.191 E.28837
G1 X141.845 Y96.605 E.01488
G1 X135.737 Y90.496 E.28837
G1 X135.571 Y90.91 E.01488
G1 X141.679 Y97.018 E.28837
G1 X141.514 Y97.432 E.01488
G1 X135.406 Y91.324 E.28837
G1 X135.24 Y91.738 E.01488
G1 X141.348 Y97.846 E.28837
G1 X141.183 Y98.26 E.01488
G1 X135.075 Y92.152 E.28837
G1 X134.909 Y92.566 E.01488
G1 X141.018 Y98.674 E.28837
G1 X140.852 Y99.088 E.01488
G1 X134.744 Y92.98 E.28837
G1 X134.579 Y93.394 E.01488
G1 X140.687 Y99.502 E.28837
G1 X140.521 Y99.916 E.01488
G1 X134.413 Y93.808 E.28837
G1 X134.248 Y94.222 E.01488
G1 X140.356 Y100.33 E.28837
G1 X140.19 Y100.744 E.01488
G1 X134.082 Y94.635 E.28837
G1 X133.917 Y95.049 E.01488
M73 P2 R46
G1 X140.166 Y101.299 E.29502
G1 E-.84 F1800
;WIPE_START
G1 F3600
G1 X139.459 Y100.591 E-.36
;WIPE_END
G1 Z.6 F7200
G1 X148.52 Y105.598 Z.6
G1 Z.2
G1 E1.2 F1800
G1 F3600
G1 X148.877 Y105.954 E.01683
G1 X148.711 Y106.368 E.01488
G1 X147.884 Y105.54 E.03907
G1 X146.919 Y105.155 E.0347
G1 X148.546 Y106.782 E.07682
G1 X148.381 Y107.196 E.01488
G1 X145.954 Y104.769 E.11458
G1 X144.989 Y104.383 E.0347
G1 X148.215 Y107.61 E.15233
G1 X148.05 Y108.024 E.01488
G1 X144.023 Y103.997 E.19008
G1 X143.058 Y103.612 E.0347
G1 X147.884 Y108.438 E.22784
G1 X147.719 Y108.851 E.01488
G1 X141.764 Y102.897 E.28111
G1 E-.84 F1800
;WIPE_START
G1 F3600
G1 X142.472 Y103.604 E-.36
;WIPE_END
G1 Z.6 F7200
G1 X147.694 Y109.406 Z.6
G1 Z.2
G1 E1.2 F1800
G1 F3600
G1 X141.128 Y102.84 E.31
G1 X140.48 Y102.581 E.0233
G1 X140.344 Y102.513 E.00508
G1 X140.213 Y102.418 E.00539
G1 X140.024 Y102.197 E.00972
G1 X139.916 Y101.945 E.00913
G1 X139.888 Y101.791 E.00523
G1 X139.897 Y101.609 E.0061
G1 X133.751 Y95.463 E.29014
G1 X133.586 Y95.877 E.01488
G1 X147.388 Y109.679 E.6516
G1 X147.222 Y110.093 E.01488
G1 X133.42 Y96.291 E.6516
G1 X133.255 Y96.705 E.01488
G1 X147.057 Y110.507 E.6516
G1 X146.892 Y110.921 E.01488
G1 X133.089 Y97.119 E.6516
G1 X132.924 Y97.533 E.01488
G1 X146.726 Y111.335 E.6516
G1 X146.561 Y111.749 E.01488
G1 X132.759 Y97.947 E.6516
G1 X132.593 Y98.361 E.01488
G1 X146.395 Y112.163 E.6516
G1 X146.23 Y112.577 E.01488
G1 X132.428 Y98.775 E.6516
G1 X132.262 Y99.189 E.01488
G1 X146.064 Y112.991 E.6516
G1 X145.899 Y113.404 E.01488
G1 X132.097 Y99.602 E.6516
G1 X131.931 Y100.016 E.01488
G1 X145.733 Y113.818 E.6516
G1 X145.568 Y114.232 E.01488
G1 X131.766 Y100.43 E.6516
G1 X131.6 Y100.844 E.01488
G1 X145.403 Y114.646 E.6516
G1 X145.237 Y115.06 E.01488
G1 X131.435 Y101.258 E.6516
G1 X131.27 Y101.672 E.01488
G1 X145.072 Y115.474 E.6516
G1 X144.906 Y115.888 E.01488
G1 X131.104 Y102.086 E.6516
G1 X130.939 Y102.5 E.01488
G1 X144.741 Y116.302 E.6516
G1 X144.575 Y116.716 E.01488
G1 X130.773 Y102.914 E.6516
G1 X130.608 Y103.328 E.01488
G1 X137.033 Y109.753 E.30334
G1 X137.682 Y110.012 E.02332
G1 X137.829 Y110.086 E.0055
G1 X138.051 Y110.278 E.0098
G1 X138.201 Y110.52 E.00952
G1 X138.274 Y110.796 E.00952
G1 X138.264 Y110.984 E.00628
G1 X144.41 Y117.13 E.29013
G1 X144.244 Y117.544 E.01488
G1 X138.136 Y111.435 E.28837
G1 X137.971 Y111.849 E.01488
G1 X144.079 Y117.958 E.28837
G1 X143.913 Y118.371 E.01488
G1 X137.805 Y112.263 E.28837
G1 X137.64 Y112.677 E.01488
G1 X143.748 Y118.785 E.28837
G1 X143.583 Y119.199 E.01488
G1 X137.474 Y113.091 E.28837
G1 X137.309 Y113.505 E.01488
G1 X143.417 Y119.613 E.28837
G1 X143.252 Y120.027 E.01488
G1 X137.144 Y113.919 E.28837
G1 X136.978 Y114.333 E.01488
G1 X143.086 Y120.441 E.28837
G1 X142.921 Y120.855 E.01488
G1 X136.813 Y114.747 E.28837
G1 X136.647 Y115.161 E.01488
G1 X142.755 Y121.269 E.28837
G1 X142.59 Y121.683 E.01488
G1 X136.482 Y115.575 E.28837
G1 X136.316 Y115.988 E.01488
G1 X142.424 Y122.097 E.28837
G1 X142.259 Y122.511 E.01488
G1 X136.151 Y116.402 E.28837
M73 P2 R45
G1 X135.985 Y116.816 E.01488
G1 X141.461 Y122.292 E.25852
G1 X140.496 Y121.906 E.0347
G1 X135.82 Y117.23 E.22077
G1 X135.654 Y117.644 E.01488
G1 X139.531 Y121.521 E.18301
G1 X138.566 Y121.135 E.0347
G1 X135.489 Y118.058 E.14526
G1 X135.324 Y118.472 E.01488
G1 X137.601 Y120.749 E.1075
G1 X136.636 Y120.363 E.0347
G1 X135.158 Y118.886 E.06975
G1 X134.993 Y119.3 E.01488
G1 X135.999 Y120.306 E.04751
G1 E-.84 F1800
;WIPE_START
G1 F3600
G1 X135.292 Y119.599 E-.36
;WIPE_END
G1 Z.6 F7200
G1 X136.396 Y109.696 Z.6
G1 Z.2
G1 E1.2 F1800
G1 F3600
G1 X130.442 Y103.742 E.2811
G1 X130.277 Y104.155 E.01488
G1 X135.103 Y108.981 E.22783
G1 X134.138 Y108.596 E.0347
G1 X130.111 Y104.569 E.19008
G1 X129.946 Y104.983 E.01488
G1 X133.172 Y108.21 E.15232
G1 X132.207 Y107.824 E.0347
G1 X129.781 Y105.397 E.11457
G1 X129.615 Y105.811 E.01488
G1 X131.242 Y107.438 E.07681
G1 X130.277 Y107.052 E.0347
G1 X129.45 Y106.225 E.03906
G1 X129.284 Y106.639 E.01488
G1 X129.64 Y106.995 E.01682
G1 E-.84 F1800
;WIPE_START
G1 F3600
G1 X129.284 Y106.639 E-.18138
G1 X129.45 Y106.225 E-.16047
G1 X129.485 Y106.261 E-.01814
;WIPE_END
G1 Z.6 F7200
G1 X141.337 Y92.143 Z.6
G1 Z.2
G1 E1.2 F1800
;TYPE:Gap infill
;WIDTH:0.10759
G1 X140.868 Y91.834 E.00296
; stop printing object Object_8 id:1075838976 copy 0
; printing object Object_12 id:0 copy 0
G1 E-.84
;WIPE_START
G1 X141.337 Y92.143 E-.36
;WIPE_END
G1 Z.6 F7200
G1 X118.308 Y107.832 Z.6
G1 Z.2
G1 E1.2 F1800
;TYPE:Inner wall
;WIDTH:0.449999
G1 X118.324 Y108.015 E.0061
G1 X118.472 Y108.254 E.00931
G1 X125.111 Y114.893 E.31146
G1 X119.008 Y120.996 E.28631
G1 X112.291 Y114.279 E.3151
G1 X112.023 Y114.184 E.00943
G1 X111.759 Y114.205 E.00879
G1 X111.505 Y114.357 E.00983
G1 X104.866 Y120.996 E.31146
G1 X98.763 Y114.893 E.28631
G1 X119.008 Y94.648 E.94974
G1 X125.111 Y100.751 E.28631
G1 X118.414 Y107.448 E.31416
G1 X118.299 Y107.736 E.01028
G1 X118.304 Y107.792 E.00188
G1 X118.7 Y107.823 F7200
;TYPE:Outer wall
G1 F1800
G1 X118.759 Y107.966 E.00514
G1 X125.687 Y114.893 E.32497
G1 X119.008 Y121.572 E.31331
G1 X112.081 Y114.645 E.32497
G1 X111.938 Y114.585 E.00514
G1 X111.793 Y114.645 E.00519
G1 X104.866 Y121.572 E.32497
G1 X98.187 Y114.893 E.31331
G1 X119.008 Y94.072 E.97675
M73 P3 R45
G1 X125.687 Y100.751 E.31331
G1 X118.759 Y107.678 E.32497
G1 X118.715 Y107.786 E.00387
G1 E-.84
;WIPE_START
G1 X118.759 Y107.966 E-.06676
G1 X119.335 Y108.542 E-.29324
;WIPE_END
G1 Z.6 F7200
G1 X118.877 Y95.009 Z.6
G1 Z.2
G1 E1.2 F1800
;TYPE:Bottom surface
;WIDTH:0.453732
G1 F3600
G1 X124.62 Y100.753 E.2719
G1 X124.33 Y101.043 E.01375
G1 X118.716 Y95.429 E.26577
G1 X118.426 Y95.72 E.01375
G1 X124.039 Y101.334 E.26577
G1 X123.749 Y101.624 E.01375
G1 X118.135 Y96.01 E.26577
G1 X117.845 Y96.301 E.01375
G1 X123.458 Y101.914 E.26577
G1 X123.168 Y102.205 E.01375
G1 X117.554 Y96.591 E.26577
G1 X117.264 Y96.882 E.01375
G1 X122.877 Y102.495 E.26577
G1 X122.587 Y102.786 E.01375
G1 X116.973 Y97.172 E.26577
G1 X116.683 Y97.463 E.01375
G1 X122.296 Y103.076 E.26577
G1 X122.006 Y103.367 E.01375
G1 X116.392 Y97.753 E.26577
G1 X116.102 Y98.044 E.01375
G1 X121.715 Y103.657 E.26577
G1 X121.425 Y103.948 E.01375
G1 X115.811 Y98.334 E.26577
G1 X115.521 Y98.625 E.01375
G1 X121.134 Y104.238 E.26577
G1 X120.844 Y104.529 E.01375
G1 X115.23 Y98.915 E.26577
G1 X114.94 Y99.206 E.01375
G1 X120.553 Y104.819 E.26577
G1 X120.263 Y105.11 E.01375
G1 X114.649 Y99.496 E.26577
G1 X114.359 Y99.787 E.01375
G1 X119.972 Y105.4 E.26577
G1 X119.682 Y105.691 E.01375
G1 X114.068 Y100.077 E.26577
G1 X113.778 Y100.368 E.01375
G1 X119.391 Y105.981 E.26577
G1 X119.101 Y106.272 E.01375
G1 X113.487 Y100.658 E.26577
G1 X113.197 Y100.949 E.01375
G1 X118.81 Y106.562 E.26577
G1 X118.52 Y106.853 E.01375
G1 X112.906 Y101.239 E.26577
G1 X112.616 Y101.53 E.01375
G1 X118.229 Y107.143 E.26577
G1 X118.12 Y107.272 E.00566
G1 X118.005 Y107.5 E.00854
G1 X112.325 Y101.82 E.26889
G1 X112.035 Y102.111 E.01375
G1 X117.985 Y108.061 E.2817
G1 X118.031 Y108.217 E.00545
G1 X118.145 Y108.407 E.00743
G1 X118.224 Y108.496 E.00396
G1 X124.622 Y114.893 E.30288
G1 X124.429 Y115.086 E.00911
G1 X111.744 Y102.401 E.60053
G1 X111.454 Y102.692 E.01375
G1 X124.139 Y115.376 E.60053
G1 X123.848 Y115.667 E.01375
G1 X111.163 Y102.982 E.60053
G1 X110.873 Y103.272 E.01375
G1 X123.558 Y115.957 E.60053
G1 X123.267 Y116.248 E.01375
G1 X110.582 Y103.563 E.60053
G1 X110.292 Y103.853 E.01375
G1 X122.977 Y116.538 E.60053
G1 X122.686 Y116.829 E.01375
G1 X110.001 Y104.144 E.60053
G1 X109.711 Y104.434 E.01375
G1 X122.396 Y117.119 E.60053
G1 X122.105 Y117.41 E.01375
G1 X109.42 Y104.725 E.60053
G1 X109.13 Y105.015 E.01375
G1 X121.815 Y117.7 E.60053
G1 X121.524 Y117.991 E.01375
G1 X108.839 Y105.306 E.60053
G1 X108.549 Y105.596 E.01375
G1 X121.234 Y118.281 E.60053
G1 X120.943 Y118.572 E.01375
G1 X108.258 Y105.887 E.60053
G1 X107.968 Y106.177 E.01375
G1 X120.653 Y118.862 E.60053
G1 X120.362 Y119.153 E.01375
G1 X107.677 Y106.468 E.60053
G1 X107.387 Y106.758 E.01375
G1 X120.072 Y119.443 E.60053
G1 X119.781 Y119.734 E.01375
G1 X107.096 Y107.049 E.60053
G1 X106.806 Y107.339 E.01375
G1 X119.491 Y120.024 E.60053
G1 X119.2 Y120.315 E.01375
G1 X106.515 Y107.63 E.60053
