; HEADER_BLOCK_START
; generated by OrcaSlicer 2.0.0 on 2024-06-02 at 20:42:26
; total layer number: 36
; filament_density: 1.24
; filament_diameter: 1.75
; max_z_height: 7.20
; HEADER_BLOCK_END

; THUMBNAIL_BLOCK_START

;
; THUMBNAIL_BLOCK_END

; THUMBNAIL_BLOCK_START

;
; THUMBNAIL_BLOCK_END

; external perimeters extrusion width = 0.45mm
; perimeters extrusion width = 0.45mm
; infill extrusion width = 0.45mm
; solid infill extrusion width = 0.45mm
; top infill extrusion width = 0.40mm

; EXECUTABLE_BLOCK_START
M73 P0 R104
M201 X5000 Y5000 Z500 E5000
M203 X500 Y500 Z30 E100
M204 P5000 R2500 T5000 ; sets acceleration (P, T) and retract acceleration (R), mm/sec^2
M205 X10.00 Y10.00 Z0.40 E5.00 ; sets the jerk limits, mm/sec
;TYPE:Custom
M220 S100 ;Reset Feedrate 
M221 S100 ;Reset Flowrate 
 
M140 S55 ;Set final bed temp 
G28 ;Home 
M420 S1; Enable mesh leveling 
G92 E0 ;Reset Extruder 
G1 Z2.0 F3000 ;Move Z Axis up 
M104 S220 ;Set final nozzle temp 
G1 X-2.1 Y20 Z0.28 F5000.0 ;Move to start position 
M190 S55 ;Wait for bed temp to stabilize 
M109 S220 ;Wait for nozzle temp to stabilize 
G1 X-2.1 Y145.0 Z0.28 F1500.0 E15 ;Draw the first line 
G1 X-2.4 Y145.0 Z0.28 F5000.0 ;Move to side a little 
G1 X-2.4 Y20 Z0.28 F1500.0 E30 ;Draw the second line 
G92 E0  ;Reset Extruder 
G1 E-1.0000 F1800 ;Retract a bit 
G1 Z2.0 F3000 ;Move Z Axis up 
G1 E0.0000 F1800
G90
G21
M83 ; use relative distances for extrusion
; filament start gcode
M106 S0
;LAYER_CHANGE
;Z:0.2
;HEIGHT:0.2
;BEFORE_LAYER_CHANGE
;0.2
G92 E0

G1 E-1.2 F1800
;_SET_FAN_SPEED_CHANGING_LAYER
M204 P300
M204 T300
G1 Z.4 F7200
G1 X78.912 Y78.827
G1 Z.4
G1 Z.2
G1 E1.2 F1800
;TYPE:Skirt
;WIDTH:0.45
G1 F3000
G1 X108.298 Y49.41 E1.37931
G1 X109.506 Y48.756 E.04555
G1 X110.874 Y48.869 E.04555
G1 X111.702 Y49.41 E.0328
G1 X161.2 Y98.907 E2.32203
G1 X162.438 Y100.2 E.05939
G1 X164.625 Y102.779 E.11216
G1 X166.655 Y105.609 E.11553
G1 X167.632 Y107.168 E.06103
G1 X169.237 Y110.119 E.11145
G1 X170.694 Y113.415 E.11951
G1 X171.802 Y116.609 E.11216
G1 X172.272 Y118.287 E.0578
G1 X173.02 Y121.788 E.11876
G1 X173.454 Y125.143 E.11221
G1 X173.577 Y126.978 E.06103
G1 X173.619 Y128.719 E.05775
G1 X173.498 Y132.099 E.11221
G1 X173.077 Y135.655 E.11876
G1 X172.765 Y137.367 E.05775
G1 X171.957 Y140.652 E.11221
G1 X171.409 Y142.408 E.06103
G1 X170.203 Y145.569 E.11221
G1 X169.443 Y147.245 E.06103
G1 X167.87 Y150.213 E.11145
G1 X166.899 Y151.803 E.06179
G1 X164.973 Y154.556 E.11145
G1 X163.814 Y156.014 E.06179
G1 X161.549 Y158.526 E.11221
G1 X160.235 Y159.814 E.06103
G1 X157.678 Y162.028 E.11221
G1 X156.216 Y163.145 E.06103
G1 X153.406 Y165.029 E.11221
G1 X151.818 Y165.958 E.06103
G1 X148.798 Y167.482 E.11221
G1 X147.108 Y168.208 E.06103
G1 X143.83 Y169.38 E.11548
G1 X140.466 Y170.278 E.11548
G1 X137.138 Y170.884 E.11221
G1 X135.311 Y171.102 E.06103
G1 X131.847 Y171.295 E.11511
G1 X88.066 Y171.294 E1.45228
G1 X84.689 Y171.102 E.11221
G1 X82.862 Y170.884 E.06103
G1 X79.534 Y170.278 E.11221
G1 X77.747 Y169.838 E.06103
G1 X74.521 Y168.828 E.11216
G1 X72.892 Y168.208 E.0578
G1 X69.633 Y166.728 E.11876
G1 X68.096 Y165.91 E.05775
G1 X65.212 Y164.143 E.11216
G1 X62.399 Y162.09 E.11553
G1 X59.693 Y159.746 E.11876
G1 X57.261 Y157.256 E.11548
G1 X56.123 Y155.938 E.05775
G1 X54.072 Y153.249 E.11216
G1 X52.153 Y150.254 E.118
G1 X50.514 Y147.155 E.11628
G1 X49.797 Y145.569 E.05775
G1 X48.591 Y142.408 E.11221
G1 X47.595 Y138.97 E.11876
G1 X47.216 Y137.271 E.05775
G1 X46.684 Y133.953 E.11145
G1 X46.409 Y130.46 E.11624
G1 X46.428 Y126.88 E.11876
G1 X46.546 Y125.143 E.05775
G1 X46.98 Y121.788 E.11221
G1 X47.728 Y118.287 E.11876
G1 X48.704 Y115.048 E.11221
G1 X49.306 Y113.415 E.05775
G1 X50.015 Y111.717 E.06103
G1 X51.507 Y108.681 E.11221
G1 X52.419 Y107.083 E.06103
G1 X54.273 Y104.254 E.11221
G1 X55.374 Y102.78 E.06103
G1 X57.561 Y100.201 E.11216
G1 X78.883 Y78.856 E1.00082
; printing object heart_puzzle_base.stl id:0 copy 0
G1 E-.84 F1800
;WIPE_START
G1 F3000
G1 X79.59 Y78.148 E-.36
;WIPE_END
G1 Z.6 F7200
G1 X110.583 Y79.042 Z.6
G1 Z.2
G1 E1.2 F1800
;TYPE:Inner wall
;WIDTH:0.449999
G1 X110.536 Y78.964 E.00302
G1 X103.897 Y72.325 E.31146
G1 X110 Y66.222 E.28631
G1 X123.174 Y79.396 E.61802
G1 X116.47 Y86.112 E.3148
G1 X116.362 Y86.378 E.00952
G1 X116.383 Y86.646 E.00891
G1 X116.535 Y86.899 E.00977
G1 X123.174 Y93.538 E.31146
G1 X117.071 Y99.641 E.28631
G1 X103.897 Y86.467 E.61802
G1 X110.601 Y79.751 E.3148
G1 X110.709 Y79.484 E.00952
G1 X110.688 Y79.216 E.00891
G1 X110.604 Y79.076 E.00543
G1 X110.248 Y79.252 F7200
;TYPE:Outer wall
G1 F1800
G1 X103.321 Y72.325 E.32497
G1 X110 Y65.646 E.31331
G1 X123.75 Y79.396 E.64503
G1 X116.823 Y86.323 E.32497
G1 X116.763 Y86.467 E.00517
G1 X116.823 Y86.611 E.00517
G1 X123.75 Y93.538 E.32497
G1 X117.071 Y100.217 E.31331
G1 X103.321 Y86.467 E.64503
G1 X110.248 Y79.54 E.32497
G1 X110.308 Y79.396 E.00517
G1 X110.264 Y79.289 E.00384
G1 E-.84
;WIPE_START
G1 X109.558 Y78.581 E-.36
;WIPE_END
G1 Z.6 F7200
G1 X122.814 Y79.526
G1 Z.6
G1 Z.2
G1 E1.2 F1800
;TYPE:Bottom surface
;WIDTH:0.45061
G1 F3600
G1 X110 Y66.711 E.60205
G1 X109.711 Y67 E.01354
G1 X122.396 Y79.684 E.59596
G1 X122.108 Y79.973 E.01354
G1 X109.423 Y67.288 E.59596
G1 X109.135 Y67.576 E.01354
G1 X121.82 Y80.261 E.59596
G1 X121.531 Y80.549 E.01354
G1 X108.847 Y67.864 E.59596
G1 X108.558 Y68.153 E.01354
G1 X121.243 Y80.838 E.59596
G1 X120.955 Y81.126 E.01354
G1 X108.27 Y68.441 E.59596
G1 X107.982 Y68.729 E.01354
G1 X120.667 Y81.414 E.59596
G1 X120.378 Y81.702 E.01354
G1 X107.694 Y69.018 E.59596
G1 X107.405 Y69.306 E.01354
G1 X120.09 Y81.991 E.59596
G1 X119.802 Y82.279 E.01354
G1 X107.117 Y69.594 E.59596
G1 X106.829 Y69.882 E.01354
G1 X119.513 Y82.567 E.59596
G1 X119.225 Y82.856 E.01354
G1 X106.54 Y70.171 E.59596
G1 X106.252 Y70.459 E.01354
G1 X118.937 Y83.144 E.59596
G1 X118.649 Y83.432 E.01354
G1 X105.964 Y70.747 E.59596
G1 X105.676 Y71.036 E.01354
G1 X118.36 Y83.72 E.59596
G1 X118.072 Y84.009 E.01354
G1 X105.387 Y71.324 E.59596
G1 X105.099 Y71.612 E.01354
G1 X117.784 Y84.297 E.59596
G1 X117.496 Y84.585 E.01354
G1 X104.811 Y71.9 E.59596
G1 X104.522 Y72.189 E.01354
G1 X117.207 Y84.873 E.59596
G1 X116.919 Y85.162 E.01354
G1 X111.047 Y79.29 E.27589
G1 X111.063 Y79.396 E.00357
G1 X111.021 Y79.672 E.00929
G1 X110.973 Y79.793 E.0043
G1 X116.631 Y85.45 E.26579
G1 X116.342 Y85.738 E.01354
G1 X110.729 Y80.125 E.26375
G1 X110.44 Y80.413 E.01354
G1 X116.104 Y86.076 E.26608
G1 X116.051 Y86.185 E.00401
G1 X116.008 Y86.467 E.00948
G1 X116.024 Y86.573 E.00358
G1 X110.152 Y80.701 E.27589
G1 X109.864 Y80.989 E.01354
G1 X122.549 Y93.674 E.59596
G1 X122.26 Y93.963 E.01354
G1 X109.576 Y81.278 E.59596
G1 X109.287 Y81.566 E.01354
G1 X121.972 Y94.251 E.59596
G1 X121.684 Y94.539 E.01354
G1 X108.999 Y81.854 E.59596
G1 X108.711 Y82.143 E.01354
G1 X121.395 Y94.827 E.59596
G1 X121.107 Y95.116 E.01354
G1 X108.422 Y82.431 E.59596
G1 X108.134 Y82.719 E.01354
G1 X120.819 Y95.404 E.59596
G1 X120.531 Y95.692 E.01354
G1 X107.846 Y83.007 E.59596
G1 X107.558 Y83.296 E.01354
G1 X120.242 Y95.98 E.59596
G1 X119.954 Y96.269 E.01354
M73 P0 R103
G1 X107.269 Y83.584 E.59596
G1 X106.981 Y83.872 E.01354
G1 X119.666 Y96.557 E.59596
G1 X119.378 Y96.845 E.01354
G1 X106.693 Y84.161 E.59596
G1 X106.404 Y84.449 E.01354
G1 X119.089 Y97.134 E.59596
G1 X118.801 Y97.422 E.01354
G1 X106.116 Y84.737 E.59596
G1 X105.828 Y85.025 E.01354
G1 X118.513 Y97.71 E.59596
G1 X118.224 Y97.998 E.01354
G1 X105.54 Y85.314 E.59596
G1 X105.251 Y85.602 E.01354
G1 X117.936 Y98.287 E.59596
G1 X117.648 Y98.575 E.01354
G1 X104.963 Y85.89 E.59596
G1 X104.675 Y86.178 E.01354
G1 X117.36 Y98.863 E.59596
G1 X117.071 Y99.152 E.01354
G1 X104.257 Y86.337 E.60205
G1 E-.84 F1800
;WIPE_START
G1 F3600
G1 X104.964 Y87.044 E-.36
;WIPE_END
G1 Z.6 F7200
G1 X122.777 Y93.648 Z.6
G1 Z.2
G1 E1.2 F1800
;TYPE:Gap infill
;WIDTH:0.13494
G1 X122.793 Y93.549 E.00075
;WIDTH:0.174255
G1 X116.234 Y86.967 E.09945
;WIDTH:0.190372
G1 X116.092 Y86.768 E.00294
G1 E-.95532
;WIPE_START
G1 X116.234 Y86.967 E-.24468
;WIPE_END
G1 Z.6 F7200
G1 X110.98 Y79.095 Z.6
G1 Z.2
G1 E1.2 F1800
;WIDTH:0.213966
G1 X110.821 Y78.877 E.00376
;WIDTH:0.174158
G1 X104.278 Y72.314 E.09911
;WIDTH:0.158976
G1 X104.295 Y72.215 E.00095
G1 E-1.09949
;WIPE_START
G1 X104.278 Y72.314 E-.10051
;WIPE_END
G1 Z.6 F7200
G1 X102.346 Y86.821 Z.6
G1 Z.2
G1 E1.2 F1800
;TYPE:Inner wall
;WIDTH:0.449999
G1 X102.393 Y86.899 E.00302
G1 X116.103 Y100.609 E.64318
G1 X110 Y106.712 E.28631
G1 X89.755 Y86.467 E.94974
G1 X102.929 Y73.293 E.61802
G1 X109.032 Y79.396 E.28631
G1 X102.335 Y86.092 E.31415
G1 X102.22 Y86.378 E.01023
G1 X102.241 Y86.646 E.00891
G1 X102.325 Y86.787 E.00543
G1 X102.681 Y86.611 F7200
;TYPE:Outer wall
G1 F1800
G1 X116.679 Y100.609 E.65668
G1 X110 Y107.288 E.31331
G1 X89.179 Y86.467 E.97675
G1 X102.929 Y72.717 E.64503
G1 X109.608 Y79.396 E.31331
G1 X102.681 Y86.323 E.32497
G1 X102.621 Y86.467 E.00517
G1 X102.665 Y86.574 E.00384
G1 E-.84
;WIPE_START
G1 X103.372 Y87.282 E-.36
;WIPE_END
G1 Z.6 F7200
G1 X108.672 Y79.526 Z.6
G1 Z.2
G1 E1.2 F1800
;TYPE:Bottom surface
;WIDTH:0.45061
G1 F3600
G1 X102.929 Y73.782 E.26983
G1 X102.64 Y74.071 E.01354
G1 X108.254 Y79.684 E.26375
G1 X107.966 Y79.973 E.01354
G1 X102.352 Y74.359 E.26375
G1 X102.064 Y74.647 E.01354
G1 X107.678 Y80.261 E.26375
G1 X107.389 Y80.549 E.01354
G1 X101.776 Y74.936 E.26375
G1 X101.487 Y75.224 E.01354
G1 X107.101 Y80.838 E.26375
G1 X106.813 Y81.126 E.01354
G1 X101.199 Y75.512 E.26375
G1 X100.911 Y75.8 E.01354
G1 X106.524 Y81.414 E.26375
G1 X106.236 Y81.702 E.01354
G1 X100.622 Y76.089 E.26375
G1 X100.334 Y76.377 E.01354
G1 X105.948 Y81.991 E.26375
G1 X105.66 Y82.279 E.01354
G1 X100.046 Y76.665 E.26375
G1 X99.758 Y76.954 E.01354
G1 X105.371 Y82.567 E.26375
M73 P1 R103
G1 X105.083 Y82.856 E.01354
G1 X99.469 Y77.242 E.26375
G1 X99.181 Y77.53 E.01354
G1 X104.795 Y83.144 E.26375
G1 X104.506 Y83.432 E.01354
G1 X98.893 Y77.818 E.26375
G1 X98.604 Y78.107 E.01354
G1 X104.218 Y83.72 E.26375
G1 X103.93 Y84.009 E.01354
G1 X98.316 Y78.395 E.26375
G1 X98.028 Y78.683 E.01354
G1 X103.642 Y84.297 E.26375
G1 X103.353 Y84.585 E.01354
G1 X97.74 Y78.971 E.26375
G1 X97.451 Y79.26 E.01354
G1 X103.065 Y84.873 E.26375
G1 X102.777 Y85.162 E.01354
G1 X97.163 Y79.548 E.26375
G1 X96.875 Y79.836 E.01354
G1 X102.489 Y85.45 E.26375
G1 X102.2 Y85.738 E.01354
G1 X96.587 Y80.125 E.26375
G1 X96.298 Y80.413 E.01354
G1 X101.956 Y86.071 E.26582
G1 X101.876 Y86.327 E.00893
G1 X101.876 Y86.568 E.00798
G1 X96.01 Y80.701 E.27562
G1 X95.722 Y80.989 E.01354
G1 X115.478 Y100.745 E.92818
G1 X115.189 Y101.034 E.01354
G1 X95.433 Y81.278 E.92818
G1 X95.145 Y81.566 E.01354
G1 X114.901 Y101.322 E.92818
G1 X114.613 Y101.61 E.01354
G1 X94.857 Y81.854 E.92818
G1 X94.569 Y82.143 E.01354
G1 X114.324 Y101.898 E.92818
G1 X114.036 Y102.187 E.01354
G1 X94.28 Y82.431 E.92818
G1 X93.992 Y82.719 E.01354
G1 X113.748 Y102.475 E.92818
G1 X113.46 Y102.763 E.01354
G1 X93.704 Y83.007 E.92818
G1 X93.415 Y83.296 E.01354
G1 X113.171 Y103.052 E.92818
G1 X112.883 Y103.34 E.01354
G1 X93.127 Y83.584 E.92818
G1 X92.839 Y83.872 E.01354
G1 X112.595 Y103.628 E.92818
G1 X112.306 Y103.916 E.01354
G1 X92.551 Y84.161 E.92818
G1 X92.262 Y84.449 E.01354
G1 X112.018 Y104.205 E.92818
G1 X111.73 Y104.493 E.01354
G1 X91.974 Y84.737 E.92818
G1 X91.686 Y85.025 E.01354
G1 X111.442 Y104.781 E.92818
G1 X111.153 Y105.07 E.01354
G1 X91.397 Y85.314 E.92818
G1 X91.109 Y85.602 E.01354
G1 X110.865 Y105.358 E.92818
G1 X110.577 Y105.646 E.01354
G1 X90.821 Y85.89 E.92818
G1 X90.533 Y86.178 E.01354
G1 X110.288 Y105.934 E.92818
G1 X110 Y106.223 E.01354
G1 X90.115 Y86.337 E.93426
G1 E-.84 F1800
;WIPE_START
G1 F3600
G1 X90.822 Y87.044 E-.36
;WIPE_END
G1 Z.6 F7200
G1 X115.705 Y100.719 Z.6
G1 Z.2
G1 E1.2 F1800
;TYPE:Gap infill
;WIDTH:0.13494
G1 X115.722 Y100.62 E.00075
;WIDTH:0.174184
G1 X102.1 Y86.977 E.20622
;WIDTH:0.207153
G1 X101.948 Y86.759 E.00356
G1 E-.93389
;WIPE_START
G1 X102.1 Y86.977 E-.26611
;WIPE_END
G1 Z.6 F7200
G1 X74.075 Y143.42 Z.6
G1 Z.2
G1 E1.2 F1800
;TYPE:Inner wall
;WIDTH:0.449999
G1 X74.119 Y143.478 E.00244
G1 X74.61 Y143.945 E.02245
G1 X75.312 Y144.577 E.03134
G1 X76.041 Y145.178 E.03134
G1 X76.795 Y145.747 E.03135
G1 X77.745 Y146.385 E.03795
G1 X78.761 Y146.985 E.03914
G1 X79.793 Y147.52 E.03857
G1 X80.838 Y147.99 E.03801
G1 X81.924 Y148.406 E.03858
G1 X82.431 Y148.569 E.01765
G1 X80.05 Y156.868 E.2864
G1 X79.326 Y156.64 E.02519
G1 X78.019 Y156.159 E.0462
G1 X76.736 Y155.617 E.0462
G1 X75.48 Y155.015 E.0462
G1 X74.254 Y154.353 E.0462
G1 X73.061 Y153.634 E.0462
G1 X71.904 Y152.859 E.0462
G1 X70.785 Y152.03 E.0462
G1 X69.706 Y151.149 E.0462
G1 X68.671 Y150.218 E.0462
G1 X67.68 Y149.238 E.0462
G1 X66.738 Y148.213 E.0462
G1 X65.845 Y147.144 E.0462
G1 X65.004 Y146.033 E.0462
G1 X64.217 Y144.884 E.0462
G1 X63.485 Y143.699 E.0462
G1 X62.81 Y142.481 E.0462
G1 X62.194 Y141.232 E.0462
G1 X61.638 Y139.955 E.0462
G1 X61.144 Y138.653 E.0462
G1 X60.711 Y137.329 E.0462
G1 X60.342 Y135.986 E.0462
G1 X60.038 Y134.626 E.0462
G1 X59.798 Y133.254 E.0462
G1 X59.623 Y131.873 E.0462
G1 X59.515 Y130.484 E.0462
G1 X59.472 Y129.092 E.0462
G1 X59.496 Y127.699 E.0462
G1 X59.586 Y126.309 E.0462
G1 X59.741 Y124.925 E.0462
G1 X59.963 Y123.55 E.0462
G1 X60.249 Y122.187 E.0462
G1 X60.44 Y121.452 E.02519
G1 X68.737 Y123.839 E.28638
G1 X68.612 Y124.33 E.0168
G1 X68.397 Y125.413 E.03663
G1 X68.238 Y126.522 E.03718
G1 X68.169 Y127.308 E.02617
G1 X68.127 Y128.02 E.02367
G1 X68.107 Y128.974 E.03164
G1 X68.129 Y129.927 E.03164
G1 X68.209 Y130.997 E.03556
G1 X68.353 Y132.108 E.03718
G1 X68.561 Y133.226 E.03772
G1 X68.822 Y134.304 E.03679
G1 X68.925 Y134.523 E.00803
G1 X69.126 Y134.698 E.00886
G1 X69.33 Y134.765 E.00712
G1 X69.574 Y134.75 E.00808
G1 X78.669 Y132.313 E.31234
G1 X79.013 Y133.208 E.03181
G1 X79.355 Y133.913 E.02598
G1 X79.748 Y134.59 E.02598
G1 X80.189 Y135.237 E.02598
G1 X80.766 Y135.946 E.03033
G1 X74.108 Y142.604 E.31234
G1 X73.995 Y142.76 E.00639
G1 X73.929 Y143.049 E.00981
G1 X73.995 Y143.312 E.00899
G1 X74.051 Y143.387 E.00314
G1 X74.4 Y143.183 F7200
;TYPE:Outer wall
G1 F1800
G1 X74.89 Y143.65 E.02245
G1 X75.575 Y144.266 E.03058
G1 X76.287 Y144.853 E.03059
G1 X77.022 Y145.409 E.03059
G1 X77.962 Y146.04 E.03756
G1 X78.945 Y146.622 E.0379
G1 X79.96 Y147.149 E.03792
G1 X80.995 Y147.614 E.03763
G1 X82.059 Y148.022 E.03782
G1 X82.931 Y148.302 E.03037
G1 X80.326 Y157.382 E.31335
G1 X79.194 Y157.025 E.03937
G1 X77.869 Y156.538 E.04684
G1 X76.568 Y155.988 E.04684
G1 X75.295 Y155.377 E.04684
G1 X74.052 Y154.707 E.04684
G1 X72.843 Y153.978 E.04684
G1 X71.67 Y153.192 E.04684
G1 X70.535 Y152.352 E.04684
G1 X69.441 Y151.458 E.04685
G1 X68.391 Y150.514 E.04684
G1 X67.387 Y149.521 E.04684
G1 X66.432 Y148.481 E.04685
G1 X65.526 Y147.397 E.04684
G1 X64.674 Y146.271 E.04684
G1 X63.876 Y145.106 E.04684
G1 X63.134 Y143.905 E.04684
G1 X62.45 Y142.669 E.04685
G1 X61.825 Y141.403 E.04684
G1 X61.261 Y140.108 E.04684
G1 X60.76 Y138.788 E.04684
G1 X60.321 Y137.446 E.04685
G1 X59.947 Y136.084 E.04684
G1 X59.638 Y134.706 E.04684
G1 X59.395 Y133.315 E.04684
G1 X59.218 Y131.914 E.04685
G1 X59.108 Y130.506 E.04684
G1 X59.065 Y129.095 E.04684
G1 X59.089 Y127.683 E.04684
G1 X59.18 Y126.273 E.04684
G1 X59.338 Y124.87 E.04685
G1 X59.562 Y123.476 E.04684
G1 X59.852 Y122.094 E.04684
G1 X60.151 Y120.945 E.03937
G1 X69.229 Y123.557 E.31334
G1 X69.012 Y124.409 E.02918
G1 X68.798 Y125.481 E.03626
G1 X68.643 Y126.569 E.03644
G1 X68.575 Y127.344 E.02581
G1 X68.534 Y128.034 E.02294
G1 X68.514 Y128.965 E.0309
G1 X68.535 Y129.897 E.03091
G1 X68.614 Y130.955 E.0352
G1 X68.756 Y132.045 E.03644
G1 X68.956 Y133.127 E.03651
G1 X69.218 Y134.208 E.0369
G1 X69.319 Y134.34 E.00551
G1 X69.468 Y134.357 E.00498
G1 X78.94 Y131.819 E.32529
G1 X79.101 Y132.331 E.0178
G1 X79.379 Y133.031 E.02499
G1 X79.708 Y133.709 E.02499
G1 X80.085 Y134.361 E.02499
G1 X80.509 Y134.984 E.02499
G1 X80.977 Y135.574 E.02499
G1 X81.33 Y135.958 E.01731
G1 X74.396 Y142.892 E.32529
G1 X74.336 Y143.04 E.0053
G1 X74.383 Y143.147 E.00387
G1 E-.84
;WIPE_START
G1 X74.89 Y143.65 E-.25698
G1 X75.103 Y143.841 E-.10302
;WIPE_END
G1 Z.6 F7200
G1 X67.772 Y123.73 Z.6
G1 Z.2
