; HEADER_BLOCK_START
; generated by OrcaSlicer 2.0.0 on 2024-06-02 at 20:36:19
; total layer number: 25
; filament_density: 1.24
; filament_diameter: 1.75
; max_z_height: 5.00
; HEADER_BLOCK_END

; THUMBNAIL_BLOCK_START

;
; THUMBNAIL_BLOCK_END

; THUMBNAIL_BLOCK_START

;
; THUMBNAIL_BLOCK_END

; external perimeters extrusion width = 0.45mm
; perimeters extrusion width = 0.45mm
; infill extrusion width = 0.45mm
; solid infill extrusion width = 0.45mm
; top infill extrusion width = 0.40mm

; external perimeters extrusion width = 0.45mm
; perimeters extrusion width = 0.45mm
; infill extrusion width = 0.45mm
; solid infill extrusion width = 0.45mm
; top infill extrusion width = 0.40mm

; external perimeters extrusion width = 0.45mm
; perimeters extrusion width = 0.45mm
; infill extrusion width = 0.45mm
; solid infill extrusion width = 0.45mm
; top infill extrusion width = 0.40mm

; external perimeters extrusion width = 0.45mm
; perimeters extrusion width = 0.45mm
; infill extrusion width = 0.45mm
; solid infill extrusion width = 0.45mm
; top infill extrusion width = 0.40mm

; external perimeters extrusion width = 0.45mm
; perimeters extrusion width = 0.45mm
; infill extrusion width = 0.45mm
; solid infill extrusion width = 0.45mm
; top infill extrusion width = 0.40mm

; external perimeters extrusion width = 0.45mm
; perimeters extrusion width = 0.45mm
; infill extrusion width = 0.45mm
; solid infill extrusion width = 0.45mm
; top infill extrusion width = 0.40mm

; external perimeters extrusion width = 0.45mm
; perimeters extrusion width = 0.45mm
; infill extrusion width = 0.45mm
; solid infill extrusion width = 0.45mm
; top infill extrusion width = 0.40mm

; external perimeters extrusion width = 0.45mm
; perimeters extrusion width = 0.45mm
; infill extrusion width = 0.45mm
; solid infill extrusion width = 0.45mm
; top infill extrusion width = 0.40mm

; external perimeters extrusion width = 0.45mm
; perimeters extrusion width = 0.45mm
; infill extrusion width = 0.45mm
; solid infill extrusion width = 0.45mm
; top infill extrusion width = 0.40mm

; EXECUTABLE_BLOCK_START
M73 P0 R51
M201 X5000 Y5000 Z500 E5000
M203 X500 Y500 Z30 E100
M204 P5000 R2500 T5000 ; sets acceleration (P, T) and retract acceleration (R), mm/sec^2
M205 X10.00 Y10.00 Z0.40 E5.00 ; sets the jerk limits, mm/sec
;TYPE:Custom
M220 S100 ;Reset Feedrate 
M221 S100 ;Reset Flowrate 
 
M140 S55 ;Set final bed temp 
G28 ;Home 
M420 S1; Enable mesh leveling 
G92 E0 ;Reset Extruder 
G1 Z2.0 F3000 ;Move Z Axis up 
M104 S220 ;Set final nozzle temp 
G1 X-2.1 Y20 Z0.28 F5000.0 ;Move to start position 
M190 S55 ;Wait for bed temp to stabilize 
M109 S220 ;Wait for nozzle temp to stabilize 
G1 X-2.1 Y145.0 Z0.28 F1500.0 E15 ;Draw the first line 
G1 X-2.4 Y145.0 Z0.28 F5000.0 ;Move to side a little 
G1 X-2.4 Y20 Z0.28 F1500.0 E30 ;Draw the second line 
G92 E0  ;Reset Extruder 
G1 E-1.0000 F1800 ;Retract a bit 
G1 Z2.0 F3000 ;Move Z Axis up 
G1 E0.0000 F1800
G90
G21
M83 ; use relative distances for extrusion
; filament start gcode
M106 S0
;LAYER_CHANGE
;Z:0.2
;HEIGHT:0.2
;BEFORE_LAYER_CHANGE
;0.2
G92 E0

G1 E-1.2 F1800
;_SET_FAN_SPEED_CHANGING_LAYER
M204 P300
M204 T300
G1 Z.4 F7200
G1 X81.149 Y80.571
G1 Z.4
G1 Z.2
G1 E1.2 F1800
;TYPE:Skirt
;WIDTH:0.45
G1 F3000
G1 X92.639 Y70.949 E.49713
G1 X93.586 Y70.462 E.03531
G1 X111.195 Y65.943 E.60304
G1 X113.015 Y66.201 E.06098
G1 X121.847 Y71.438 E.34063
G1 X135.328 Y82.52 E.57889
G1 X135.9 Y83.204 E.02957
G1 X157.418 Y121.652 E1.46154
G1 X157.64 Y123.459 E.06042
G1 X151.766 Y145.035 E.74174
G1 X151.238 Y146.007 E.03669
G1 X144.644 Y153.384 E.32824
G1 X142.851 Y154.187 E.06516
G1 X74.578 Y154.158 E2.26475
G1 X73.139 Y153.678 E.05032
G1 X65.216 Y147.749 E.32824
G1 X64.276 Y146.165 E.06111
G1 X62.261 Y132.167 E.46912
G1 X62.253 Y131.538 E.02084
G1 X63.465 Y121.455 E.3369
G1 X66.272 Y107.597 E.46902
G1 X66.52 Y106.918 E.02399
G1 X80.584 Y81.259 E.97062
G1 X81.124 Y80.602 E.02822
; printing object Object_16 id:506806141047 copy 0
G1 E-.84 F1800
;WIPE_START
G1 F3000
G1 X81.89 Y79.959 E-.36
;WIPE_END
G1 Z.6 F7200
G1 X127.136 Y106.637 Z.6
G1 Z.2
G1 E1.2 F1800
;TYPE:Inner wall
;WIDTH:0.449999
G1 X127.015 Y106.659 E.00406
G1 X126.762 Y106.844 E.01038
G1 X126.236 Y107.485 E.02751
G1 X125.751 Y107.986 E.02313
G1 X124.978 Y108.659 E.03401
G1 X124.438 Y109.046 E.02202
G1 X123.52 Y109.59 E.03541
G1 X120.177 Y101.657 E.28556
G1 X128.893 Y97.98 E.3138
G1 X129.112 Y97.768 E.01013
G1 X129.202 Y97.479 E.01004
G1 X129.155 Y97.212 E.00902
G1 X125.509 Y88.559 E.31146
G1 X133.462 Y85.207 E.28631
G1 X137 Y93.602 E.30218
G1 X137.414 Y94.649 E.03735
G1 X137.611 Y95.204 E.01953
G1 X137.881 Y96.094 E.03085
G1 X138.031 Y96.657 E.01934
G1 X138.246 Y97.636 E.03326
G1 X138.413 Y98.646 E.03394
G1 X138.483 Y99.233 E.01961
G1 X138.565 Y100.27 E.03449
G1 X138.592 Y101.656 E.04599
G1 X138.547 Y102.657 E.03326
G1 X138.448 Y103.671 E.0338
G1 X138.314 Y104.565 E.02999
G1 X138.204 Y105.16 E.02006
G1 X137.996 Y106.058 E.03059
G1 X137.844 Y106.629 E.0196
G1 X137.542 Y107.585 E.03326
G1 X137.184 Y108.54 E.0338
G1 X136.78 Y109.468 E.03359
G1 X136.537 Y109.966 E.01837
G1 X136.066 Y110.846 E.03312
G1 X135.563 Y111.682 E.03235
G1 X135.075 Y112.4 E.02883
G1 X127.531 Y106.693 E.31379
G1 X127.236 Y106.618 E.01008
G1 X127.175 Y106.629 E.00207
G1 X127.2 Y107.028 F7200
;TYPE:Outer wall
G1 F1800
G1 X127.079 Y107.1 E.00467
G1 X126.603 Y107.688 E.02509
G1 X126.106 Y108.216 E.02406
G1 X125.285 Y108.939 E.03628
G1 X124.7 Y109.364 E.024
G1 X123.777 Y109.911 E.03558
G1 X123.308 Y110.135 E.01725
G1 X119.644 Y101.44 E.31298
G1 X128.671 Y97.636 E.32497
G1 X128.779 Y97.53 E.005
G1 X128.78 Y97.37 E.00533
G1 X124.976 Y88.342 E.32497
G1 X133.679 Y84.674 E.31331
G1 X137.357 Y93.4 E.31412
G1 X137.864 Y94.692 E.04603
G1 X138.114 Y95.462 E.02685
G1 X138.322 Y96.158 E.02411
G1 X138.448 Y96.655 E.017
G1 X138.667 Y97.688 E.03503
G1 X138.829 Y98.69 E.03364
G1 X138.889 Y99.198 E.01699
G1 X138.972 Y100.256 E.03519
G1 X139.008 Y101.478 E.04055
G1 X138.953 Y102.686 E.04012
G1 X138.853 Y103.721 E.03451
G1 X138.699 Y104.741 E.03421
G1 X138.603 Y105.244 E.01699
G1 X138.369 Y106.251 E.03426
G1 X138.234 Y106.744 E.01699
G1 X137.927 Y107.718 E.03387
G1 X137.562 Y108.692 E.03451
G1 X137.15 Y109.638 E.03421
G1 X136.923 Y110.108 E.01733
G1 X136.443 Y111.01 E.03387
G1 X135.917 Y111.885 E.03387
G1 X135.631 Y112.322 E.01733
G1 X135.163 Y112.978 E.02673
G1 X127.36 Y107.066 E.32473
G1 X127.239 Y107.037 E.00414
G1 E-.84
;WIPE_START
G1 X127.079 Y107.1 E-.0618
G1 X126.603 Y107.688 E-.27226
G1 X126.554 Y107.741 E-.02594
;WIPE_END
G1 Z.6 F7200
G1 X132.787 Y85.669
G1 Z.6
G1 Z.2
G1 E1.2 F1800
;TYPE:Bottom surface
;WIDTH:0.454863
G1 F3600
G1 X133.641 Y86.523 E.04054
G1 X134.065 Y87.53 E.03668
G1 X132.517 Y85.981 E.0735
G1 X132.107 Y86.154 E.01493
G1 X134.49 Y88.536 E.1131
G1 X134.914 Y89.543 E.03668
G1 X131.697 Y86.327 E.1527
G1 X131.288 Y86.499 E.01493
G1 X135.338 Y90.55 E.1923
G1 X135.763 Y91.557 E.03668
G1 X130.878 Y86.672 E.2319
G1 X130.468 Y86.845 E.01493
G1 X136.187 Y92.564 E.2715
G1 X136.611 Y93.571 E.03668
G1 X130.058 Y87.017 E.3111
G1 X129.648 Y87.19 E.01493
G1 X137 Y94.542 E.349
G1 X137.124 Y94.857 E.01137
G1 X137.323 Y95.448 E.02094
G1 X129.238 Y87.363 E.38382
M73 P0 R50
G1 X128.828 Y87.536 E.01493
G1 X137.576 Y96.283 E.41527
G1 X137.764 Y97.054 E.02662
G1 X128.419 Y87.708 E.44365
G1 X128.009 Y87.881 E.01493
G1 X137.922 Y97.794 E.47059
G1 X138.037 Y98.492 E.02376
G1 X127.599 Y88.054 E.49554
G1 X127.189 Y88.226 E.01493
G1 X138.13 Y99.168 E.5194
M73 P1 R50
G1 X138.185 Y99.805 E.02148
G1 X126.779 Y88.399 E.54147
G1 X126.369 Y88.572 E.01493
G1 X138.224 Y100.427 E.56279
G1 X138.245 Y101.03 E.02025
G1 X125.965 Y88.75 E.58296
G1 X126.389 Y89.757 E.03668
G1 X138.246 Y101.614 E.5629
G1 X138.223 Y102.173 E.01877
G1 X126.813 Y90.764 E.54163
G1 X127.238 Y91.771 E.03668
G1 X138.193 Y102.726 E.52007
G1 X138.141 Y103.257 E.01791
G1 X127.662 Y92.777 E.49748
G1 X128.086 Y93.784 E.03668
G1 X138.082 Y103.78 E.47454
G1 X138.006 Y104.287 E.01719
G1 X128.51 Y94.791 E.45077
G1 X128.935 Y95.798 E.03668
G1 X137.924 Y104.787 E.42672
G1 X137.824 Y105.27 E.01655
G1 X129.359 Y96.805 E.40185
G1 X129.477 Y97.084 E.01018
G1 X129.534 Y97.275 E.0067
G1 X129.549 Y97.499 E.00753
G1 X129.535 Y97.564 E.00222
G1 X137.714 Y105.743 E.38826
G1 X137.6 Y106.211 E.01617
G1 X129.377 Y97.988 E.39035
G1 X129.223 Y98.17 E.00801
G1 X129.071 Y98.265 E.006
G1 X137.47 Y106.664 E.3987
G1 X137.33 Y107.106 E.01558
G1 X128.676 Y98.452 E.41086
G1 X128.266 Y98.624 E.01493
G1 X137.187 Y107.546 E.42352
G1 X137.028 Y107.97 E.01519
G1 X127.856 Y98.797 E.43544
G1 X127.446 Y98.97 E.01493
G1 X136.87 Y108.394 E.44737
G1 X136.694 Y108.8 E.01487
G1 X127.036 Y99.142 E.45847
G1 X126.626 Y99.315 E.01493
G1 X136.517 Y109.206 E.46954
G1 X136.466 Y109.324 E.00431
G1 X136.331 Y109.602 E.01039
G1 X126.216 Y99.488 E.48016
G1 X125.806 Y99.661 E.01493
G1 X136.134 Y109.988 E.49026
G1 X135.931 Y110.368 E.01446
G1 X125.397 Y99.833 E.50011
G1 X124.987 Y100.006 E.01493
G1 X135.724 Y110.743 E.50973
G1 X135.505 Y111.107 E.01425
G1 X124.577 Y100.179 E.51881
G1 X124.167 Y100.351 E.01493
G1 X135.287 Y111.471 E.52788
G1 X135.054 Y111.821 E.0141
G1 X123.757 Y100.524 E.53627
G1 X123.347 Y100.697 E.01493
G1 X133.185 Y110.535 E.46702
G1 X130.781 Y108.713 E.10124
G1 X122.937 Y100.87 E.37236
G1 X122.528 Y101.042 E.01493
G1 X128.377 Y106.892 E.2777
G1 X127.806 Y106.459 E.02406
G1 X127.564 Y106.328 E.00922
G1 X127.404 Y106.286 E.00557
G1 X127.18 Y106.277 E.00753
G1 X122.118 Y101.215 E.24031
G1 X121.708 Y101.388 E.01493
G1 X126.734 Y106.414 E.23862
G1 X126.609 Y106.506 E.00522
G1 X126.436 Y106.698 E.00868
G1 X121.298 Y101.561 E.24389
G1 X120.888 Y101.733 E.01493
G1 X126.175 Y107.02 E.25098
G1 X125.904 Y107.332 E.01386
G1 X120.787 Y102.215 E.24292
G1 X121.211 Y103.222 E.03668
G1 X125.622 Y107.632 E.20936
G1 X125.316 Y107.908 E.01385
G1 X121.636 Y104.229 E.1747
G1 X122.06 Y105.235 E.03668
G1 X125.006 Y108.181 E.13985
G1 X124.686 Y108.444 E.0139
G1 X122.484 Y106.242 E.1045
G1 X122.909 Y107.249 E.03668
G1 X124.348 Y108.689 E.06834
G1 X123.988 Y108.911 E.01421
G1 X122.989 Y107.912 E.0474
G1 E-.84 F1800
;WIPE_START
G1 F3600
G1 X123.696 Y108.62 E-.36
;WIPE_END
G1 Z.6 F7200
G1 X130.066 Y108.322 Z.6
G1 Z.2
G1 E1.2 F1800
;TYPE:Gap infill
;WIDTH:0.112675
G1 X129.814 Y108.102 E.0019
;WIDTH:0.154487
G1 X129.562 Y107.882 E.00304
;WIDTH:0.196299
G1 X129.31 Y107.663 E.00418
;WIDTH:0.23811
G1 X129.058 Y107.443 E.00532
;WIDTH:0.279922
G1 X128.806 Y107.223 E.00646
;WIDTH:0.300828
G1 X128.553 Y107.003 E.00703
G1 E-.86556
;WIPE_START
G1 X128.806 Y107.223 E-.33444
;WIPE_END
G1 Z.6 F7200
G1 X123.761 Y109.211 Z.6
G1 Z.2
G1 E1.2 F1800
;WIDTH:0.298903
G1 X123.676 Y109.084 E.00318
;WIDTH:0.252873
G1 X123.591 Y108.957 E.00261
;WIDTH:0.206844
G1 X123.506 Y108.831 E.00204
;WIDTH:0.160814
G1 X123.42 Y108.704 E.00147
;WIDTH:0.1378
G1 X123.335 Y108.577 E.00118
G1 X123.08 Y107.822 F7200
;WIDTH:0.152857
G1 F1800
G1 X122.995 Y107.696 E.00136
;WIDTH:0.132495
G1 X122.911 Y107.571 E.00111
G1 X122.396 Y106.053 F7200
;WIDTH:0.246699
G1 F1800
G1 X122.313 Y105.929 E.00248
;WIDTH:0.202433
G1 X122.229 Y105.805 E.00194
;WIDTH:0.158168
G1 X122.146 Y105.681 E.0014
;WIDTH:0.136035
G1 X122.062 Y105.557 E.00113
G1 X121.548 Y104.04 F7200
;WIDTH:0.246699
G1 F1800
G1 X121.464 Y103.915 E.00248
;WIDTH:0.202433
G1 X121.381 Y103.791 E.00194
;WIDTH:0.158168
G1 X121.297 Y103.667 E.0014
;WIDTH:0.136035
G1 X121.214 Y103.543 E.00113
G1 E-1.05043
;WIPE_START
G1 X121.297 Y103.667 E-.14957
;WIPE_END
G1 Z.6 F7200
G1 X129.271 Y96.616 Z.6
G1 Z.2
G1 E1.2 F1800
;WIDTH:0.246699
G1 X129.187 Y96.492 E.00248
;WIDTH:0.202433
G1 X129.104 Y96.368 E.00194
;WIDTH:0.158168
G1 X129.02 Y96.244 E.0014
;WIDTH:0.136035
G1 X128.937 Y96.119 E.00113
G1 X128.422 Y94.602 F7200
;WIDTH:0.246699
G1 F1800
G1 X128.339 Y94.478 E.00248
;WIDTH:0.202433
G1 X128.255 Y94.354 E.00194
;WIDTH:0.158168
G1 X128.172 Y94.23 E.0014
;WIDTH:0.136035
G1 X128.088 Y94.106 E.00113
G1 X127.574 Y92.588 F7200
;WIDTH:0.246699
G1 F1800
G1 X127.49 Y92.464 E.00248
;WIDTH:0.202433
G1 X127.407 Y92.34 E.00194
;WIDTH:0.158168
G1 X127.323 Y92.216 E.0014
;WIDTH:0.136035
G1 X127.24 Y92.092 E.00113
G1 X126.725 Y90.575 F7200
;WIDTH:0.246698
G1 F1800
G1 X126.642 Y90.451 E.00248
;WIDTH:0.202433
G1 X126.558 Y90.326 E.00194
;WIDTH:0.158168
G1 X126.475 Y90.202 E.0014
;WIDTH:0.136035
G1 X126.391 Y90.078 E.00113
G1 E-1.05043
;WIPE_START
G1 X126.475 Y90.202 E-.14957
;WIPE_END
G1 Z.6 F7200
G1 X133.639 Y86.201 Z.6
G1 Z.2
G1 E1.2 F1800
;WIDTH:0.115749
G1 X133.55 Y86.069 E.00094
;WIDTH:0.163708
G1 X133.461 Y85.937 E.00157
;WIDTH:0.211667
G1 X133.372 Y85.805 E.00219
;WIDTH:0.259625
G1 X133.284 Y85.673 E.00281
;WIDTH:0.283605
G1 X133.195 Y85.541 E.00312
G1 E-1.04087
;WIPE_START
G1 X133.284 Y85.673 E-.15913
;WIPE_END
G1 Z.6 F7200
G1 X134.488 Y88.215 Z.6
G1 Z.2
G1 E1.2 F1800
;WIDTH:0.113903
G1 X134.404 Y88.091 E.00087
;WIDTH:0.158168
G1 X134.321 Y87.967 E.0014
;WIDTH:0.202433
G1 X134.237 Y87.843 E.00194
;WIDTH:0.224565
G1 X134.154 Y87.718 E.00221
G1 E-1.05043
;WIPE_START
G1 X134.237 Y87.843 E-.14957
;WIPE_END
G1 Z.6 F7200
G1 X135.336 Y90.229 Z.6
G1 Z.2
G1 E1.2 F1800
;WIDTH:0.113903
G1 X135.253 Y90.105 E.00087
;WIDTH:0.158168
G1 X135.169 Y89.98 E.0014
;WIDTH:0.202433
G1 X135.086 Y89.856 E.00194
;WIDTH:0.224566
G1 X135.002 Y89.732 E.00221
G1 E-1.05043
;WIPE_START
G1 X135.086 Y89.856 E-.14957
;WIPE_END
G1 Z.6 F7200
G1 X136.185 Y92.242 Z.6
G1 Z.2
G1 E1.2 F1800
;WIDTH:0.113903
G1 X136.101 Y92.118 E.00087
;WIDTH:0.158168
G1 X136.018 Y91.994 E.0014
;WIDTH:0.202433
G1 X135.934 Y91.87 E.00194
;WIDTH:0.224565
G1 X135.851 Y91.746 E.00221
G1 E-1.05043
;WIPE_START
G1 X135.934 Y91.87 E-.14957
;WIPE_END
G1 Z.6 F7200
G1 X134.874 Y111.965 Z.6
G1 Z.2
G1 E1.2 F1800
;WIDTH:0.112675
G1 X134.622 Y111.745 E.0019
;WIDTH:0.154487
G1 X134.37 Y111.525 E.00304
;WIDTH:0.196299
G1 X134.118 Y111.305 E.00418
;WIDTH:0.238111
G1 X133.866 Y111.086 E.00532
;WIDTH:0.279922
G1 X133.613 Y110.866 E.00646
;WIDTH:0.300828
G1 X133.361 Y110.646 E.00703
; stop printing object Object_16 id:506806141047 copy 0
; printing object Object_10 id:34870839484342 copy 0
G1 E-.86556
;WIPE_START
G1 X133.613 Y110.866 E-.33444
;WIPE_END
G1 Z.6 F7200
G1 X119.469 Y73.53 Z.6
G1 Z.2
G1 E1.2 F1800
;TYPE:Inner wall
;WIDTH:0.449999
G1 X119.238 Y73.952 E.01596
G1 X118.77 Y74.92 E.03568
G1 X118.543 Y75.441 E.01885
G1 X118.154 Y76.444 E.03568
G1 X117.805 Y77.504 E.03701
G1 X117.52 Y78.561 E.03634
G1 X117.296 Y79.601 E.03527
G1 X117.12 Y80.696 E.03678
G1 X117.046 Y81.34 E.02151
G1 X116.967 Y82.351 E.03364
G1 X116.938 Y83.438 E.03607
G1 X116.946 Y83.994 E.01845
G1 X116.976 Y84.555 E.01862
G1 X117.042 Y85.434 E.02925
G1 X117.12 Y86.169 E.02453
G1 X117.199 Y86.706 E.01798
G1 X117.291 Y87.198 E.01661
G1 X117.465 Y88.047 E.02875
G1 X117.684 Y88.931 E.03021
G1 X118.155 Y90.418 E.05173
G1 X118.549 Y91.434 E.03616
G1 X119 Y92.432 E.03634
G1 X119.469 Y93.33 E.0336
G1 X112.03 Y97.713 E.28641
G1 X111.72 Y97.157 E.02111
G1 X111.148 Y96.019 E.04223
G1 X110.884 Y95.449 E.02083
G1 X110.388 Y94.277 E.04223
G1 X109.943 Y93.084 E.04223
G1 X109.738 Y92.477 E.02126
G1 X109.375 Y91.27 E.04181
G1 X109.062 Y90.039 E.04212
G1 X108.8 Y88.784 E.04255
G1 X108.597 Y87.54 E.0418
G1 X108.447 Y86.286 E.0419
G1 X108.35 Y85.017 E.04223
G1 X108.309 Y83.744 E.04223
G1 X108.309 Y83.103 E.02126
G1 X108.35 Y81.844 E.04181
G1 X108.446 Y80.577 E.04212
G1 X108.596 Y79.326 E.04181
G1 X108.693 Y78.692 E.02126
G1 X108.926 Y77.441 E.04223
G1 X109.212 Y76.204 E.04212
G1 X109.549 Y74.989 E.04181
G1 X109.741 Y74.374 E.02138
G1 X109.942 Y73.776 E.02094
G1 X110.383 Y72.595 E.04181
G1 X110.884 Y71.411 E.04266
G1 X111.148 Y70.841 E.02083
G1 X111.72 Y69.703 E.04223
G1 X112.03 Y69.148 E.02111
G1 X119.435 Y73.51 E.28509
G1 X120.016 Y73.38 F7200
;TYPE:Outer wall
G1 F1800
G1 X119.604 Y74.129 E.02836
G1 X119.14 Y75.09 E.0354
G1 X118.923 Y75.589 E.01805
G1 X118.536 Y76.584 E.0354
G1 X118.351 Y77.123 E.01891
G1 X118.198 Y77.61 E.01695
G1 X117.918 Y78.644 E.03552
G1 X117.773 Y79.317 E.02284
G1 X117.524 Y80.744 E.04806
G1 X117.452 Y81.372 E.02097
