; HEADER_BLOCK_START
; generated by OrcaSlicer 2.0.0 on 2024-05-13 at 07:11:31
; total layer number: 30
; filament_density: 1.24
; filament_diameter: 1.75
; max_z_height: 6.00
; HEADER_BLOCK_END

; THUMBNAIL_BLOCK_START

;
; THUMBNAIL_BLOCK_END

; THUMBNAIL_BLOCK_START

;
; THUMBNAIL_BLOCK_END

; external perimeters extrusion width = 0.45mm
; perimeters extrusion width = 0.45mm
; infill extrusion width = 0.45mm
; solid infill extrusion width = 0.45mm
; top infill extrusion width = 0.40mm

; external perimeters extrusion width = 0.45mm
; perimeters extrusion width = 0.45mm
; infill extrusion width = 0.45mm
; solid infill extrusion width = 0.45mm
; top infill extrusion width = 0.40mm

; external perimeters extrusion width = 0.45mm
; perimeters extrusion width = 0.45mm
; infill extrusion width = 0.45mm
; solid infill extrusion width = 0.45mm
; top infill extrusion width = 0.40mm

; external perimeters extrusion width = 0.45mm
; perimeters extrusion width = 0.45mm
; infill extrusion width = 0.45mm
; solid infill extrusion width = 0.45mm
; top infill extrusion width = 0.40mm

; external perimeters extrusion width = 0.45mm
; perimeters extrusion width = 0.45mm
; infill extrusion width = 0.45mm
; solid infill extrusion width = 0.45mm
; top infill extrusion width = 0.40mm

; external perimeters extrusion width = 0.45mm
; perimeters extrusion width = 0.45mm
; infill extrusion width = 0.45mm
; solid infill extrusion width = 0.45mm
; top infill extrusion width = 0.40mm

; external perimeters extrusion width = 0.45mm
; perimeters extrusion width = 0.45mm
; infill extrusion width = 0.45mm
; solid infill extrusion width = 0.45mm
; top infill extrusion width = 0.40mm

; external perimeters extrusion width = 0.45mm
; perimeters extrusion width = 0.45mm
; infill extrusion width = 0.45mm
; solid infill extrusion width = 0.45mm
; top infill extrusion width = 0.40mm

; external perimeters extrusion width = 0.45mm
; perimeters extrusion width = 0.45mm
; infill extrusion width = 0.45mm
; solid infill extrusion width = 0.45mm
; top infill extrusion width = 0.40mm

; external perimeters extrusion width = 0.45mm
; perimeters extrusion width = 0.45mm
; infill extrusion width = 0.45mm
; solid infill extrusion width = 0.45mm
; top infill extrusion width = 0.40mm

; external perimeters extrusion width = 0.45mm
; perimeters extrusion width = 0.45mm
; infill extrusion width = 0.45mm
; solid infill extrusion width = 0.45mm
; top infill extrusion width = 0.40mm

; external perimeters extrusion width = 0.45mm
; perimeters extrusion width = 0.45mm
; infill extrusion width = 0.45mm
; solid infill extrusion width = 0.45mm
; top infill extrusion width = 0.40mm

; EXECUTABLE_BLOCK_START
M73 P0 R94
M201 X5000 Y5000 Z500 E5000
M203 X500 Y500 Z30 E100
M204 P5000 R2500 T5000 ; sets acceleration (P, T) and retract acceleration (R), mm/sec^2
M205 X10.00 Y10.00 Z0.40 E5.00 ; sets the jerk limits, mm/sec
;TYPE:Custom
M220 S100 ;Reset Feedrate 
M221 S100 ;Reset Flowrate 
 
M140 S55 ;Set final bed temp 
G28 ;Home 
M420 S1; Enable mesh leveling 
G92 E0 ;Reset Extruder 
G1 Z2.0 F3000 ;Move Z Axis up 
M104 S220 ;Set final nozzle temp 
G1 X-2.1 Y20 Z0.28 F5000.0 ;Move to start position 
M190 S55 ;Wait for bed temp to stabilize 
M109 S220 ;Wait for nozzle temp to stabilize 
G1 X-2.1 Y145.0 Z0.28 F1500.0 E15 ;Draw the first line 
G1 X-2.4 Y145.0 Z0.28 F5000.0 ;Move to side a little 
G1 X-2.4 Y20 Z0.28 F1500.0 E30 ;Draw the second line 
G92 E0  ;Reset Extruder 
G1 E-1.0000 F1800 ;Retract a bit 
G1 Z2.0 F3000 ;Move Z Axis up 
G1 E0.0000 F1800
G90
G21
M83 ; use relative distances for extrusion
; filament start gcode
M106 S0
;LAYER_CHANGE
;Z:0.2
;HEIGHT:0.2
;BEFORE_LAYER_CHANGE
;0.2
G92 E0

G1 E-1.2 F1800
;_SET_FAN_SPEED_CHANGING_LAYER
M204 P300
M204 T300
G1 Z.4 F7200
G1 X76.157 Y74.623
G1 Z.4
G1 Z.2
G1 E1.2 F1800
;TYPE:Skirt
;WIDTH:0.45
G1 F3000
G1 X81.397 Y69.275 E.24839
G1 X87.978 Y62.694 E.30871
G1 X89.056 Y62.071 E.04128
G1 X134.485 Y49.866 E1.5604
G1 X135.857 Y49.903 E.04555
G1 X137.291 Y51.174 E.06354
G1 X166.483 Y113.77 E2.29112
G1 X167.706 Y116.652 E.10387
G1 X168.797 Y119.622 E.10497
G1 X169.741 Y122.643 E.10497
G1 X170.534 Y125.706 E.10497
G1 X171.196 Y128.922 E.10891
G1 X171.678 Y132.049 E.10497
G1 X171.998 Y135.144 E.10322
G1 X172.17 Y138.236 E.1027
G1 X172.19 Y141.402 E.10503
G1 X172.054 Y144.563 E.10497
G1 X171.761 Y147.714 E.10497
G1 X171.294 Y150.964 E.10891
G1 X170.686 Y154.069 E.10497
G1 X169.926 Y157.141 E.10497
G1 X169.015 Y160.171 E.10497
G1 X167.973 Y163.103 E.10322
G1 X166.798 Y165.968 E.1027
G1 X165.454 Y168.834 E.10503
G1 X164.539 Y169.859 E.04555
G1 X163.278 Y170.217 E.0435
G1 X88.244 Y170.222 E2.48901
G1 X87.558 Y170.121 E.02301
G1 X69.572 Y164.742 E.62274
G1 X68.709 Y164.275 E.03253
G1 X52.993 Y151.013 E.68215
G1 X52.261 Y149.933 E.04328
G1 X47.957 Y136.991 E.45243
G1 X47.996 Y135.365 E.05395
G1 X66.705 Y86.866 E1.72436
G1 X67.849 Y84.355 E.09155
G1 X69.146 Y81.917 E.09158
G1 X69.55 Y81.366 E.02267
G1 X76.129 Y74.652 E.31183
; printing object Puzzle Piece 22.stl id:2073434240736 copy 0
G1 E-.84 F1800
;WIPE_START
G1 F3000
G1 X76.829 Y73.937 E-.36
;WIPE_END
G1 Z.6 F7200
G1 X101.752 Y82.679 Z.6
G1 Z.2
G1 E1.2 F1800
;TYPE:Inner wall
;WIDTH:0.449999
G1 X101.823 Y82.71 E.00257
G1 X104.078 Y83.255 E.07694
G1 X106.279 Y83.669 E.07428
G1 X107.91 Y83.888 E.05461
G1 X107.072 Y91.862 E.26596
G1 X105.051 Y91.592 E.06763
G1 X102.38 Y91.091 E.09015
G1 X99.825 Y90.475 E.08717
G1 X97.263 Y89.715 E.08866
G1 X94.743 Y88.823 E.08866
G1 X92.274 Y87.801 E.08866
G1 X89.86 Y86.652 E.08866
G1 X87.51 Y85.38 E.08866
G1 X85.769 Y84.318 E.06764
G1 X90.012 Y77.785 E.25842
G1 X90.667 Y76.74 E.04091
G1 X90.696 Y76.492 E.00828
G1 X90.604 Y76.219 E.00957
G1 X90.433 Y76.042 E.00816
G1 X88.586 Y74.78 E.0742
G1 X86.838 Y73.445 E.07296
G1 X85.162 Y72.021 E.07295
G1 X84.024 Y70.946 E.05193
G1 X89.696 Y65.274 E.26609
G1 X90.842 Y66.342 E.05195
G1 X92.543 Y67.732 E.07286
G1 X94.33 Y69.009 E.07286
G1 X96.213 Y70.177 E.07352
G1 X98.15 Y71.213 E.07286
G1 X100.132 Y72.113 E.07221
G1 X102.186 Y72.891 E.07287
G1 X103.684 Y73.35 E.05195
G1 X101.658 Y80.911 E.25964
G1 X101.356 Y82.104 E.04082
G1 X101.428 Y82.404 E.01024
G1 X101.626 Y82.623 E.00979
G1 X101.716 Y82.663 E.00327
G1 X101.919 Y82.315 F7200
;TYPE:Outer wall
G1 F1800
G1 X104.163 Y82.857 E.07659
G1 X106.343 Y83.267 E.07358
G1 X108.356 Y83.537 E.06738
G1 X107.433 Y92.321 E.29297
G1 X104.987 Y91.994 E.08188
G1 X102.295 Y91.489 E.09085
G1 X99.72 Y90.868 E.08787
G1 X97.137 Y90.102 E.08936
G1 X94.598 Y89.203 E.08936
G1 X92.108 Y88.173 E.08936
G1 X89.676 Y87.016 E.08936
G1 X87.306 Y85.733 E.08936
G1 X85.2 Y84.448 E.08188
G1 X90.259 Y76.657 E.30815
G1 X90.29 Y76.521 E.00461
G1 X90.203 Y76.378 E.00557
G1 X88.348 Y75.11 E.07455
G1 X86.582 Y73.762 E.07366
G1 X84.89 Y72.324 E.07366
G1 X83.44 Y70.955 E.06618
G1 X89.686 Y64.709 E.29302
G1 X91.11 Y66.035 E.06455
G1 X92.79 Y67.408 E.07199
G1 X94.556 Y68.67 E.07199
G1 X96.405 Y69.819 E.07221
G1 X98.319 Y70.842 E.07199
G1 X100.289 Y71.737 E.07177
G1 X102.318 Y72.506 E.07199
G1 X104.179 Y73.076 E.06455
G1 X101.77 Y82.064 E.30866
G1 X101.787 Y82.212 E.00495
G1 X101.887 Y82.29 E.0042
G1 E-.84
;WIPE_START
G1 X102.858 Y82.532 E-.36
;WIPE_END
G1 Z.6 F7200
G1 X103.31 Y74.115
G1 Z.6
G1 Z.2
G1 E1.2 F1800
;TYPE:Bottom surface
;WIDTH:0.452304
G1 F3600
G1 X102.563 Y73.368 E.03524
G1 X102.049 Y73.21 E.01794
G1 X101.69 Y73.073 E.01284
G1 X103.038 Y74.422 E.06363
G1 X102.916 Y74.878 E.01577
G1 X100.757 Y72.719 E.10188
G1 X99.802 Y72.344 E.0342
G1 X102.794 Y75.335 E.14112
G1 X102.671 Y75.792 E.01577
G1 X98.741 Y71.861 E.18545
G1 X97.98 Y71.515 E.02789
G1 X97.627 Y71.326 E.01334
G1 X102.549 Y76.248 E.23221
G1 X102.427 Y76.705 E.01577
G1 X96.382 Y70.66 E.28515
G1 X96.046 Y70.48 E.01274
G1 X94.932 Y69.789 E.04372
G1 X102.304 Y77.161 E.34779
G1 X102.182 Y77.618 E.01577
G1 X93.168 Y68.604 E.42528
G1 X92.354 Y68.022 E.03336
G1 X90.595 Y66.585 E.07578
G1 X90.226 Y66.241 E.01681
G1 X102.06 Y78.075 E.55827
G1 X101.937 Y78.531 E.01577
G1 X89.433 Y66.027 E.58993
G1 X89.143 Y66.316 E.01366
G1 X101.815 Y78.988 E.59782
G1 X101.693 Y79.444 E.01577
G1 X88.854 Y66.606 E.6057
G1 X88.564 Y66.895 E.01366
G1 X101.57 Y79.901 E.61359
G1 X101.448 Y80.358 E.01577
G1 X88.275 Y67.185 E.62147
G1 X87.985 Y67.474 E.01366
G1 X101.326 Y80.814 E.62936
G1 X101.203 Y81.271 E.01577
G1 X87.696 Y67.764 E.63724
G1 X87.406 Y68.053 E.01366
G1 X101.23 Y81.877 E.65218
G1 E-.84 F1800
;WIPE_START
G1 F3600
G1 X100.523 Y81.17 E-.36
;WIPE_END
G1 Z.6 F7200
G1 X106.719 Y83.892 Z.6
G1 Z.2
G1 E1.2 F1800
G1 F3600
G1 X107.482 Y84.654 E.03598
G1 X107.427 Y85.178 E.01757
G1 X106.263 Y84.015 E.05488
G1 X105.554 Y83.885 E.02405
G1 X107.372 Y85.702 E.08573
G1 X107.316 Y86.226 E.01757
G1 X104.841 Y83.751 E.11677
G1 X104.128 Y83.617 E.0242
G1 X107.261 Y86.75 E.14781
G1 X107.206 Y87.274 E.01757
G1 X103.372 Y83.44 E.18089
G1 X102.608 Y83.255 E.02621
G1 X107.151 Y87.798 E.21432
G1 X107.096 Y88.322 E.01757
G1 X101.845 Y83.07 E.24775
G1 X101.692 Y83.033 E.00523
G1 X101.536 Y82.972 E.00561
G1 X101.308 Y82.812 E.00929
G1 X101.202 Y82.692 E.00534
G1 X101.12 Y82.563 E.00509
G1 X101.031 Y82.321 E.0086
G1 X101.024 Y82.25 E.00239
G1 X87.117 Y68.342 E.65612
G1 X86.827 Y68.632 E.01366
G1 X107.041 Y88.846 E.95363
G1 X106.986 Y89.37 E.01757
G1 X86.538 Y68.921 E.96469
G1 X86.249 Y69.211 E.01366
G1 X106.931 Y89.893 E.97575
G1 X106.876 Y90.417 E.01757
G1 X85.959 Y69.5 E.98681
G1 X85.67 Y69.79 E.01366
G1 X106.821 Y90.941 E.99787
G1 X106.766 Y91.465 E.01757
G1 X85.38 Y70.079 E1.00893
G1 X85.091 Y70.369 E.01366
G1 X106.106 Y91.384 E.99144
G1 X105.437 Y91.295 E.02249
G1 X90.99 Y76.847 E.6816
G1 X90.958 Y76.946 E.00348
G1 X90.788 Y77.224 E.01086
G1 X104.747 Y91.183 E.65853
G1 X104.034 Y91.049 E.02419
G1 X90.56 Y77.575 E.63566
G1 X90.332 Y77.926 E.01396
G1 X103.321 Y90.916 E.61279
G1 X102.609 Y90.782 E.02419
G1 X90.104 Y78.277 E.58993
G1 X89.876 Y78.628 E.01396
G1 X101.857 Y90.609 E.56521
G1 X101.094 Y90.425 E.02618
G1 X89.649 Y78.979 E.53997
G1 X89.421 Y79.33 E.01396
G1 X100.331 Y90.241 E.51474
G1 X99.915 Y90.141 E.01428
G1 X99.541 Y90.03 E.01302
G1 X89.193 Y79.681 E.48821
G1 X88.965 Y80.032 E.01396
G1 X98.718 Y89.786 E.46012
G1 X97.894 Y89.541 E.02865
G1 X88.737 Y80.383 E.43204
G1 X88.509 Y80.735 E.01396
G1 X97.045 Y89.27 E.4027
G1 X96.148 Y88.953 E.03172
G1 X88.281 Y81.086 E.37117
G1 X88.053 Y81.437 E.01396
G1 X95.252 Y88.636 E.33963
G1 X94.867 Y88.499 E.01361
G1 X94.304 Y88.266 E.02035
G1 X87.825 Y81.788 E.30565
G1 X87.597 Y82.139 E.01396
G1 X93.316 Y87.858 E.26982
G1 X92.319 Y87.439 E.03609
G1 X87.369 Y82.49 E.23351
G1 X87.141 Y82.841 E.01396
G1 X91.214 Y86.914 E.19215
G1 X90.11 Y86.388 E.04081
G1 X86.913 Y83.192 E.1508
G1 X86.685 Y83.543 E.01396
G1 X88.861 Y85.718 E.10265
G1 X87.585 Y85.021 E.04852
G1 X86.325 Y83.761 E.05943
G1 E-.84 F1800
;WIPE_START
G1 F3600
G1 X87.032 Y84.468 E-.36
;WIPE_END
G1 Z.6 F7200
G1 X89.03 Y74.887 Z.6
G1 Z.2
G1 E1.2 F1800
G1 F3600
G1 X84.672 Y70.529 E.20562
G1 E-.84 F1800
;WIPE_START
G1 F3600
G1 X85.379 Y71.236 E-.36
;WIPE_END
G1 Z.6 F7200
G1 X94.752 Y69.687 Z.6
G1 Z.2
G1 E1.2 F1800
;TYPE:Gap infill
;WIDTH:0.2892
G1 X94.56 Y69.534 E.00493
;WIDTH:0.243126
G1 X94.367 Y69.381 E.00401
;WIDTH:0.196653
G1 X94.172 Y69.226 E.00313
;WIDTH:0.152824
G1 X93.974 Y69.058 E.00232
;WIDTH:0.132473
G1 X93.776 Y68.891 E.00189
G1 E-.94073
;WIPE_START
G1 X93.974 Y69.058 E-.25927
;WIPE_END
G1 Z.6 F7200
G1 X97.444 Y71.229 Z.6
G1 Z.2
G1 E1.2 F1800
;WIDTH:0.273175
G1 X97.309 Y71.13 E.00314
;WIDTH:0.232862
G1 X97.175 Y71.03 E.00259
;WIDTH:0.19255
G1 X97.04 Y70.93 E.00204
;WIDTH:0.152238
G1 X96.906 Y70.83 E.00149
;WIDTH:0.132082
G1 X96.772 Y70.731 E.00122
G1 E-1.03261
;WIPE_START
G1 X96.906 Y70.83 E-.16739
;WIPE_END
G1 Z.6 F7200
G1 X99.616 Y72.253 Z.6
G1 Z.2
G1 E1.2 F1800
;WIDTH:0.252611
G1 X99.481 Y72.16 E.0028
;WIDTH:0.206656
G1 X99.347 Y72.066 E.00219
;WIDTH:0.160702
G1 X99.212 Y71.973 E.00157
;WIDTH:0.137724
G1 X99.077 Y71.879 E.00127
G1 E-1.03596
;WIPE_START
G1 X99.212 Y71.973 E-.16404
;WIPE_END
G1 Z.6 F7200
G1 X97.626 Y89.599 Z.6
G1 Z.2
G1 E1.2 F1800
;WIDTH:0.236613
G1 X97.235 Y89.353 E.00729
G1 E-.84
;WIPE_START
G1 X97.626 Y89.599 E-.36
;WIPE_END
G1 Z.6 F7200
G1 X91.97 Y87.408 Z.6
G1 Z.2
G1 E1.2 F1800
;WIDTH:0.115331
G1 X91.827 Y87.308 E.00103
;WIDTH:0.162453
G1 X91.685 Y87.207 E.0017
;WIDTH:0.209575
G1 X91.542 Y87.106 E.00237
;WIDTH:0.233136
G1 X91.4 Y87.006 E.00271
G1 X89.729 Y86.326 F7200
;WIDTH:0.112068
G1 F1800
G1 X89.592 Y86.224 E.00096
;WIDTH:0.152663
G1 X89.455 Y86.122 E.00153
;WIDTH:0.193257
G1 X89.318 Y86.02 E.00209
;WIDTH:0.233852
G1 X89.181 Y85.918 E.00266
;WIDTH:0.254149
G1 X89.044 Y85.816 E.00294
G1 E-1.02916
;WIPE_START
G1 X89.181 Y85.918 E-.17084
;WIPE_END
G1 Z.6 F7200
G1 X87.127 Y84.883 Z.6
G1 Z.2
G1 E1.2 F1800
;WIDTH:0.112936
G1 X86.964 Y84.755 E.00119
;WIDTH:0.155269
G1 X86.8 Y84.626 E.00191
;WIDTH:0.197602
G1 X86.637 Y84.497 E.00262
;WIDTH:0.239935
G1 X86.473 Y84.369 E.00334
;WIDTH:0.282268
G1 X86.309 Y84.24 E.00406
;WIDTH:0.303434
G1 X86.146 Y84.111 E.00442
G1 E-.99191
;WIPE_START
G1 X86.309 Y84.24 E-.20809
;WIPE_END
G1 Z.6 F7200
G1 X89.612 Y75.211 Z.6
M73 P0 R93
G1 Z.2
G1 E1.2 F1800
;WIDTH:0.116636
G1 X89.365 Y75.005 E.00193
;WIDTH:0.141501
G1 X89.117 Y74.8 E.00258
G1 E-.87824
;WIPE_START
G1 X89.365 Y75.005 E-.32176
;WIPE_END
G1 Z.6 F7200
G1 X87.444 Y73.623 Z.6
G1 Z.2
G1 E1.2 F1800
;WIDTH:0.110442
G1 X87.224 Y73.431 E.00161
;WIDTH:0.147788
G1 X87.004 Y73.238 E.0025
;WIDTH:0.188603
G1 X86.603 Y72.868 E.00648
;WIDTH:0.232886
G1 X86.201 Y72.498 E.00846
;WIDTH:0.27717
G1 X85.8 Y72.128 E.01043
;WIDTH:0.321453
G1 X85.398 Y71.757 E.0124
;WIDTH:0.343594
G1 X84.436 Y70.822 E.03288
; stop printing object Puzzle Piece 22.stl id:2073434240736 copy 0
; printing object Puzzle Piece 13.stl id:176093659165 copy 0
G1 E-.84
;WIPE_START
G1 X85.153 Y71.519 E-.36
;WIPE_END
G1 Z.6 F7200
G1 X117.005 Y81.422 Z.6
G1 Z.2
G1 E1.2 F1800
;TYPE:Inner wall
;WIDTH:0.449999
M73 P1 R93
G1 X109.68 Y78.16 E.266
G1 X110.658 Y76.13 E.07476
G1 X112.055 Y73.603 E.09578
G1 X113.592 Y71.158 E.09578
G1 X115.263 Y68.804 E.09577
G1 X117.096 Y66.51 E.0974
G1 X118.988 Y64.393 E.09418
G1 X121.029 Y62.351 E.09578
G1 X123.182 Y60.427 E.09578
G1 X125.44 Y58.627 E.09579
G1 X127.794 Y56.955 E.09578
G1 X130.239 Y55.419 E.09578
G1 X132.766 Y54.022 E.09578
G1 X134.797 Y53.043 E.07476
G1 X138.058 Y60.369 E.266
G1 X136.252 Y61.245 E.06658
G1 X133.938 Y62.549 E.08812
G1 X131.722 Y63.98 E.0875
G1 X130.234 Y65.073 E.06124
G1 X129.597 Y65.543 E.02626
G1 X127.571 Y67.232 E.0875
G1 X125.663 Y69.027 E.0869
G1 X123.827 Y70.981 E.08894
G1 X122.167 Y72.975 E.08606
G1 X120.605 Y75.101 E.0875
G1 X119.175 Y77.317 E.0875
G1 X117.882 Y79.616 E.0875
G1 X117.023 Y81.386 E.06525
G1 X117.2 Y81.954 F7200
;TYPE:Outer wall
G1 F1800
G1 X109.131 Y78.361 E.29299
G1 X110.296 Y75.943 E.08906
G1 X111.704 Y73.396 E.09654
G1 X113.253 Y70.932 E.09654
G1 X114.937 Y68.558 E.09654
G1 X116.785 Y66.247 E.09815
G1 X118.692 Y64.113 E.09493
G1 X120.75 Y62.055 E.09654
G1 X122.919 Y60.116 E.09654
G1 X125.195 Y58.301 E.09654
G1 X127.568 Y56.617 E.09654
G1 X130.032 Y55.068 E.09654
G1 X132.579 Y53.66 E.09654
G1 X134.998 Y52.494 E.08906
G1 X138.59 Y60.563 E.29299
G1 X136.441 Y61.606 E.07924
G1 X134.161 Y62.889 E.08681
G1 X131.966 Y64.306 E.08665
G1 X130.475 Y65.401 E.06135
G1 X129.857 Y65.856 E.02544
G1 X127.85 Y67.528 E.08668
G1 X125.951 Y69.315 E.08648
G1 X124.132 Y71.251 E.08812
G1 X122.488 Y73.226 E.08524
G1 X120.941 Y75.332 E.08668
G1 X119.524 Y77.527 E.08668
G1 X118.242 Y79.805 E.08668
G1 X117.217 Y81.918 E.07791
G1 E-.84
;WIPE_START
G1 X116.302 Y81.515 E-.36
;WIPE_END
G1 Z.6 F7200
G1 X135.382 Y54.758 Z.6
G1 Z.2
G1 E1.2 F1800
;TYPE:Bottom surface
;WIDTH:0.451633
G1 F3600
G1 X134.293 Y53.67 E.05126
G1 X133.903 Y53.858 E.01442
G1 X135.484 Y55.439 E.07446
G1 X135.948 Y56.481 E.03798
G1 X133.513 Y54.046 E.11468
G1 X133.123 Y54.234 E.01442
G1 X136.412 Y57.522 E.1549
G1 X136.876 Y58.564 E.03798
G1 X132.742 Y54.43 E.19471
G1 X132.37 Y54.636 E.01417
G1 X137.34 Y59.606 E.23409
G1 X137.606 Y60.204 E.02179
G1 X137.44 Y60.285 E.00614
