; HEADER_BLOCK_START
; generated by OrcaSlicer 2.0.0 on 2024-05-13 at 07:21:31
; total layer number: 15
; filament_density: 1.24
; filament_diameter: 1.75
; max_z_height: 3.00
; HEADER_BLOCK_END

; THUMBNAIL_BLOCK_START

;
; THUMBNAIL_BLOCK_END

; THUMBNAIL_BLOCK_START

;
; THUMBNAIL_BLOCK_END

; external perimeters extrusion width = 0.45mm
; perimeters extrusion width = 0.45mm
; infill extrusion width = 0.45mm
; solid infill extrusion width = 0.45mm
; top infill extrusion width = 0.40mm

; EXECUTABLE_BLOCK_START
M73 P0 R10
M201 X5000 Y5000 Z500 E5000
M203 X500 Y500 Z30 E100
M204 P5000 R2500 T5000 ; sets acceleration (P, T) and retract acceleration (R), mm/sec^2
M205 X10.00 Y10.00 Z0.40 E5.00 ; sets the jerk limits, mm/sec
;TYPE:Custom
M220 S100 ;Reset Feedrate 
M221 S100 ;Reset Flowrate 
 
M140 S55 ;Set final bed temp 
G28 ;Home 
M420 S1; Enable mesh leveling 
G92 E0 ;Reset Extruder 
G1 Z2.0 F3000 ;Move Z Axis up 
M104 S220 ;Set final nozzle temp 
G1 X-2.1 Y20 Z0.28 F5000.0 ;Move to start position 
M190 S55 ;Wait for bed temp to stabilize 
M109 S220 ;Wait for nozzle temp to stabilize 
G1 X-2.1 Y145.0 Z0.28 F1500.0 E15 ;Draw the first line 
G1 X-2.4 Y145.0 Z0.28 F5000.0 ;Move to side a little 
G1 X-2.4 Y20 Z0.28 F1500.0 E30 ;Draw the second line 
G92 E0  ;Reset Extruder 
G1 E-1.0000 F1800 ;Retract a bit 
M73 P1 R10
G1 Z2.0 F3000 ;Move Z Axis up 
G1 E0.0000 F1800
G90
G21
M83 ; use relative distances for extrusion
; filament start gcode
M106 S0
;LAYER_CHANGE
;Z:0.2
;HEIGHT:0.2
;BEFORE_LAYER_CHANGE
;0.2
G92 E0

G1 E-1.2 F1800
;_SET_FAN_SPEED_CHANGING_LAYER
M204 P300
M204 T300
G1 Z.4 F7200
G1 X151.449 Y27.263
G1 Z.4
G1 Z.2
G1 E1.2 F1800
;TYPE:Skirt
;WIDTH:0.45
G1 F3000
G1 X151.841 Y25.947 E.04555
G1 X152.888 Y25.059 E.04555
G1 X153.856 Y24.856 E.0328
G1 X190.956 Y24.856 E1.23068
G1 X192.272 Y25.248 E.04555
M73 P2 R10
G1 X193.16 Y26.295 E.04555
G1 X193.363 Y27.263 E.0328
G1 X193.363 Y56.863 E.98189
G1 X193.109 Y57.94 E.03669
G1 X185.609 Y72.94 E.55631
G1 X184.67 Y73.942 E.04555
G1 X183.456 Y74.27 E.04172
G1 X176.356 Y74.27 E.23552
G1 X174.654 Y73.565 E.06111
G1 X152.154 Y51.065 E1.05552
G1 X151.449 Y49.363 E.06111
G1 X151.449 Y27.303 E.73177
; printing object tile08.stl id:13728412815815868416 copy 0
G1 E-.84 F1800
;WIPE_START
G1 F3000
G1 X151.726 Y26.342 E-.36
;WIPE_END
G1 Z.6 F7200
G1 X176.966 Y57.372 Z.6
G1 Z.2
G1 E1.2 F1800
;TYPE:Inner wall
;WIDTH:0.449999
G1 X176.988 Y57.285 E.00297
G1 X176.988 Y41.727 E.51607
G1 X176.838 Y41.44 E.01075
G1 X176.677 Y41.31 E.00687
G1 X176.378 Y41.231 E.01027
G1 X168.346 Y41.231 E.26643
G1 X168.068 Y41.353 E.01006
G1 X167.896 Y41.554 E.00879
G1 X167.824 Y41.842 E.00983
G1 X167.824 Y48.731 E.22853
G1 X154.488 Y48.731 E.44237
G1 X154.488 Y42.895 E.19359
G1 X161.378 Y42.895 E.22853
G1 X161.62 Y42.845 E.00822
M73 P3 R10
G1 X161.809 Y42.716 E.00759
G1 X161.938 Y42.527 E.00759
G1 X161.988 Y42.285 E.00822
G1 X161.988 Y34.342 E.26348
G1 X161.938 Y34.099 E.00822
G1 X161.809 Y33.91 E.00759
G1 X161.62 Y33.781 E.00759
G1 X161.378 Y33.731 E.00822
G1 X154.488 Y33.731 E.22853
G1 X154.488 Y27.895 E.19359
G1 X167.824 Y27.895 E.44237
G1 X167.824 Y34.342 E.21384
G1 X167.843 Y34.935 E.01969
G1 X167.975 Y35.186 E.00941
G1 X168.135 Y35.317 E.00687
G1 X168.435 Y35.395 E.01027
G1 X176.466 Y35.395 E.26643
G1 X176.744 Y35.273 E.01006
G1 X176.916 Y35.072 E.00879
G1 X176.988 Y34.785 E.00983
G1 X176.988 Y27.895 E.22853
G1 X190.324 Y27.895 E.44237
G1 X190.324 Y33.731 E.19359
G1 X183.435 Y33.731 E.22853
G1 X183.192 Y33.781 E.00822
G1 X183.003 Y33.91 E.00759
G1 X182.874 Y34.099 E.00759
G1 X182.824 Y34.342 E.00822
G1 X182.824 Y49.899 E.51607
G1 X182.975 Y50.186 E.01075
G1 X183.135 Y50.317 E.00687
G1 X183.435 Y50.395 E.01027
G1 X190.324 Y50.395 E.22853
G1 X190.324 Y56.231 E.19359
G1 X183.346 Y56.231 E.23148
G1 X183.068 Y56.353 E.01006
G1 X182.896 Y56.554 E.00879
G1 X182.824 Y56.842 E.00983
G1 X182.824 Y71.231 E.47732
G1 X176.988 Y71.231 E.19359
G1 X176.988 Y64.227 E.23233
G1 X176.838 Y63.94 E.01075
G1 X176.677 Y63.81 E.00687
G1 X176.378 Y63.731 E.01027
G1 X169.488 Y63.731 E.22853
G1 X169.488 Y57.895 E.19359
G1 X176.466 Y57.895 E.23148
M73 P4 R10
G1 X176.744 Y57.773 E.01006
G1 X176.916 Y57.572 E.00879
G1 X176.957 Y57.41 E.00553
G1 X176.581 Y57.285 F7200
;TYPE:Outer wall
G1 F1800
G1 X176.581 Y41.842 E.51227
G1 X176.531 Y41.708 E.00474
G1 X176.378 Y41.638 E.00559
G1 X168.435 Y41.638 E.26348
G1 X168.281 Y41.708 E.00559
G1 X168.231 Y41.842 E.00474
G1 X168.231 Y49.138 E.24204
G1 X154.081 Y49.138 E.46938
G1 X154.081 Y42.488 E.22059
G1 X161.378 Y42.488 E.24204
G1 X161.521 Y42.429 E.00517
G1 X161.581 Y42.285 E.00517
G1 X161.581 Y34.342 E.26348
G1 X161.521 Y34.198 E.00517
G1 X161.378 Y34.138 E.00517
G1 X154.081 Y34.138 E.24204
G1 X154.081 Y27.488 E.22059
G1 X168.231 Y27.488 E.46938
G1 X168.231 Y34.785 E.24204
G1 X168.281 Y34.918 E.00474
G1 X168.435 Y34.988 E.00559
G1 X176.378 Y34.988 E.26348
G1 X176.531 Y34.918 E.00559
G1 X176.581 Y34.785 E.00474
G1 X176.581 Y27.488 E.24204
G1 X190.731 Y27.488 E.46938
G1 X190.731 Y34.138 E.22059
G1 X183.435 Y34.138 E.24204
G1 X183.291 Y34.198 E.00517
G1 X183.231 Y34.342 E.00517
G1 X183.231 Y49.785 E.51227
G1 X183.281 Y49.918 E.00474
M73 P5 R10
G1 X183.435 Y49.988 E.00559
G1 X190.731 Y49.988 E.24204
G1 X190.731 Y56.638 E.22059
G1 X183.435 Y56.638 E.24204
G1 X183.281 Y56.708 E.00559
G1 X183.231 Y56.842 E.00474
G1 X183.231 Y71.638 E.49083
G1 X176.581 Y71.638 E.22059
G1 X176.581 Y64.342 E.24204
G1 X176.531 Y64.208 E.00474
G1 X176.378 Y64.138 E.00559
G1 X169.081 Y64.138 E.24204
G1 X169.081 Y57.488 E.22059
G1 X176.378 Y57.488 E.24204
G1 X176.531 Y57.418 E.00559
G1 X176.567 Y57.322 E.00341
G1 E-.84
;WIPE_START
G1 X176.568 Y56.322 E-.36
;WIPE_END
G1 Z.6 F7200
G1 X189.334 Y28.058
G1 Z.6
G1 Z.2
G1 E1.2 F1800
;TYPE:Bottom surface
;WIDTH:0.451888
G1 F3600
G1 X189.978 Y28.702 E.03034
G1 X189.978 Y29.28 E.01927
G1 X188.939 Y28.241 E.04896
G1 X188.361 Y28.241 E.01927
G1 X189.978 Y29.859 E.07622
G1 X189.978 Y30.437 E.01927
G1 X187.782 Y28.241 E.10348
G1 X187.204 Y28.241 E.01927
G1 X189.978 Y31.015 E.13074
G1 X189.978 Y31.594 E.01927
G1 X186.626 Y28.241 E.158
G1 X186.047 Y28.241 E.01927
G1 X189.978 Y32.172 E.18526
G1 X189.978 Y32.75 E.01927
G1 X185.469 Y28.241 E.21251
G1 X184.89 Y28.241 E.01927
G1 X189.978 Y33.329 E.23977
G1 X189.978 Y33.385 E.00188
G1 X189.456 Y33.385 E.0174
G1 X184.312 Y28.241 E.24243
G1 X183.734 Y28.241 E.01927
G1 X188.878 Y33.385 E.24243
G1 X188.299 Y33.385 E.01927
G1 X183.155 Y28.241 E.24243
G1 X182.577 Y28.241 E.01927
G1 X187.721 Y33.385 E.24243
G1 X187.142 Y33.385 E.01927
M73 P6 R10
G1 X181.999 Y28.241 E.24243
G1 X181.42 Y28.241 E.01927
G1 X186.564 Y33.385 E.24243
G1 X185.986 Y33.385 E.01927
G1 X180.842 Y28.241 E.24243
G1 X180.264 Y28.241 E.01927
G1 X185.407 Y33.385 E.24243
G1 X184.829 Y33.385 E.01927
G1 X179.685 Y28.241 E.24243
G1 X179.107 Y28.241 E.01927
G1 X184.251 Y33.385 E.24243
G1 X183.672 Y33.385 E.01927
G1 X178.528 Y28.241 E.24243
G1 X177.95 Y28.241 E.01927
G1 X183.144 Y33.435 E.24477
G1 X183.055 Y33.463 E.00311
G1 X182.893 Y33.553 E.00618
G1 X182.778 Y33.648 E.00495
G1 X177.372 Y28.241 E.25481
G1 X177.334 Y28.241 E.00125
G1 X177.334 Y28.782 E.01802
G1 X182.546 Y33.994 E.24562
G1 X182.498 Y34.146 E.00531
G1 X182.478 Y34.504 E.01197
G1 X177.334 Y29.36 E.24243
G1 X177.334 Y29.939 E.01927
G1 X182.478 Y35.083 E.24243
G1 X182.478 Y35.661 E.01927
G1 X177.334 Y30.517 E.24243
G1 X177.334 Y31.096 E.01927
G1 X182.478 Y36.239 E.24243
G1 X182.478 Y36.818 E.01927
G1 X177.334 Y31.674 E.24243
G1 X177.334 Y32.252 E.01927
G1 X182.478 Y37.396 E.24243
G1 X182.478 Y37.974 E.01927
G1 X177.334 Y32.831 E.24243
G1 X177.334 Y33.409 E.01927
G1 X182.478 Y38.553 E.24243
G1 X182.478 Y39.131 E.01927
G1 X177.334 Y33.987 E.24243
G1 X177.334 Y34.566 E.01927
G1 X182.478 Y39.71 E.24243
G1 X182.478 Y40.288 E.01927
G1 X177.279 Y35.089 E.24502
G1 X177.223 Y35.235 E.00521
G1 X177.061 Y35.449 E.00895
G1 X182.478 Y40.866 E.2553
G1 X182.478 Y41.445 E.01927
G1 X176.714 Y35.681 E.27165
G1 X176.554 Y35.726 E.00555
M73 P7 R10
G1 X176.196 Y35.741 E.01192
G1 X182.478 Y42.023 E.29606
G1 X182.478 Y42.601 E.01927
G1 X175.618 Y35.741 E.32333
G1 X175.039 Y35.741 E.01928
G1 X182.478 Y43.18 E.3506
G1 X182.478 Y43.758 E.01927
G1 X174.46 Y35.741 E.37787
G1 X173.882 Y35.74 E.01928
G1 X182.478 Y44.337 E.40514
G1 X182.478 Y44.915 E.01927
G1 X173.303 Y35.74 E.43241
G1 X172.725 Y35.74 E.01928
G1 X182.478 Y45.493 E.45968
G1 X182.478 Y46.072 E.01927
G1 X172.146 Y35.74 E.48694
G1 X171.567 Y35.739 E.01928
G1 X182.478 Y46.65 E.51421
G1 X182.478 Y47.228 E.01927
G1 X177.334 Y42.085 E.24243
G1 X177.334 Y42.663 E.01927
G1 X182.478 Y47.807 E.24243
G1 X182.478 Y48.385 E.01927
G1 X177.334 Y43.241 E.24243
G1 X177.334 Y43.82 E.01927
G1 X182.478 Y48.963 E.24243
G1 X182.478 Y49.542 E.01927
G1 X177.151 Y44.215 E.25106
G1 E-.84 F1800
;WIPE_START
G1 F3600
G1 X177.858 Y44.922 E-.36
;WIPE_END
G1 Z.6 F7200
G1 X176.318 Y41.068 Z.6
G1 Z.2
G1 E1.2 F1800
G1 F3600
G1 X170.989 Y35.739 E.25116
G1 X170.41 Y35.739 E.01928
G1 X175.556 Y40.885 E.24253
G1 X174.978 Y40.885 E.01927
G1 X169.832 Y35.739 E.24255
G1 X169.253 Y35.739 E.01928
G1 X174.4 Y40.885 E.24256
G1 X173.821 Y40.885 E.01927
G1 X168.491 Y35.555 E.2512
M73 P8 R10
G1 E-.84 F1800
;WIPE_START
G1 F3600
G1 X169.198 Y36.262 E-.36
;WIPE_END
G1 Z.6 F7200
G1 X167.661 Y28.941 Z.6
G1 Z.2
M73 P8 R9
G1 E1.2 F1800
G1 F3600
G1 X166.961 Y28.241 E.03299
G1 X166.383 Y28.241 E.01927
G1 X167.478 Y29.337 E.05162
G1 X167.478 Y29.915 E.01927
G1 X165.804 Y28.241 E.07888
G1 X165.226 Y28.241 E.01927
G1 X167.478 Y30.493 E.10614
G1 X167.478 Y31.072 E.01927
G1 X164.648 Y28.241 E.13339
G1 X164.069 Y28.241 E.01927
G1 X167.478 Y31.65 E.16065
G1 X167.478 Y32.228 E.01927
G1 X163.491 Y28.241 E.18791
G1 X162.913 Y28.241 E.01927
G1 X167.478 Y32.807 E.21517
G1 X167.478 Y33.385 E.01927
G1 X162.334 Y28.241 E.24243
G1 X161.756 Y28.241 E.01927
G1 X167.478 Y33.963 E.26969
G1 X167.478 Y34.542 E.01927
G1 X161.177 Y28.241 E.29694
G1 X160.599 Y28.241 E.01927
G1 X173.243 Y40.885 E.5959
G1 X172.664 Y40.885 E.01927
G1 X160.021 Y28.241 E.5959
G1 X159.442 Y28.241 E.01927
G1 X172.086 Y40.885 E.5959
G1 X171.508 Y40.885 E.01927
G1 X158.864 Y28.241 E.5959
G1 X158.286 Y28.241 E.01927
G1 X170.929 Y40.885 E.5959
G1 X170.351 Y40.885 E.01927
G1 X157.707 Y28.241 E.5959
G1 X157.129 Y28.241 E.01927
G1 X169.773 Y40.885 E.5959
G1 X169.194 Y40.885 E.01927
G1 X156.55 Y28.241 E.5959
M73 P9 R9
G1 X155.972 Y28.241 E.01927
G1 X161.116 Y33.385 E.24243
G1 X160.538 Y33.385 E.01927
G1 X155.394 Y28.241 E.24243
G1 X154.834 Y28.241 E.01865
G1 X154.834 Y28.26 E.00063
G1 X159.959 Y33.385 E.24154
G1 X159.381 Y33.385 E.01927
G1 X154.834 Y28.838 E.21428
G1 X154.834 Y29.417 E.01927
G1 X158.802 Y33.385 E.18702
G1 X158.224 Y33.385 E.01927
G1 X154.834 Y29.995 E.15976
G1 X154.834 Y30.574 E.01927
G1 X157.646 Y33.385 E.13251
G1 X157.067 Y33.385 E.01927
G1 X154.834 Y31.152 E.10525
G1 X154.834 Y31.73 E.01927
G1 X156.489 Y33.385 E.07799
G1 X155.911 Y33.385 E.01927
G1 X154.834 Y32.309 E.05073
G1 X154.834 Y32.887 E.01927
G1 X155.515 Y33.568 E.03211
G1 E-.84 F1800
;WIPE_START
G1 F3600
G1 X154.834 Y32.887 E-.34683
G1 X154.834 Y32.85 E-.01317
;WIPE_END
G1 Z.6 F7200
G1 X162.151 Y34.42 Z.6
G1 Z.2
G1 E1.2 F1800
G1 F3600
G1 X168.616 Y40.885 E.30469
G1 X168.259 Y40.901 E.01192
G1 X168.098 Y40.946 E.00556
G1 X162.334 Y35.182 E.27165
G1 X162.334 Y35.76 E.01927
G1 X167.751 Y41.177 E.2553
G1 X167.589 Y41.391 E.00895
G1 X167.533 Y41.537 E.00521
G1 X162.334 Y36.338 E.24502
G1 X162.334 Y36.917 E.01927
G1 X167.478 Y42.061 E.24243
G1 X167.478 Y42.639 E.01927
G1 X162.334 Y37.495 E.24243
G1 X162.334 Y38.074 E.01927
G1 X167.478 Y43.217 E.24243
G1 X167.478 Y43.796 E.01927
G1 X162.334 Y38.652 E.24243
G1 X162.334 Y39.23 E.01927
G1 X167.478 Y44.374 E.24243
G1 X167.478 Y44.952 E.01927
G1 X162.334 Y39.809 E.24243
G1 X162.334 Y40.387 E.01927
G1 X167.478 Y45.531 E.24243
G1 X167.478 Y46.109 E.01927
G1 X162.334 Y40.965 E.24243
M73 P10 R9
G1 X162.334 Y41.544 E.01927
G1 X167.478 Y46.688 E.24243
G1 X167.478 Y47.266 E.01927
G1 X162.334 Y42.122 E.24243
G1 X162.315 Y42.481 E.01197
G1 X162.266 Y42.633 E.00532
G1 X167.478 Y47.844 E.24562
G1 X167.478 Y48.385 E.01802
G1 X167.44 Y48.385 E.00125
G1 X162.034 Y42.979 E.25481
G1 X161.92 Y43.074 E.00495
G1 X161.758 Y43.163 E.00618
G1 X161.669 Y43.192 E.00311
G1 X166.862 Y48.385 E.24477
G1 X166.284 Y48.385 E.01927
G1 X161.14 Y43.241 E.24243
G1 X160.561 Y43.241 E.01927
G1 X165.705 Y48.385 E.24243
G1 X165.127 Y48.385 E.01927
G1 X159.983 Y43.241 E.24243
G1 X159.405 Y43.241 E.01927
G1 X164.549 Y48.385 E.24243
G1 X163.97 Y48.385 E.01927
G1 X158.826 Y43.241 E.24243
G1 X158.248 Y43.241 E.01927
G1 X163.392 Y48.385 E.24243
G1 X162.813 Y48.385 E.01927
G1 X157.67 Y43.241 E.24243
G1 X157.091 Y43.241 E.01927
G1 X162.235 Y48.385 E.24243
G1 X161.657 Y48.385 E.01927
G1 X156.513 Y43.241 E.24243
G1 X155.935 Y43.241 E.01927
G1 X161.078 Y48.385 E.24243
G1 X160.5 Y48.385 E.01927
G1 X155.356 Y43.241 E.24243
G1 X154.834 Y43.241 E.0174
G1 X154.834 Y43.298 E.00188
G1 X159.922 Y48.385 E.23977
G1 X159.343 Y48.385 E.01927
G1 X154.834 Y43.876 E.21251
G1 X154.834 Y44.454 E.01927
G1 X158.765 Y48.385 E.18525
G1 X158.186 Y48.385 E.01927
G1 X154.834 Y45.033 E.15799
G1 X154.834 Y45.611 E.01927
G1 X157.608 Y48.385 E.13074
G1 X157.03 Y48.385 E.01927
G1 X154.834 Y46.189 E.10348
G1 X154.834 Y46.768 E.01927
G1 X156.451 Y48.385 E.07622
G1 X155.873 Y48.385 E.01927
G1 X154.834 Y47.346 E.04896
G1 X154.834 Y47.925 E.01927
G1 X155.478 Y48.568 E.03034
G1 E-.84 F1800
;WIPE_START
M73 P11 R9
G1 F3600
G1 X154.834 Y47.925 E-.3277
G1 X154.834 Y47.835 E-.0323
;WIPE_END
G1 Z.6 F7200
G1 X189.278 Y50.558 Z.6
G1 Z.2
G1 E1.2 F1800
G1 F3600
G1 X189.978 Y51.258 E.03301
G1 X189.978 Y51.837 E.01927
G1 X188.882 Y50.741 E.05165
G1 X188.304 Y50.74 E.01928
G1 X189.978 Y52.415 E.07892
G1 X189.978 Y52.993 E.01927
G1 X187.725 Y50.74 E.10619
G1 X187.146 Y50.74 E.01928
G1 X189.978 Y53.572 E.13346
G1 X189.978 Y54.15 E.01927
G1 X186.568 Y50.74 E.16073
G1 X185.989 Y50.739 E.01928
G1 X189.978 Y54.728 E.188
G1 X189.978 Y55.307 E.01927
G1 X185.41 Y50.739 E.21527
G1 X184.832 Y50.739 E.01928
G1 X189.978 Y55.885 E.24254
G1 X189.4 Y55.885 E.01926
G1 X184.253 Y50.739 E.24257
G1 X183.674 Y50.738 E.01928
G1 X188.822 Y55.886 E.24259
G1 X188.244 Y55.886 E.01927
G1 X177.334 Y44.976 E.51416
G1 X177.334 Y45.555 E.01927
G1 X187.666 Y55.886 E.48692
G1 X187.088 Y55.886 E.01927
G1 X177.334 Y46.133 E.45967
G1 X177.334 Y46.712 E.01927
G1 X186.509 Y55.887 E.43243
G1 X185.931 Y55.887 E.01927
G1 X177.334 Y47.29 E.40518
G1 X177.334 Y47.868 E.01927
G1 X185.353 Y55.887 E.37793
G1 X184.775 Y55.888 E.01927
G1 X177.334 Y48.447 E.35069
G1 X177.334 Y49.025 E.01927
G1 X184.197 Y55.888 E.32344
G1 X183.619 Y55.888 E.01927
G1 X177.334 Y49.603 E.2962
G1 X177.334 Y50.182 E.01927
M73 P12 R9
G1 X183.097 Y55.945 E.27162
G1 X182.862 Y56.074 E.00894
G1 X182.751 Y56.177 E.00505
G1 X177.334 Y50.76 E.2553
G1 X177.334 Y51.338 E.01927
G1 X182.533 Y56.537 E.24502
G1 X182.506 Y56.606 E.00246
G1 X182.478 Y56.833 E.00761
G1 X182.478 Y57.061 E.00759
G1 X177.334 Y51.917 E.24243
G1 X177.334 Y52.495 E.01927
G1 X182.478 Y57.639 E.24243
G1 X182.478 Y58.217 E.01927
G1 X177.334 Y53.074 E.24243
G1 X177.334 Y53.652 E.01927
G1 X182.478 Y58.796 E.24243
G1 X182.478 Y59.374 E.01927
G1 X177.334 Y54.23 E.24243
G1 X177.334 Y54.809 E.01927
G1 X182.478 Y59.952 E.24243
G1 X182.478 Y60.531 E.01927
G1 X177.334 Y55.387 E.24243
G1 X177.334 Y55.965 E.01927
G1 X182.478 Y61.109 E.24243
G1 X182.478 Y61.688 E.01927
G1 X177.334 Y56.544 E.24243
G1 X177.334 Y57.122 E.01927
G1 X182.478 Y62.266 E.24243
G1 X182.478 Y62.844 E.01927
G1 X177.263 Y57.63 E.24576
G1 X177.223 Y57.735 E.00376
G1 X177.099 Y57.914 E.00724
G1 X177.032 Y57.976 E.00307
G1 X182.478 Y63.423 E.25668
G1 X182.478 Y64.001 E.01927
G1 X176.67 Y58.193 E.27373
G1 X176.554 Y58.226 E.00403
G1 X176.384 Y58.241 E.00567
G1 X176.14 Y58.241 E.00814
G1 X182.478 Y64.579 E.29871
G1 X182.478 Y65.158 E.01927
G1 X175.561 Y58.241 E.32597
G1 X174.983 Y58.241 E.01927
G1 X182.478 Y65.736 E.35323
G1 X182.478 Y66.315 E.01927
G1 X174.405 Y58.241 E.38049
G1 X173.826 Y58.241 E.01927
