; HEADER_BLOCK_START
; generated by OrcaSlicer 2.0.0 on 2024-05-12 at 22:20:01
; total layer number: 15
; filament_density: 1.24
; filament_diameter: 1.75
; max_z_height: 3.00
; HEADER_BLOCK_END

; THUMBNAIL_BLOCK_START

;
; THUMBNAIL_BLOCK_END

; THUMBNAIL_BLOCK_START

;
; THUMBNAIL_BLOCK_END

; external perimeters extrusion width = 0.45mm
; perimeters extrusion width = 0.45mm
; infill extrusion width = 0.45mm
; solid infill extrusion width = 0.45mm
; top infill extrusion width = 0.40mm

; external perimeters extrusion width = 0.45mm
; perimeters extrusion width = 0.45mm
; infill extrusion width = 0.45mm
; solid infill extrusion width = 0.45mm
; top infill extrusion width = 0.40mm

; external perimeters extrusion width = 0.45mm
; perimeters extrusion width = 0.45mm
; infill extrusion width = 0.45mm
; solid infill extrusion width = 0.45mm
; top infill extrusion width = 0.40mm

; external perimeters extrusion width = 0.45mm
; perimeters extrusion width = 0.45mm
; infill extrusion width = 0.45mm
; solid infill extrusion width = 0.45mm
; top infill extrusion width = 0.40mm

; external perimeters extrusion width = 0.45mm
; perimeters extrusion width = 0.45mm
; infill extrusion width = 0.45mm
; solid infill extrusion width = 0.45mm
; top infill extrusion width = 0.40mm

; external perimeters extrusion width = 0.45mm
; perimeters extrusion width = 0.45mm
; infill extrusion width = 0.45mm
; solid infill extrusion width = 0.45mm
; top infill extrusion width = 0.40mm

; external perimeters extrusion width = 0.45mm
; perimeters extrusion width = 0.45mm
; infill extrusion width = 0.45mm
; solid infill extrusion width = 0.45mm
; top infill extrusion width = 0.40mm

; external perimeters extrusion width = 0.45mm
; perimeters extrusion width = 0.45mm
; infill extrusion width = 0.45mm
; solid infill extrusion width = 0.45mm
; top infill extrusion width = 0.40mm

; external perimeters extrusion width = 0.45mm
; perimeters extrusion width = 0.45mm
; infill extrusion width = 0.45mm
; solid infill extrusion width = 0.45mm
; top infill extrusion width = 0.40mm

; external perimeters extrusion width = 0.45mm
; perimeters extrusion width = 0.45mm
; infill extrusion width = 0.45mm
; solid infill extrusion width = 0.45mm
; top infill extrusion width = 0.40mm

; external perimeters extrusion width = 0.45mm
; perimeters extrusion width = 0.45mm
; infill extrusion width = 0.45mm
; solid infill extrusion width = 0.45mm
; top infill extrusion width = 0.40mm

; external perimeters extrusion width = 0.45mm
; perimeters extrusion width = 0.45mm
; infill extrusion width = 0.45mm
; solid infill extrusion width = 0.45mm
; top infill extrusion width = 0.40mm

; external perimeters extrusion width = 0.45mm
; perimeters extrusion width = 0.45mm
; infill extrusion width = 0.45mm
; solid infill extrusion width = 0.45mm
; top infill extrusion width = 0.40mm

; EXECUTABLE_BLOCK_START
M73 P0 R126
M201 X5000 Y5000 Z500 E5000
M203 X500 Y500 Z30 E100
M204 P5000 R2500 T5000 ; sets acceleration (P, T) and retract acceleration (R), mm/sec^2
M205 X10.00 Y10.00 Z0.40 E5.00 ; sets the jerk limits, mm/sec
;TYPE:Custom
M220 S100 ;Reset Feedrate 
M221 S100 ;Reset Flowrate 
 
M140 S55 ;Set final bed temp 
G28 ;Home 
M420 S1; Enable mesh leveling 
G92 E0 ;Reset Extruder 
G1 Z2.0 F3000 ;Move Z Axis up 
M104 S220 ;Set final nozzle temp 
G1 X-2.1 Y20 Z0.28 F5000.0 ;Move to start position 
M190 S55 ;Wait for bed temp to stabilize 
M109 S220 ;Wait for nozzle temp to stabilize 
G1 X-2.1 Y145.0 Z0.28 F1500.0 E15 ;Draw the first line 
G1 X-2.4 Y145.0 Z0.28 F5000.0 ;Move to side a little 
G1 X-2.4 Y20 Z0.28 F1500.0 E30 ;Draw the second line 
G92 E0  ;Reset Extruder 
G1 E-1.0000 F1800 ;Retract a bit 
G1 Z2.0 F3000 ;Move Z Axis up 
G1 E0.0000 F1800
G90
G21
M83 ; use relative distances for extrusion
; filament start gcode
M106 S0
;LAYER_CHANGE
;Z:0.2
;HEIGHT:0.2
;BEFORE_LAYER_CHANGE
;0.2
G92 E0

G1 E-1.2 F1800
;_SET_FAN_SPEED_CHANGING_LAYER
M204 P300
M204 T300
G1 Z.4 F7200
G1 X49.053 Y33.887
G1 Z.4
G1 Z.2
G1 E1.2 F1800
;TYPE:Skirt
;WIDTH:0.45
G1 F3000
G1 X50.015 Y32.907 E.04555
G1 X51.169 Y32.606 E.03956
G1 X73.369 Y32.506 E.73642
G1 X73.895 Y32.561 E.01753
G1 X130.754 Y45.006 E1.93077
G1 X131.954 Y45.669 E.04547
G1 X170.74 Y85.046 E1.83346
G1 X171.182 Y85.667 E.02526
G1 X201.578 Y146.989 E2.27035
G1 X201.828 Y148.058 E.03642
G1 X201.828 Y185.158 E1.23067
G1 X201.436 Y186.474 E.04555
G1 X200.389 Y187.362 E.04555
G1 X199.421 Y187.565 E.0328
G1 X76.621 Y187.565 E4.0735
G1 X74.828 Y186.764 E.06514
G1 X45.018 Y153.483 E1.4821
G1 X22.087 Y117.731 E1.40893
G1 X21.778 Y117.016 E.02585
G1 X18.245 Y102.85 E.48431
G1 X18.231 Y101.744 E.03669
G1 X21.878 Y85.375 E.55631
G1 X22.1 Y84.771 E.02133
G1 X49.034 Y33.922 E1.90879
; printing object tile02.stl id:0 copy 0
G1 E-.84 F1800
;WIPE_START
G1 F3000
G1 X49.729 Y33.203 E-.36
;WIPE_END
G1 Z.6 F7200
G1 X185.262 Y171.017 Z.6
G1 Z.2
G1 E1.2 F1800
;TYPE:Inner wall
;WIDTH:0.449999
G1 X185.375 Y170.879 E.00594
G1 X185.453 Y170.579 E.01027
G1 X185.453 Y162.548 E.26643
G1 X185.331 Y162.27 E.01006
G1 X185.13 Y162.098 E.00879
G1 X184.842 Y162.026 E.00983
G1 X161.785 Y162.026 E.76486
G1 X161.498 Y162.176 E.01075
G1 X161.367 Y162.337 E.00687
G1 X161.289 Y162.636 E.01027
G1 X161.289 Y170.668 E.26643
G1 X161.411 Y170.946 E.01006
G1 X161.612 Y171.118 E.00879
G1 X161.9 Y171.19 E.00983
G1 X168.789 Y171.19 E.22853
G1 X168.789 Y184.526 E.44237
G1 X162.953 Y184.526 E.19359
G1 X162.953 Y177.636 E.22853
G1 X162.903 Y177.394 E.00822
G1 X162.774 Y177.205 E.00759
G1 X162.585 Y177.076 E.00759
G1 X162.342 Y177.026 E.00822
G1 X154.4 Y177.026 E.26348
G1 X154.157 Y177.076 E.00822
G1 X153.968 Y177.205 E.00759
G1 X153.839 Y177.394 E.00759
G1 X153.789 Y177.636 E.00822
G1 X153.789 Y184.526 E.22853
G1 X147.953 Y184.526 E.19359
G1 X147.953 Y171.19 E.44237
G1 X154.4 Y171.19 E.21384
G1 X154.993 Y171.171 E.01969
G1 X155.244 Y171.039 E.00941
G1 X155.375 Y170.879 E.00687
G1 X155.453 Y170.579 E.01027
G1 X155.453 Y162.548 E.26643
G1 X155.331 Y162.27 E.01006
G1 X155.13 Y162.098 E.00879
G1 X154.842 Y162.026 E.00983
G1 X147.953 Y162.026 E.22853
G1 X147.953 Y148.69 E.44237
G1 X153.789 Y148.69 E.19359
G1 X153.789 Y155.579 E.22853
G1 X153.839 Y155.822 E.00822
G1 X153.968 Y156.011 E.00759
G1 X154.157 Y156.14 E.00759
G1 X154.4 Y156.19 E.00822
G1 X169.957 Y156.19 E.51607
G1 X170.244 Y156.039 E.01075
G1 X170.375 Y155.879 E.00687
G1 X170.453 Y155.579 E.01027
G1 X170.453 Y147.526 E.26712
G1 X170.331 Y147.27 E.00943
G1 X170.116 Y147.09 E.00931
G1 X169.842 Y147.026 E.00931
G1 X162.953 Y147.026 E.22853
G1 X162.953 Y141.19 E.19359
G1 X169.952 Y141.19 E.23218
G1 X170.209 Y141.068 E.00943
G1 X170.389 Y140.852 E.00931
G1 X170.453 Y140.579 E.00931
G1 X170.453 Y133.69 E.22853
G1 X176.289 Y133.69 E.19359
G1 X176.289 Y140.689 E.23218
G1 X176.411 Y140.946 E.00943
G1 X176.626 Y141.125 E.00931
G1 X176.9 Y141.19 E.00931
G1 X183.789 Y141.19 E.22853
G1 X183.789 Y147.026 E.19359
G1 X176.79 Y147.026 E.23218
G1 X176.533 Y147.148 E.00943
G1 X176.353 Y147.363 E.00931
G1 X176.289 Y147.636 E.00931
G1 X176.289 Y155.668 E.26643
G1 X176.411 Y155.946 E.01006
G1 X176.612 Y156.118 E.00879
G1 X176.9 Y156.19 E.00983
G1 X192.342 Y156.19 E.51227
G1 X192.585 Y156.14 E.00822
G1 X192.774 Y156.011 E.00759
G1 X192.903 Y155.822 E.00759
G1 X192.953 Y155.579 E.00822
G1 X192.953 Y148.69 E.22853
G1 X198.789 Y148.69 E.19359
G1 X198.789 Y162.026 E.44237
G1 X192.342 Y162.026 E.21384
G1 X191.749 Y162.044 E.01969
G1 X191.498 Y162.176 E.00941
G1 X191.367 Y162.337 E.00687
G1 X191.289 Y162.636 E.01027
G1 X191.289 Y170.668 E.26643
G1 X191.411 Y170.946 E.01006
G1 X191.612 Y171.118 E.00879
G1 X191.9 Y171.19 E.00983
G1 X198.789 Y171.19 E.22853
G1 X198.789 Y184.526 E.44237
G1 X192.953 Y184.526 E.19359
G1 X192.953 Y177.636 E.22853
G1 X192.903 Y177.394 E.00822
G1 X192.774 Y177.205 E.00759
G1 X192.585 Y177.076 E.00759
G1 X192.342 Y177.026 E.00822
G1 X184.4 Y177.026 E.26348
G1 X184.157 Y177.076 E.00822
G1 X183.968 Y177.205 E.00759
G1 X183.839 Y177.394 E.00759
G1 X183.789 Y177.636 E.00822
G1 X183.789 Y184.526 E.22853
G1 X177.953 Y184.526 E.19359
G1 X177.953 Y171.19 E.44237
G1 X184.4 Y171.19 E.21384
G1 X184.993 Y171.171 E.01969
G1 X185.233 Y171.045 E.00902
G1 X184.976 Y170.733 F7200
;TYPE:Outer wall
G1 F1800
G1 X185.046 Y170.579 E.00559
G1 X185.046 Y162.636 E.26348
G1 X184.976 Y162.483 E.00559
G1 X184.842 Y162.433 E.00474
G1 X161.9 Y162.433 E.76106
G1 X161.766 Y162.483 E.00474
G1 X161.696 Y162.636 E.00559
G1 X161.696 Y170.579 E.26348
G1 X161.766 Y170.733 E.00559
G1 X161.9 Y170.783 E.00474
G1 X169.196 Y170.783 E.24204
G1 X169.196 Y184.933 E.46938
G1 X162.546 Y184.933 E.22059
G1 X162.546 Y177.636 E.24204
G1 X162.486 Y177.492 E.00517
G1 X162.342 Y177.433 E.00517
G1 X154.4 Y177.433 E.26348
G1 X154.256 Y177.492 E.00517
G1 X154.196 Y177.636 E.00517
G1 X154.196 Y184.933 E.24204
G1 X147.546 Y184.933 E.22059
G1 X147.546 Y170.783 E.46938
G1 X154.842 Y170.783 E.24204
G1 X154.976 Y170.733 E.00474
G1 X155.046 Y170.579 E.00559
G1 X155.046 Y162.636 E.26348
G1 X154.976 Y162.483 E.00559
G1 X154.842 Y162.433 E.00474
G1 X147.546 Y162.433 E.24204
G1 X147.546 Y148.283 E.46938
G1 X154.196 Y148.283 E.22059
G1 X154.196 Y155.579 E.24204
G1 X154.256 Y155.723 E.00517
G1 X154.4 Y155.783 E.00517
G1 X169.842 Y155.783 E.51227
G1 X169.976 Y155.733 E.00474
G1 X170.046 Y155.579 E.00559
G1 X170.046 Y147.636 E.26348
G1 X169.986 Y147.492 E.00517
G1 X169.842 Y147.433 E.00517
G1 X162.546 Y147.433 E.24204
G1 X162.546 Y140.783 E.22059
G1 X169.842 Y140.783 E.24204
G1 X169.986 Y140.723 E.00517
G1 X170.046 Y140.579 E.00517
G1 X170.046 Y133.283 E.24204
G1 X176.696 Y133.283 E.22059
G1 X176.696 Y140.579 E.24204
G1 X176.756 Y140.723 E.00517
G1 X176.9 Y140.783 E.00517
G1 X184.196 Y140.783 E.24204
G1 X184.196 Y147.433 E.22059
G1 X176.9 Y147.433 E.24204
G1 X176.756 Y147.492 E.00517
G1 X176.696 Y147.636 E.00517
G1 X176.696 Y155.579 E.26348
G1 X176.766 Y155.733 E.00559
G1 X176.9 Y155.783 E.00474
G1 X192.342 Y155.783 E.51227
G1 X192.486 Y155.723 E.00517
G1 X192.546 Y155.579 E.00517
G1 X192.546 Y148.283 E.24204
G1 X199.196 Y148.283 E.22059
G1 X199.196 Y162.433 E.46938
G1 X191.9 Y162.433 E.24204
G1 X191.766 Y162.483 E.00474
G1 X191.696 Y162.636 E.00559
G1 X191.696 Y170.579 E.26348
G1 X191.766 Y170.733 E.00559
G1 X191.9 Y170.783 E.00474
G1 X199.196 Y170.783 E.24204
G1 X199.196 Y184.933 E.46938
G1 X192.546 Y184.933 E.22059
G1 X192.546 Y177.636 E.24204
G1 X192.486 Y177.492 E.00517
G1 X192.342 Y177.433 E.00517
G1 X184.4 Y177.433 E.26348
G1 X184.256 Y177.492 E.00517
G1 X184.196 Y177.636 E.00517
G1 X184.196 Y184.933 E.24204
G1 X177.546 Y184.933 E.22059
G1 X177.546 Y170.783 E.46938
G1 X184.842 Y170.783 E.24204
G1 X184.939 Y170.747 E.00341
G1 E-.84
;WIPE_START
G1 X185.046 Y170.579 E-.07155
G1 X185.046 Y169.778 E-.28845
;WIPE_END
G1 Z.6 F7200
G1 X198.626 Y149.679
G1 Z.6
G1 Z.2
G1 E1.2 F1800
;TYPE:Bottom surface
;WIDTH:0.451531
G1 F3600
G1 X197.983 Y149.036 E.03028
G1 X197.405 Y149.036 E.01924
G1 X198.443 Y150.073 E.04886
G1 X198.443 Y150.651 E.01924
M73 P0 R125
G1 X196.827 Y149.036 E.07607
G1 X196.25 Y149.036 E.01924
G1 X198.443 Y151.229 E.10328
G1 X198.443 Y151.807 E.01924
G1 X195.672 Y149.036 E.13049
G1 X195.094 Y149.036 E.01924
G1 X198.443 Y152.385 E.1577
G1 X198.443 Y152.963 E.01924
G1 X194.516 Y149.036 E.18492
G1 X193.938 Y149.036 E.01924
G1 X198.443 Y153.541 E.21213
G1 X198.443 Y154.119 E.01924
G1 X193.36 Y149.036 E.23934
G1 X193.299 Y149.036 E.00203
G1 X193.299 Y149.553 E.01721
G1 X198.443 Y154.696 E.24221
G1 X198.443 Y155.274 E.01924
G1 X193.299 Y150.13 E.24221
G1 X193.299 Y150.708 E.01924
G1 X198.443 Y155.852 E.24221
G1 X198.443 Y156.43 E.01924
G1 X193.299 Y151.286 E.24221
G1 X193.299 Y151.864 E.01924
G1 X198.443 Y157.008 E.24221
G1 X198.443 Y157.586 E.01924
G1 X193.299 Y152.442 E.24221
G1 X193.299 Y153.02 E.01924
G1 X198.443 Y158.164 E.24221
G1 X198.443 Y158.741 E.01924
G1 X193.299 Y153.598 E.24221
G1 X193.299 Y154.176 E.01924
G1 X198.443 Y159.319 E.24221
G1 X198.443 Y159.897 E.01924
G1 X193.299 Y154.753 E.24221
G1 X193.299 Y155.331 E.01924
G1 X198.443 Y160.475 E.24221
G1 X198.443 Y161.053 E.01924
G1 X193.252 Y155.862 E.24443
G1 X193.221 Y155.959 E.00339
G1 X193.131 Y156.121 E.00617
G1 X193.042 Y156.229 E.00468
G1 X198.443 Y161.631 E.25434
G1 X198.443 Y161.68 E.00163
G1 X197.914 Y161.68 E.01761
G1 X192.7 Y156.465 E.24554
G1 X192.539 Y156.516 E.00562
G1 X192.192 Y156.536 E.01155
G1 X197.336 Y161.68 E.24221
G1 X196.758 Y161.68 E.01924
G1 X191.614 Y156.536 E.24221
G1 X191.037 Y156.536 E.01924
G1 X196.18 Y161.68 E.24221
G1 X195.603 Y161.68 E.01924
G1 X190.459 Y156.536 E.24221
G1 X189.881 Y156.536 E.01924
G1 X195.025 Y161.68 E.24221
G1 X194.447 Y161.68 E.01924
G1 X189.303 Y156.536 E.24221
G1 X188.725 Y156.536 E.01924
G1 X193.869 Y161.68 E.24221
G1 X193.291 Y161.68 E.01924
G1 X188.147 Y156.536 E.24221
G1 X187.569 Y156.536 E.01924
G1 X192.713 Y161.68 E.24221
G1 X192.135 Y161.68 E.01924
G1 X186.992 Y156.536 E.24221
G1 X186.414 Y156.536 E.01924
G1 X191.612 Y161.734 E.24479
G1 X191.452 Y161.79 E.00565
G1 X191.243 Y161.944 E.00862
G1 X185.836 Y156.536 E.25464
G1 X185.258 Y156.536 E.01924
G1 X191.009 Y162.287 E.27083
G1 X190.959 Y162.46 E.006
G1 X190.943 Y162.799 E.01128
G1 X184.68 Y156.536 E.29491
G1 X184.102 Y156.536 E.01924
G1 X190.943 Y163.377 E.32212
G1 X190.943 Y163.954 E.01924
G1 X183.524 Y156.536 E.34933
G1 X182.946 Y156.536 E.01924
G1 X190.943 Y164.532 E.37654
G1 X190.943 Y165.11 E.01924
G1 X182.369 Y156.536 E.40375
G1 X181.791 Y156.536 E.01924
G1 X190.943 Y165.688 E.43096
G1 X190.943 Y166.266 E.01924
G1 X181.213 Y156.536 E.45817
G1 X180.635 Y156.536 E.01924
G1 X190.943 Y166.844 E.48538
G1 X190.943 Y167.422 E.01924
G1 X180.057 Y156.536 E.51259
G1 X179.479 Y156.536 E.01924
G1 X184.623 Y161.68 E.24221
G1 X184.045 Y161.68 E.01924
G1 X178.901 Y156.536 E.24221
G1 X178.324 Y156.536 E.01924
G1 X183.467 Y161.68 E.24221
G1 X182.89 Y161.68 E.01924
G1 X177.746 Y156.536 E.24221
G1 X177.168 Y156.536 E.01924
G1 X182.495 Y161.863 E.25084
G1 E-.84 F1800
;WIPE_START
G1 F3600
G1 X181.788 Y161.156 E-.36
;WIPE_END
G1 Z.6 F7200
G1 X185.616 Y162.672 Z.6
G1 Z.2
G1 E1.2 F1800
G1 F3600
G1 X190.943 Y167.999 E.25084
G1 X190.943 Y168.577 E.01924
G1 X185.799 Y163.434 E.24221
G1 X185.799 Y164.011 E.01924
G1 X190.943 Y169.155 E.24221
G1 X190.943 Y169.733 E.01924
G1 X185.799 Y164.589 E.24221
G1 X185.799 Y165.167 E.01924
G1 X191.126 Y170.494 E.25084
G1 E-.84 F1800
;WIPE_START
G1 F3600
G1 X190.419 Y169.787 E-.36
;WIPE_END
G1 Z.6 F7200
G1 X197.763 Y171.353 Z.6
G1 Z.2
G1 E1.2 F1800
G1 F3600
G1 X198.443 Y172.032 E.032
G1 X198.443 Y172.61 E.01924
G1 X197.369 Y171.536 E.05059
G1 X196.791 Y171.536 E.01924
G1 X198.443 Y173.188 E.0778
G1 X198.443 Y173.766 E.01924
G1 X196.213 Y171.536 E.10501
G1 X195.635 Y171.536 E.01924
G1 X198.443 Y174.344 E.13222
G1 X198.443 Y174.922 E.01924
G1 X195.057 Y171.536 E.15943
G1 X194.479 Y171.536 E.01924
G1 X198.443 Y175.499 E.18664
G1 X198.443 Y176.077 E.01924
G1 X193.901 Y171.536 E.21385
G1 X193.324 Y171.536 E.01924
G1 X198.443 Y176.655 E.24106
G1 X198.443 Y177.233 E.01924
G1 X192.746 Y171.536 E.26827
G1 X192.168 Y171.536 E.01924
G1 X198.443 Y177.811 E.29548
G1 X198.443 Y178.389 E.01924
M73 P1 R125
G1 X185.799 Y165.745 E.59538
G1 X185.799 Y166.323 E.01924
G1 X198.443 Y178.967 E.59538
G1 X198.443 Y179.545 E.01924
G1 X185.799 Y166.901 E.59538
G1 X185.799 Y167.479 E.01924
G1 X198.443 Y180.122 E.59538
G1 X198.443 Y180.7 E.01924
G1 X185.799 Y168.056 E.59538
G1 X185.799 Y168.634 E.01924
G1 X198.443 Y181.278 E.59538
G1 X198.443 Y181.856 E.01924
G1 X185.799 Y169.212 E.59538
G1 X185.799 Y169.79 E.01924
G1 X198.443 Y182.434 E.59538
G1 X198.443 Y183.012 E.01924
G1 X193.299 Y177.868 E.24221
G1 X193.299 Y178.446 E.01924
G1 X198.443 Y183.59 E.24221
G1 X198.443 Y184.167 E.01924
G1 X193.299 Y179.024 E.24221
G1 X193.299 Y179.601 E.01924
G1 X197.877 Y184.18 E.21558
G1 X197.299 Y184.18 E.01924
G1 X193.299 Y180.179 E.18837
G1 X193.299 Y180.757 E.01924
G1 X196.722 Y184.18 E.16116
G1 X196.144 Y184.18 E.01924
G1 X193.299 Y181.335 E.13395
G1 X193.299 Y181.913 E.01924
G1 X195.566 Y184.18 E.10674
G1 X194.988 Y184.18 E.01924
