; HEADER_BLOCK_START
; generated by OrcaSlicer 2.0.0 on 2024-06-14 at 10:58:14
; total layer number: 15
; filament_density: 1.24
; filament_diameter: 1.75
; max_z_height: 3.00
; HEADER_BLOCK_END

; THUMBNAIL_BLOCK_START

;
; THUMBNAIL_BLOCK_END

; THUMBNAIL_BLOCK_START

;
; THUMBNAIL_BLOCK_END

; external perimeters extrusion width = 0.45mm
; perimeters extrusion width = 0.45mm
; infill extrusion width = 0.45mm
; solid infill extrusion width = 0.45mm
; top infill extrusion width = 0.40mm

; external perimeters extrusion width = 0.45mm
; perimeters extrusion width = 0.45mm
; infill extrusion width = 0.45mm
; solid infill extrusion width = 0.45mm
; top infill extrusion width = 0.40mm

; external perimeters extrusion width = 0.45mm
; perimeters extrusion width = 0.45mm
; infill extrusion width = 0.45mm
; solid infill extrusion width = 0.45mm
; top infill extrusion width = 0.40mm

; EXECUTABLE_BLOCK_START
M73 P0 R32
M201 X5000 Y5000 Z500 E5000
M203 X500 Y500 Z30 E100
M204 P5000 R2500 T5000 ; sets acceleration (P, T) and retract acceleration (R), mm/sec^2
M205 X10.00 Y10.00 Z0.40 E5.00 ; sets the jerk limits, mm/sec
;TYPE:Custom
M220 S100 ;Reset Feedrate 
M221 S100 ;Reset Flowrate 
 
M140 S55 ;Set final bed temp 
G28 ;Home 
M420 S1; Enable mesh leveling 
G92 E0 ;Reset Extruder 
G1 Z2.0 F3000 ;Move Z Axis up 
M104 S220 ;Set final nozzle temp 
G1 X-2.1 Y20 Z0.28 F5000.0 ;Move to start position 
M190 S55 ;Wait for bed temp to stabilize 
M109 S220 ;Wait for nozzle temp to stabilize 
G1 X-2.1 Y145.0 Z0.28 F1500.0 E15 ;Draw the first line 
G1 X-2.4 Y145.0 Z0.28 F5000.0 ;Move to side a little 
G1 X-2.4 Y20 Z0.28 F1500.0 E30 ;Draw the second line 
G92 E0  ;Reset Extruder 
G1 E-1.0000 F1800 ;Retract a bit 
M73 P0 R31
G1 Z2.0 F3000 ;Move Z Axis up 
G1 E0.0000 F1800
G90
G21
M83 ; use relative distances for extrusion
; filament start gcode
M106 S0
;LAYER_CHANGE
;Z:0.2
;HEIGHT:0.2
;BEFORE_LAYER_CHANGE
;0.2
G92 E0

G1 E-1.2 F1800
;_SET_FAN_SPEED_CHANGING_LAYER
M204 P300
M204 T300
G1 Z.4 F7200
G1 X97.021 Y70.376
G1 Z.4
G1 Z.2
G1 E1.2 F1800
;TYPE:Skirt
;WIDTH:0.45
G1 F3000
G1 X100.596 Y65.447 E.20198
G1 X101.962 Y64.525 E.05467
G1 X108.851 Y62.806 E.23552
G1 X110.223 Y62.868 E.04555
G1 X111.354 Y63.691 E.04641
G1 X151.15 Y116.378 E2.19025
G1 X151.637 Y117.828 E.05076
G1 X151.637 Y154.928 E1.23067
G1 X151.245 Y156.245 E.04555
G1 X150.197 Y157.132 E.04555
G1 X149.23 Y157.336 E.0328
G1 X97.13 Y157.336 E1.72825
G1 X95.69 Y156.858 E.05032
G1 X69.357 Y137.204 E1.08997
G1 X68.536 Y136.103 E.04555
G1 X68.406 Y134.995 E.03702
G1 X71.853 Y105.596 E.98189
G1 X72.295 Y104.463 E.04035
G1 X96.997 Y70.408 E1.39558
; printing object tile03.stl id:0 copy 0
G1 E-.84 F1800
;WIPE_START
G1 F3000
G1 X97.585 Y69.599 E-.36
;WIPE_END
G1 Z.6 F7200
G1 X105.153 Y80.779 Z.6
G1 Z.2
G1 E1.2 F1800
;TYPE:Inner wall
;WIDTH:0.449999
G1 X105.14 Y80.793 E.00064
G1 X105.061 Y81.008 E.00759
G1 X105.071 Y81.255 E.00822
M73 P1 R31
G1 X107.015 Y89.048 E.26643
G1 X107.201 Y89.288 E.01006
G1 X107.437 Y89.407 E.00879
G1 X107.734 Y89.407 E.00983
G1 X114.418 Y87.739 E.22853
G1 X117.646 Y100.679 E.44237
G1 X111.983 Y102.091 E.19359
G1 X110.316 Y95.407 E.22853
G1 X110.209 Y95.183 E.00822
G1 X110.038 Y95.031 E.00759
G1 X109.823 Y94.952 E.00759
G1 X109.576 Y94.962 E.00822
G1 X101.869 Y96.884 E.26348
G1 X101.646 Y96.992 E.00822
G1 X101.493 Y97.162 E.00759
G1 X101.414 Y97.377 E.00759
G1 X101.424 Y97.624 E.00822
G1 X103.091 Y104.309 E.22853
G1 X97.429 Y105.721 E.19359
G1 X94.202 Y92.782 E.44237
G1 X100.457 Y91.222 E.21384
G1 X101.028 Y91.06 E.01969
G1 X101.239 Y90.871 E.00941
G1 X101.327 Y90.684 E.00687
G1 X101.331 Y90.374 E.01027
G1 X97.849 Y76.413 E.47732
G1 X104.533 Y74.745 E.22853
G1 X104.757 Y74.638 E.00822
G1 X104.909 Y74.467 E.00759
G1 X104.988 Y74.253 E.00759
G1 X104.978 Y74.005 E.00822
G1 X103.311 Y67.321 E.22853
G1 X108.973 Y65.908 E.19359
G1 X112.2 Y78.848 E.44237
G1 X105.516 Y80.515 E.22853
G1 X105.293 Y80.622 E.00822
G1 X105.18 Y80.749 E.00562
G1 X105.489 Y81.003 F7200
;TYPE:Outer wall
G1 F1800
G1 X105.466 Y81.157 E.00517
G1 X107.388 Y88.864 E.26348
G1 X107.493 Y88.995 E.00559
G1 X107.635 Y89.012 E.00474
G1 X114.715 Y87.246 E.24204
G1 X118.139 Y100.975 E.46938
G1 X111.687 Y102.585 E.22059
G1 X109.921 Y95.505 E.24204
G1 X109.828 Y95.38 E.00517
G1 X109.674 Y95.357 E.00517
G1 X101.967 Y97.279 E.26348
G1 X101.842 Y97.372 E.00517
G1 X101.819 Y97.526 E.00517
G1 X103.585 Y104.605 E.24204
G1 X97.133 Y106.215 E.22059
G1 X93.708 Y92.485 E.46938
G1 X100.788 Y90.72 E.24204
G1 X100.906 Y90.639 E.00474
G1 X100.936 Y90.473 E.00559
G1 X97.355 Y76.116 E.49083
G1 X104.435 Y74.35 E.24204
G1 X104.56 Y74.258 E.00517
G1 X104.583 Y74.104 E.00517
G1 X102.817 Y67.024 E.24204
G1 X109.27 Y65.415 E.22059
G1 X112.694 Y79.144 E.46938
G1 X105.614 Y80.91 E.24204
G1 X105.521 Y80.979 E.00384
G1 E-.84
;WIPE_START
G1 X105.466 Y81.157 E-.06704
G1 X105.663 Y81.946 E-.29296
;WIPE_END
G1 Z.6 F7200
G1 X109.129 Y67.207
G1 Z.6
G1 Z.2
G1 E1.2 F1800
;TYPE:Bottom surface
;WIDTH:0.451146
G1 F3600
G1 X108.344 Y66.422 E.03693
G1 X107.882 Y66.537 E.01584
G1 X109.07 Y67.725 E.05586
G1 X109.261 Y68.494 E.02637
G1 X107.42 Y66.652 E.08663
G1 X106.958 Y66.768 E.01584
G1 X109.453 Y69.263 E.11739
G1 X109.645 Y70.032 E.02637
G1 X106.496 Y66.883 E.14815
G1 X106.034 Y66.998 E.01584
G1 X109.837 Y70.801 E.17892
G1 X110.029 Y71.57 E.02637
G1 X105.572 Y67.113 E.20968
G1 X105.11 Y67.229 E.01584
G1 X110.221 Y72.339 E.24044
G1 X110.412 Y73.109 E.02637
G1 X104.648 Y67.344 E.2712
G1 X104.185 Y67.459 E.01584
G1 X110.604 Y73.878 E.30197
G1 X110.796 Y74.647 E.02637
G1 X103.733 Y67.584 E.33227
G1 X103.925 Y68.353 E.02637
G1 X110.988 Y75.416 E.33227
G1 X111.18 Y76.185 E.02637
G1 X104.117 Y69.122 E.33227
G1 X104.309 Y69.891 E.02637
G1 X111.372 Y76.954 E.33227
G1 X111.563 Y77.724 E.02637
G1 X104.5 Y70.661 E.33227
G1 X104.692 Y71.43 E.02637
G1 X111.755 Y78.493 E.33227
G1 X111.781 Y78.596 E.00353
G1 X111.381 Y78.696 E.01372
G1 X104.884 Y72.199 E.30563
G1 X105.076 Y72.968 E.02637
G1 X110.919 Y78.811 E.27487
G1 X110.457 Y78.926 E.01584
G1 X105.268 Y73.737 E.2441
G1 X105.342 Y74.116 E.01285
G1 X105.316 Y74.363 E.00824
G1 X109.995 Y79.041 E.22011
G1 X109.533 Y79.157 E.01584
G1 X105.128 Y74.752 E.2072
G1 X104.967 Y74.914 E.00759
G1 X104.809 Y75.011 E.00616
G1 X109.07 Y79.272 E.20046
G1 X108.608 Y79.387 E.01584
G1 X104.365 Y75.144 E.19961
G1 X103.903 Y75.259 E.01584
G1 X108.146 Y79.502 E.19961
G1 X107.684 Y79.618 E.01584
G1 X103.441 Y75.374 E.19961
G1 X102.979 Y75.49 E.01584
G1 X107.222 Y79.733 E.19961
G1 X106.76 Y79.848 E.01584
G1 X102.517 Y75.605 E.19961
G1 X102.055 Y75.72 E.01584
G1 X106.298 Y79.963 E.19961
G1 X105.836 Y80.079 E.01584
M73 P2 R31
G1 X101.593 Y75.835 E.19961
G1 X101.131 Y75.951 E.01584
G1 X105.378 Y80.198 E.19981
G1 X105.247 Y80.246 E.00465
G1 X105.082 Y80.347 E.00642
G1 X105.014 Y80.411 E.00312
G1 X100.669 Y76.066 E.2044
G1 X100.207 Y76.181 E.01584
G1 X104.777 Y80.752 E.21501
G1 X104.719 Y80.951 E.00692
G1 X104.707 Y81.144 E.00642
G1 X104.726 Y81.278 E.0045
G1 X99.745 Y76.296 E.23435
G1 X99.283 Y76.412 E.01584
G1 X104.91 Y82.039 E.26475
G1 X105.102 Y82.808 E.02637
G1 X98.82 Y76.527 E.29551
G1 X98.358 Y76.642 E.01584
G1 X105.294 Y83.578 E.32627
G1 X105.486 Y84.347 E.02637
G1 X98.423 Y77.284 E.33227
G1 X98.614 Y78.053 E.02637
G1 X105.678 Y85.116 E.33227
G1 X105.869 Y85.885 E.02637
G1 X98.806 Y78.822 E.33227
G1 X98.998 Y79.591 E.02637
G1 X106.061 Y86.654 E.33227
G1 X106.253 Y87.423 E.02637
G1 X99.19 Y80.36 E.33227
G1 X99.382 Y81.13 E.02637
G1 X106.696 Y88.444 E.34411
G1 E-.84 F1800
;WIPE_START
G1 F3600
G1 X105.989 Y87.737 E-.36
;WIPE_END
G1 Z.6 F7200
G1 X113.815 Y88.058 Z.6
G1 Z.2
G1 E1.2 F1800
G1 F3600
G1 X114.249 Y88.492 E.02042
G1 X114.441 Y89.261 E.02637
G1 X113.504 Y88.324 E.04408
G1 X113.042 Y88.439 E.01584
G1 X114.633 Y90.03 E.07484
G1 X114.825 Y90.799 E.02637
G1 X112.58 Y88.555 E.1056
G1 X112.118 Y88.67 E.01584
G1 X115.017 Y91.569 E.13637
G1 X115.208 Y92.338 E.02637
G1 X111.656 Y88.785 E.16713
G1 X111.194 Y88.9 E.01584
G1 X115.4 Y93.107 E.19789
G1 X115.592 Y93.876 E.02637
G1 X110.732 Y89.016 E.22865
G1 X110.27 Y89.131 E.01584
G1 X115.784 Y94.645 E.25942
G1 X115.976 Y95.414 E.02637
G1 X109.808 Y89.246 E.29018
G1 X109.346 Y89.361 E.01584
G1 X116.168 Y96.183 E.32094
G1 X116.36 Y96.953 E.02637
G1 X108.883 Y89.477 E.35171
G1 X108.421 Y89.592 E.01584
G1 X116.551 Y97.722 E.38247
G1 X116.743 Y98.491 E.02637
G1 X107.808 Y89.556 E.42034
G1 E-.84 F1800
;WIPE_START
G1 F3600
G1 X108.515 Y90.263 E-.36
;WIPE_END
G1 Z.6 F7200
G1 X99.322 Y81.647 Z.6
G1 Z.2
G1 E1.2 F1800
G1 F3600
G1 X116.935 Y99.26 E.82859
G1 X117.127 Y100.029 E.02637
G1 X99.766 Y82.668 E.81675
G1 X99.957 Y83.437 E.02637
G1 X117.003 Y100.483 E.80189
G1 X116.541 Y100.598 E.01584
G1 X100.149 Y84.206 E.77113
G1 X100.341 Y84.975 E.02637
G1 X116.079 Y100.713 E.74037
G1 X115.617 Y100.828 E.01584
G1 X110.831 Y96.043 E.22513
G1 X111.023 Y96.812 E.02637
G1 X115.155 Y100.944 E.19436
G1 X114.693 Y101.059 E.01584
G1 X111.215 Y97.581 E.1636
G1 X111.407 Y98.35 E.02637
G1 X114.23 Y101.174 E.13284
G1 X113.768 Y101.289 E.01584
G1 X111.599 Y99.12 E.10208
G1 X111.79 Y99.889 E.02637
G1 X113.306 Y101.405 E.07131
G1 X112.844 Y101.52 E.01584
G1 X111.982 Y100.658 E.04055
G1 X112.174 Y101.427 E.02637
G1 X112.533 Y101.786 E.0169
G1 E-.84 F1800
;WIPE_START
G1 F3600
G1 X112.174 Y101.427 E-.18286
G1 X112.055 Y100.95 E-.17714
;WIPE_END
G1 Z.6 F7200
G1 X109.586 Y94.797 Z.6
G1 Z.2
G1 E1.2 F1800
G1 F3600
G1 X100.533 Y85.745 E.42587
G1 X100.725 Y86.514 E.02637
G1 X108.968 Y94.757 E.38779
G1 X108.506 Y94.872 E.01584
G1 X100.917 Y87.283 E.35703
G1 X101.108 Y88.052 E.02637
G1 X108.044 Y94.987 E.32627
G1 X107.582 Y95.103 E.01584
G1 X101.3 Y88.821 E.29551
G1 X101.492 Y89.59 E.02637
G1 X107.12 Y95.218 E.26474
G1 X106.658 Y95.333 E.01584
G1 X101.677 Y90.352 E.23432
G1 X101.694 Y90.465 E.0038
G1 X101.69 Y90.631 E.00551
G1 X101.626 Y90.879 E.00852
G1 X106.196 Y95.448 E.21499
G1 X105.733 Y95.564 E.01584
G1 X101.391 Y91.221 E.2043
G1 X101.192 Y91.366 E.00819
G1 X101.023 Y91.431 E.006
G1 X105.271 Y95.679 E.19984
G1 X104.809 Y95.794 E.01584
G1 X100.566 Y91.551 E.19961
G1 X100.104 Y91.666 E.01584
G1 X104.347 Y95.909 E.19961
G1 X103.885 Y96.025 E.01584
G1 X99.642 Y91.782 E.19961
G1 X99.18 Y91.897 E.01584
G1 X103.423 Y96.14 E.19961
G1 X102.961 Y96.255 E.01584
G1 X98.718 Y92.012 E.19961
G1 X98.256 Y92.127 E.01584
G1 X102.499 Y96.37 E.19961
G1 X102.04 Y96.489 E.01577
G1 X97.794 Y92.243 E.19976
G1 X97.332 Y92.358 E.01584
G1 X101.595 Y96.621 E.20056
G1 X101.436 Y96.715 E.00614
G1 X101.274 Y96.877 E.00763
G1 X96.87 Y92.473 E.2072
G1 X96.408 Y92.588 E.01584
M73 P3 R31
G1 X101.086 Y97.267 E.22011
G1 X101.06 Y97.513 E.00823
G1 X101.134 Y97.892 E.01286
G1 X95.946 Y92.704 E.24411
G1 X95.483 Y92.819 E.01584
G1 X101.326 Y98.662 E.27487
G1 X101.518 Y99.431 E.02637
G1 X95.021 Y92.934 E.30563
G1 X94.621 Y93.034 E.01372
G1 X94.647 Y93.137 E.00353
G1 X101.71 Y100.2 E.33227
G1 X101.902 Y100.969 E.02637
G1 X94.839 Y93.906 E.33227
G1 X95.031 Y94.675 E.02637
G1 X102.094 Y101.738 E.33227
G1 X102.285 Y102.507 E.02637
G1 X95.222 Y95.444 E.33227
G1 X95.414 Y96.214 E.02637
G1 X102.477 Y103.277 E.33227
G1 X102.669 Y104.046 E.02637
G1 X95.606 Y96.983 E.33227
G1 X95.798 Y97.752 E.02637
G1 X102.217 Y104.171 E.30196
G1 X101.755 Y104.286 E.01584
G1 X95.99 Y98.521 E.2712
G1 X96.182 Y99.29 E.02637
G1 X101.293 Y104.401 E.24044
G1 X100.83 Y104.516 E.01584
G1 X96.373 Y100.059 E.20967
G1 X96.565 Y100.828 E.02637
G1 X100.368 Y104.632 E.17891
G1 X99.906 Y104.747 E.01584
G1 X96.757 Y101.598 E.14815
G1 X96.949 Y102.367 E.02637
G1 X99.444 Y104.862 E.11739
G1 X98.982 Y104.977 E.01584
G1 X97.141 Y103.136 E.08662
G1 X97.333 Y103.905 E.02637
G1 X98.52 Y105.093 E.05586
G1 X98.058 Y105.208 E.01584
G1 X97.273 Y104.423 E.03693
G1 E-.84 F1800
;WIPE_START
G1 F3600
G1 X97.98 Y105.13 E-.36
;WIPE_END
G1 Z.6 F7200
G1 X109.52 Y69.016 Z.6
G1 Z.2
G1 E1.2 F1800
;TYPE:Gap infill
;WIDTH:0.205899
G1 X109.334 Y68.687 E.00501
G1 E-.84
;WIPE_START
G1 X109.52 Y69.016 E-.36
;WIPE_END
G1 Z.6 F7200
G1 X117.3 Y100.555 Z.6
G1 Z.2
G1 E1.2 F1800
;WIDTH:0.19339
G1 X117.302 Y100.442 E.00139
G1 X117.239 Y100.2 E.00306
; stop printing object tile03.stl id:0 copy 0
; printing object tile01.stl id:0 copy 0
G1 E-.84
;WIPE_START
G1 X117.302 Y100.442 E-.24753
G1 X117.3 Y100.555 E-.11247
;WIPE_END
G1 Z.6 F7200
G1 X86.66 Y121.57 Z.6
G1 Z.2
G1 E1.2 F1800
;TYPE:Inner wall
;WIDTH:0.449999
G1 X86.531 Y121.694 E.00594
G1 X86.419 Y121.983 E.01027
G1 X85.483 Y129.96 E.26643
G1 X85.572 Y130.25 E.01006
M73 P3 R30
G1 X85.752 Y130.444 E.00879
G1 X86.029 Y130.549 E.00983
G1 X92.872 Y131.351 E.22853
G1 X91.319 Y144.596 E.44237
G1 X85.523 Y143.917 E.19359
G1 X86.325 Y137.074 E.22853
G1 X86.303 Y136.828 E.00822
G1 X86.197 Y136.625 E.00759
G1 X86.024 Y136.475 E.00759
G1 X85.789 Y136.397 E.00822
G1 X71.498 Y134.721 E.47732
G1 X72.178 Y128.925 E.19359
G1 X79.134 Y129.741 E.23233
G1 X79.436 Y129.624 E.01075
G1 X79.585 Y129.48 E.00687
G1 X79.698 Y129.192 E.01027
G1 X80.633 Y121.215 E.26642
G1 X80.544 Y120.925 E.01006
G1 X80.364 Y120.73 E.00879
G1 X80.087 Y120.625 E.00983
G1 X73.245 Y119.823 E.22853
G1 X74.797 Y106.578 E.44237
G1 X80.594 Y107.258 E.19359
G1 X79.791 Y114.1 E.22853
G1 X79.813 Y114.347 E.00822
G1 X79.919 Y114.55 E.00759
G1 X80.092 Y114.7 E.00759
G1 X80.327 Y114.778 E.00822
G1 X88.216 Y115.703 E.26348
G1 X88.462 Y115.681 E.00822
G1 X88.665 Y115.575 E.00759
G1 X88.815 Y115.402 E.00759
G1 X88.893 Y115.167 E.00822
G1 X89.695 Y108.325 E.22853
G1 X95.492 Y109.004 E.19359
G1 X93.939 Y122.249 E.44237
G1 X87.536 Y121.499 E.21384
G1 X86.945 Y121.448 E.01969
G1 X86.691 Y121.546 E.00902
G1 X86.91 Y121.886 F7200
;TYPE:Outer wall
G1 F1800
G1 X86.823 Y122.03 E.00559
G1 X85.898 Y129.919 E.26348
G1 X85.949 Y130.079 E.00559
G1 X86.077 Y130.145 E.00474
G1 X93.323 Y130.994 E.24204
G1 X91.676 Y145.048 E.46938
G1 X85.071 Y144.274 E.22059
G1 X85.921 Y137.027 E.24204
G1 X85.878 Y136.877 E.00517
G1 X85.742 Y136.801 E.00517
G1 X71.046 Y135.078 E.49082
G1 X71.821 Y128.473 E.22059
G1 X79.067 Y129.323 E.24204
G1 X79.206 Y129.289 E.00474
G1 X79.293 Y129.145 E.00559
G1 X80.218 Y121.256 E.26348
G1 X80.167 Y121.095 E.00559
G1 X80.04 Y121.03 E.00474
G1 X72.793 Y120.18 E.24204
G1 X74.441 Y106.126 E.46938
G1 X81.045 Y106.901 E.22059
G1 X80.196 Y114.148 E.24204
G1 X80.238 Y114.297 E.00517
G1 X80.374 Y114.373 E.00517
G1 X88.263 Y115.298 E.26348
G1 X88.413 Y115.256 E.00517
G1 X88.489 Y115.12 E.00517
G1 X89.339 Y107.873 E.24204
G1 X95.943 Y108.647 E.22059
M73 P4 R30
G1 X94.296 Y122.701 E.46938
G1 X87.049 Y121.852 E.24204
G1 X86.949 Y121.876 E.00341
G1 E-.84
;WIPE_START
G1 X86.823 Y122.03 E-.07155
G1 X86.73 Y122.826 E-.28845
;WIPE_END
G1 Z.6 F7200
G1 X95.224 Y109.887 Z.6
G1 Z.2
G1 E1.2 F1800
;TYPE:Bottom surface
;WIDTH:0.451748
G1 F3600
G1 X94.583 Y109.246 E.0302
G1 X93.928 Y109.169 E.02197
G1 X94.998 Y110.24 E.05042
G1 X94.938 Y110.757 E.01736
G1 X93.273 Y109.093 E.07842
G1 X92.618 Y109.016 E.02197
G1 X94.877 Y111.275 E.10642
G1 X94.816 Y111.792 E.01736
G1 X91.963 Y108.939 E.13442
G1 X91.308 Y108.862 E.02197
G1 X94.756 Y112.31 E.16242
G1 X94.695 Y112.827 E.01736
G1 X90.653 Y108.785 E.19042
G1 X89.999 Y108.709 E.02196
G1 X94.634 Y113.345 E.2184
G1 X94.574 Y113.862 E.01736
G1 X89.938 Y109.227 E.2184
G1 X89.877 Y109.744 E.01736
G1 X94.513 Y114.38 E.2184
G1 X94.452 Y114.897 E.01736
G1 X89.817 Y110.262 E.2184
G1 X89.756 Y110.779 E.01736
G1 X94.392 Y115.415 E.2184
G1 X94.331 Y115.932 E.01736
G1 X89.695 Y111.297 E.2184
G1 X89.635 Y111.814 E.01736
G1 X94.27 Y116.45 E.2184
G1 X94.21 Y116.967 E.01736
G1 X89.574 Y112.332 E.2184
G1 X89.513 Y112.849 E.01736
G1 X94.149 Y117.485 E.2184
G1 X94.088 Y118.002 E.01736
G1 X89.453 Y113.367 E.2184
G1 X89.392 Y113.884 E.01736
G1 X94.028 Y118.52 E.2184
G1 X93.967 Y119.037 E.01736
G1 X89.331 Y114.402 E.2184
G1 X89.271 Y114.919 E.01736
G1 X93.906 Y119.555 E.2184
G1 X93.846 Y120.072 E.01736
G1 X89.188 Y115.415 E.21943
G1 X89.115 Y115.576 E.0059
G1 X88.963 Y115.768 E.00816
G1 X93.785 Y120.59 E.22716
G1 X93.724 Y121.107 E.01736
G1 X88.61 Y115.993 E.24093
G1 X88.372 Y116.05 E.00815
G1 X88.073 Y116.034 E.00997
