; HEADER_BLOCK_START
; generated by OrcaSlicer 2.0.0 on 2024-05-12 at 16:57:02
; total layer number: 15
; filament_density: 1.24
; filament_diameter: 1.75
; max_z_height: 3.00
; HEADER_BLOCK_END

; THUMBNAIL_BLOCK_START

;
; THUMBNAIL_BLOCK_END

; THUMBNAIL_BLOCK_START

;
; THUMBNAIL_BLOCK_END

; external perimeters extrusion width = 0.45mm
; perimeters extrusion width = 0.45mm
; infill extrusion width = 0.45mm
; solid infill extrusion width = 0.45mm
; top infill extrusion width = 0.40mm

; EXECUTABLE_BLOCK_START
M73 P0 R9
M201 X5000 Y5000 Z500 E5000
M203 X500 Y500 Z30 E100
M204 P5000 R2500 T5000 ; sets acceleration (P, T) and retract acceleration (R), mm/sec^2
M205 X10.00 Y10.00 Z0.40 E5.00 ; sets the jerk limits, mm/sec
;TYPE:Custom
M220 S100 ;Reset Feedrate 
M221 S100 ;Reset Flowrate 
 
M140 S55 ;Set final bed temp 
G28 ;Home 
M420 S1; Enable mesh leveling 
G92 E0 ;Reset Extruder 
G1 Z2.0 F3000 ;Move Z Axis up 
M104 S220 ;Set final nozzle temp 
G1 X-2.1 Y20 Z0.28 F5000.0 ;Move to start position 
M190 S55 ;Wait for bed temp to stabilize 
M109 S220 ;Wait for nozzle temp to stabilize 
G1 X-2.1 Y145.0 Z0.28 F1500.0 E15 ;Draw the first line 
G1 X-2.4 Y145.0 Z0.28 F5000.0 ;Move to side a little 
G1 X-2.4 Y20 Z0.28 F1500.0 E30 ;Draw the second line 
G92 E0  ;Reset Extruder 
G1 E-1.0000 F1800 ;Retract a bit 
M73 P1 R9
G1 Z2.0 F3000 ;Move Z Axis up 
G1 E0.0000 F1800
G90
G21
M83 ; use relative distances for extrusion
; filament start gcode
M106 S0
;LAYER_CHANGE
;Z:0.2
;HEIGHT:0.2
;BEFORE_LAYER_CHANGE
;0.2
G92 E0

G1 E-1.2 F1800
;_SET_FAN_SPEED_CHANGING_LAYER
M204 P300
M204 T300
G1 Z.4 F7200
G1 X86.911 Y88.386
G1 Z.4
M73 P2 R9
G1 Z.2
G1 E1.2 F1800
;TYPE:Skirt
;WIDTH:0.45
G1 F3000
G1 X87.905 Y87.439 E.04555
G1 X89.571 Y87.245 E.05565
G1 X131.448 Y97.494 E1.43014
G1 X132.96 Y98.628 E.0627
G1 X138.834 Y108.796 E.38953
G1 X139.153 Y110.132 E.04555
G1 X138.834 Y111.204 E.03712
G1 X132.96 Y121.372 E.38953
G1 X132.073 Y122.256 E.04154
G1 X114.197 Y132.505 E.68353
G1 X112.861 Y132.82 E.04555
G1 X111.803 Y132.505 E.03661
G1 X93.928 Y122.256 E.6835
G1 X93.043 Y121.375 E.04142
G1 X81.164 Y100.815 E.78767
G1 X80.847 Y99.479 E.04555
G1 X81.162 Y98.417 E.03674
G1 X86.891 Y88.421 E.38219
; printing object Evil_D.stl id:0 copy 0
G1 E-.84 F1800
;WIPE_START
G1 F3000
G1 X87.609 Y87.725 E-.36
;WIPE_END
G1 Z.6 F7200
G1 X125.876 Y110.374 Z.6
G1 Z.2
G1 E1.2 F1800
;TYPE:Inner wall
;WIDTH:0.449999
M73 P3 R9
G1 X125.92 Y110.158 E.00731
G1 X125.839 Y109.874 E.0098
G1 X120.403 Y100.428 E.36152
G1 X130.51 Y100.463 E.33528
G1 X136.02 Y110 E.36536
G1 X130.511 Y119.536 E.36531
G1 X118.779 Y119.531 E.38918
G1 X118.495 Y119.652 E.01023
G1 X118.33 Y119.838 E.00827
G1 X113 Y129.145 E.35576
G1 X107.639 Y119.782 E.35788
G1 X107.427 Y119.602 E.00924
G1 X107.141 Y119.531 E.00978
G1 X95.49 Y119.536 E.3865
G1 X83.979 Y99.613 E.76325
G1 X89 Y90.852 E.33494
M73 P3 R8
G1 X100.329 Y110.549 E.75374
G1 X100.553 Y110.773 E.01049
G1 X100.859 Y110.855 E.01051
G1 X125.393 Y110.789 E.81384
G1 X125.677 Y110.666 E.01027
M73 P4 R8
G1 X125.862 Y110.439 E.00972
G1 X125.868 Y110.413 E.00089
G1 X125.501 Y110.248 F7200
;TYPE:Outer wall
G1 F1800
G1 X125.486 Y110.077 E.00571
G1 X119.698 Y100.018 E.38497
G1 X130.746 Y100.057 E.36648
G1 X136.49 Y110 E.38093
G1 X130.746 Y119.943 E.38091
G1 X118.807 Y119.938 E.39604
G1 X118.683 Y120.04 E.00534
G1 X113 Y129.964 E.37935
G1 X107.296 Y120.002 E.3808
G1 X107.141 Y119.938 E.00556
G1 X95.255 Y119.943 E.3943
G1 X83.51 Y99.614 E.77882
G1 X88.999 Y90.035 E.36623
G1 X100.698 Y110.373 E.77829
G1 X100.859 Y110.448 E.00589
M73 P5 R8
G1 X125.385 Y110.382 E.8136
G1 X125.475 Y110.278 E.00454
G1 E-.84
;WIPE_START
G1 X125.486 Y110.077 E-.07268
G1 X125.088 Y109.385 E-.28732
;WIPE_END
G1 Z.6 F7200
G1 X129.58 Y100.622
G1 Z.6
G1 Z.2
G1 E1.2 F1800
;TYPE:Bottom surface
;WIDTH:0.450794
G1 F3600
G1 X131.055 Y102.097 E.06933
G1 X131.844 Y103.463 E.05243
G1 X129.185 Y100.804 E.12498
G1 X128.606 Y100.802 E.01924
G1 X132.633 Y104.829 E.18928
G1 X133.422 Y106.195 E.05243
G1 X128.028 Y100.8 E.25358
G1 X127.449 Y100.798 E.01924
G1 X134.211 Y107.561 E.31787
G1 X135 Y108.927 E.05243
G1 X126.87 Y100.796 E.38217
G1 X126.291 Y100.794 E.01924
G1 X135.575 Y110.078 E.43639
G1 X135.364 Y110.444 E.01403
G1 X125.712 Y100.792 E.45367
G1 X125.133 Y100.79 E.01924
G1 X135.153 Y110.81 E.47094
G1 X134.942 Y111.175 E.01403
G1 X124.555 Y100.788 E.48822
G1 X123.976 Y100.786 E.01924
G1 X134.73 Y111.541 E.5055
G1 X134.519 Y111.906 E.01403
M73 P6 R8
G1 X123.397 Y100.784 E.52278
G1 X122.818 Y100.782 E.01924
G1 X134.308 Y112.272 E.54006
G1 X134.097 Y112.638 E.01403
G1 X122.239 Y100.78 E.55734
G1 X121.66 Y100.778 E.01924
G1 X133.885 Y113.003 E.57462
G1 X133.674 Y113.369 E.01403
G1 X121.082 Y100.776 E.5919
G1 X121.003 Y100.776 E.00262
G1 X121.678 Y101.95 E.045
G1 X133.463 Y113.734 E.55393
G1 X133.252 Y114.1 E.01403
G1 X122.46 Y103.308 E.50725
G1 X123.242 Y104.667 E.05211
G1 X133.041 Y114.466 E.46056
G1 X132.829 Y114.831 E.01403
G1 X124.024 Y106.026 E.41388
G1 X124.806 Y107.385 E.05211
G1 X132.618 Y115.197 E.3672
G1 X132.407 Y115.563 E.01403
G1 X125.588 Y108.744 E.32051
G1 X126.142 Y109.706 E.03692
G1 X126.207 Y109.844 E.00507
G1 X126.244 Y109.977 E.00457
G1 X132.196 Y115.928 E.27974
G1 X131.985 Y116.294 E.01403
G1 X126.202 Y110.511 E.27182
G1 X126.14 Y110.655 E.00521
G1 X126.043 Y110.795 E.00567
G1 X125.974 Y110.86 E.00314
G1 X131.773 Y116.659 E.27259
G1 X131.562 Y117.025 E.01403
G1 X125.621 Y111.084 E.27927
G1 X125.475 Y111.121 E.00502
M73 P7 R8
G1 X125.096 Y111.136 E.01259
G1 X131.351 Y117.391 E.29401
G1 X131.14 Y117.756 E.01403
G1 X124.521 Y111.137 E.31112
G1 X123.945 Y111.139 E.01912
G1 X130.929 Y118.122 E.32823
G1 X130.717 Y118.487 E.01403
G1 X123.37 Y111.14 E.34534
G1 X122.795 Y111.142 E.01912
G1 X130.506 Y118.853 E.36245
G1 X130.312 Y119.19 E.01292
G1 X130.266 Y119.19 E.00152
G1 X122.22 Y111.143 E.3782
G1 X121.644 Y111.145 E.01912
G1 X129.689 Y119.189 E.37812
G1 X129.112 Y119.189 E.01918
G1 X121.069 Y111.146 E.37804
G1 X120.494 Y111.148 E.01912
G1 X128.535 Y119.189 E.37795
G1 X127.958 Y119.189 E.01918
G1 X119.919 Y111.15 E.37787
G1 X119.343 Y111.151 E.01912
G1 X127.381 Y119.188 E.37778
G1 X126.804 Y119.188 E.01918
G1 X118.768 Y111.153 E.3777
G1 X118.193 Y111.154 E.01912
G1 X126.227 Y119.188 E.37761
G1 X125.649 Y119.188 E.01918
G1 X117.618 Y111.156 E.37753
G1 X117.042 Y111.157 E.01912
G1 X125.072 Y119.187 E.37745
G1 X124.495 Y119.187 E.01918
G1 X116.467 Y111.159 E.37736
G1 X115.892 Y111.16 E.01912
M73 P8 R8
G1 X123.918 Y119.187 E.37728
G1 X123.341 Y119.187 E.01918
G1 X115.316 Y111.162 E.37719
G1 X114.741 Y111.164 E.01912
G1 X122.764 Y119.187 E.37711
G1 X122.187 Y119.186 E.01918
G1 X114.166 Y111.165 E.37702
G1 X113.591 Y111.167 E.01912
G1 X121.61 Y119.186 E.37694
G1 X121.033 Y119.186 E.01918
G1 X113.015 Y111.168 E.37685
G1 X112.44 Y111.17 E.01912
G1 X120.456 Y119.186 E.37677
G1 X119.879 Y119.185 E.01918
G1 X111.865 Y111.171 E.37669
G1 X111.29 Y111.173 E.01912
G1 X119.302 Y119.185 E.3766
G1 X118.735 Y119.195 E.01884
G1 X110.714 Y111.174 E.37701
G1 X110.139 Y111.176 E.01912
G1 X118.323 Y119.36 E.38467
G1 X118.183 Y119.463 E.00577
G1 X118.038 Y119.652 E.00792
G1 X109.564 Y111.178 E.39834
G1 X108.989 Y111.179 E.01912
G1 X117.828 Y120.018 E.41547
G1 X117.618 Y120.385 E.01405
G1 X108.413 Y111.181 E.43264
G1 X107.838 Y111.182 E.01912
G1 X117.408 Y120.752 E.44981
G1 X117.198 Y121.119 E.01405
M73 P9 R8
G1 X107.263 Y111.184 E.46697
G1 X106.687 Y111.185 E.01912
G1 X116.988 Y121.485 E.48414
G1 X116.778 Y121.852 E.01405
G1 X106.112 Y111.187 E.50131
G1 X105.537 Y111.188 E.01912
G1 X116.567 Y122.219 E.51848
G1 X116.357 Y122.586 E.01405
G1 X104.962 Y111.19 E.53564
G1 X104.386 Y111.192 E.01912
G1 X116.147 Y122.953 E.55281
G1 X115.937 Y123.319 E.01405
G1 X103.811 Y111.193 E.56998
G1 X103.236 Y111.195 E.01912
G1 X115.727 Y123.686 E.58714
G1 X115.517 Y124.053 E.01405
G1 X102.661 Y111.196 E.60431
G1 X102.085 Y111.198 E.01912
G1 X115.307 Y124.42 E.62148
G1 X115.097 Y124.786 E.01405
G1 X101.327 Y111.017 E.64723
G1 E-.84 F1800
;WIPE_START
G1 F3600
G1 X102.035 Y111.724 E-.36
;WIPE_END
G1 Z.6 F7200
G1 X89.797 Y92.564 Z.6
G1 Z.2
M73 P10 R8
G1 E1.2 F1800
G1 F3600
G1 X88.92 Y91.688 E.0412
G1 X88.71 Y92.054 E.01405
G1 X90.08 Y93.424 E.06441
G1 X90.861 Y94.782 E.05206
G1 X88.5 Y92.421 E.11099
G1 X88.29 Y92.788 E.01405
G1 X91.642 Y96.14 E.15758
G1 X92.423 Y97.498 E.05206
G1 X88.08 Y93.154 E.20417
G1 X87.869 Y93.521 E.01405
G1 X93.204 Y98.856 E.25076
G1 X93.985 Y100.214 E.05206
G1 X87.659 Y93.888 E.29735
G1 X87.449 Y94.254 E.01405
G1 X94.766 Y101.572 E.34394
G1 X95.547 Y102.929 E.05206
G1 X87.239 Y94.621 E.39053
G1 X87.029 Y94.988 E.01405
G1 X96.328 Y104.287 E.43711
G1 X97.109 Y105.645 E.05206
G1 X86.819 Y95.354 E.4837
G1 X86.609 Y95.721 E.01405
G1 X97.89 Y107.003 E.53029
G1 X98.671 Y108.361 E.05206
G1 X86.398 Y96.088 E.57688
G1 X86.188 Y96.454 E.01405
G1 X99.453 Y109.719 E.62347
G1 X100.033 Y110.728 E.03872
G1 X100.127 Y110.861 E.0054
G1 X100.246 Y110.98 E.00557
G1 X100.379 Y111.073 E.00542
G1 X100.527 Y111.143 E.00545
G1 X100.69 Y111.187 E.00561
G1 X100.935 Y111.201 E.00814
G1 X114.887 Y125.153 E.65581
G1 X114.677 Y125.52 E.01405
G1 X85.978 Y96.821 E1.34896
G1 X85.768 Y97.188 E.01405
M73 P11 R8
G1 X114.467 Y125.887 E1.34896
G1 X114.257 Y126.254 E.01405
G1 X108.376 Y120.373 E.27643
G1 X107.967 Y119.658 E.02737
G1 X107.818 Y119.463 E.00815
G1 X107.594 Y119.298 E.00926
G1 X107.45 Y119.236 E.00521
G1 X107.304 Y119.198 E.00502
G1 X107.192 Y119.189 E.00372
G1 X85.558 Y97.554 E1.0169
G1 X85.348 Y97.921 E.01405
G1 X106.612 Y119.185 E.99949
G1 X106.035 Y119.185 E.01916
G1 X85.137 Y98.288 E.98227
G1 X84.927 Y98.654 E.01405
G1 X105.459 Y119.186 E.96504
G1 X104.882 Y119.186 E.01916
G1 X84.717 Y99.021 E.94782
G1 X84.507 Y99.388 E.01405
G1 X104.305 Y119.186 E.9306
G1 X103.729 Y119.186 E.01916
M73 P12 R8
G1 X84.685 Y100.142 E.89514
G1 X85.474 Y101.508 E.05244
G1 X103.152 Y119.187 E.83094
G1 X102.576 Y119.187 E.01916
G1 X86.263 Y102.874 E.76674
G1 X87.052 Y104.24 E.05244
G1 X101.999 Y119.187 E.70255
G1 X101.423 Y119.187 E.01916
G1 X87.842 Y105.606 E.63835
G1 X88.631 Y106.973 E.05244
G1 X100.846 Y119.188 E.57415
G1 X100.269 Y119.188 E.01916
G1 X89.42 Y108.339 E.50995
G1 X90.209 Y109.705 E.05244
G1 X99.693 Y119.188 E.44575
G1 X99.116 Y119.188 E.01916
G1 X90.999 Y111.071 E.38155
G1 X91.788 Y112.437 E.05244
G1 X98.54 Y119.188 E.31736
G1 X97.963 Y119.189 E.01916
G1 X92.577 Y113.803 E.25316
G1 X93.366 Y115.169 E.05244
G1 X97.386 Y119.189 E.18896
G1 X96.81 Y119.189 E.01916
G1 X94.156 Y116.535 E.12476
G1 X94.945 Y117.901 E.05244
G1 X96.416 Y119.373 E.06917
G1 E-.84 F1800
;WIPE_START
G1 F3600
G1 X95.709 Y118.665 E-.36
;WIPE_END
G1 Z.6 F7200
M73 P13 R8
G1 X108.655 Y121.228 Z.6
G1 Z.2
G1 E1.2 F1800
G1 F3600
G1 X114.047 Y126.62 E.25345
G1 X113.837 Y126.987 E.01405
G1 X109.921 Y123.072 E.18405
G1 X110.694 Y124.421 E.05168
G1 X113.627 Y127.354 E.13786
G1 X113.417 Y127.721 E.01405
G1 X111.467 Y125.771 E.09167
G1 X112.239 Y127.12 E.05168
G1 X113.341 Y128.222 E.05179
G1 E-.84 F1800
;WIPE_START
G1 F3600
G1 X112.634 Y127.515 E-.36
;WIPE_END
G1 Z.6 F7200
G1 X132.529 Y104.407 Z.6
G1 Z.2
G1 E1.2 F1800
;TYPE:Gap infill
;WIDTH:0.112824
G1 X132.412 Y104.254 E.0011
;WIDTH:0.154933
G1 X132.295 Y104.102 E.00176
;WIDTH:0.197042
G1 X132.178 Y103.949 E.00241
;WIDTH:0.239151
G1 X132.061 Y103.796 E.00307
;WIDTH:0.260205
G1 X131.944 Y103.644 E.0034
G1 E-1.00771
;WIPE_START
G1 X132.061 Y103.796 E-.19229
;WIPE_END
G1 Z.6 F7200
G1 X134.107 Y107.138 Z.6
G1 Z.2
G1 E1.2 F1800
;WIDTH:0.112824
G1 X133.99 Y106.986 E.0011
;WIDTH:0.154933
G1 X133.873 Y106.833 E.00176
;WIDTH:0.197042
G1 X133.756 Y106.681 E.00241
;WIDTH:0.239151
G1 X133.639 Y106.528 E.00307
;WIDTH:0.260205
G1 X133.522 Y106.376 E.0034
G1 E-1.00771
;WIPE_START
G1 X133.639 Y106.528 E-.19229
;WIPE_END
G1 Z.6 F7200
G1 X135.685 Y109.87 Z.6
G1 Z.2
G1 E1.2 F1800
;WIDTH:0.112824
G1 X135.568 Y109.718 E.0011
;WIDTH:0.154933
G1 X135.451 Y109.565 E.00176
;WIDTH:0.197041
G1 X135.334 Y109.413 E.00241
;WIDTH:0.23915
G1 X135.217 Y109.26 E.00307
;WIDTH:0.260204
G1 X135.1 Y109.107 E.0034
G1 E-1.00771
;WIPE_START
G1 X135.217 Y109.26 E-.19229
;WIPE_END
G1 Z.6 F7200
G1 X113.109 Y128.545 Z.6
G1 Z.2
G1 E1.2 F1800
;WIDTH:0.349927
G1 X112.981 Y128.377 E.00529
;WIDTH:0.30299
G1 X112.852 Y128.209 E.00448
;WIDTH:0.256052
G1 X112.724 Y128.042 E.00367
;WIDTH:0.209114
G1 X112.596 Y127.874 E.00286
;WIDTH:0.162177
G1 X112.467 Y127.706 E.00205
;WIDTH:0.138708
G1 X112.339 Y127.538 E.00165
G1 E-.98868
;WIPE_START
G1 X112.467 Y127.706 E-.21132
;WIPE_END
G1 Z.6 F7200
G1 X111.367 Y125.59 Z.6
G1 Z.2
G1 E1.2 F1800
;WIDTH:0.280242
G1 X111.253 Y125.44 E.00365
;WIDTH:0.23836
G1 X111.138 Y125.289 E.00301
;WIDTH:0.196477
G1 X111.023 Y125.139 E.00236
;WIDTH:0.154594
G1 X110.908 Y124.989 E.00172
;WIDTH:0.133653
G1 X110.794 Y124.839 E.0014
G1 E-1.01102
;WIPE_START
G1 X110.908 Y124.989 E-.18898
;WIPE_END
G1 Z.6 F7200
G1 X109.822 Y122.891 Z.6
G1 Z.2
G1 E1.2 F1800
;WIDTH:0.280243
G1 X109.707 Y122.741 E.00365
;WIDTH:0.23836
G1 X109.593 Y122.59 E.00301
;WIDTH:0.196477
G1 X109.478 Y122.44 E.00236
;WIDTH:0.154594
G1 X109.363 Y122.29 E.00172
;WIDTH:0.133653
G1 X109.248 Y122.14 E.0014
G1 X108.743 Y121.14 F7200
;WIDTH:0.160246
G1 F1800
M73 P14 R8
G1 X108.609 Y120.965 E.0021
;WIDTH:0.13742
G1 X108.476 Y120.791 E.00169
G1 E-.97993
;WIPE_START
G1 X108.609 Y120.965 E-.22007
;WIPE_END
G1 Z.6 F7200
G1 X95.823 Y119.332 Z.6
G1 Z.2
G1 E1.2 F1800
;WIDTH:0.341448
G1 X95.694 Y119.164 E.00515
;WIDTH:0.296052
G1 X95.565 Y118.996 E.00437
;WIDTH:0.250656
G1 X95.436 Y118.828 E.00359
;WIDTH:0.205259
G1 X95.307 Y118.66 E.0028
;WIDTH:0.159863
G1 X95.178 Y118.492 E.00202
;WIDTH:0.137165
G1 X95.049 Y118.324 E.00163
G1 E-.9881
;WIPE_START
G1 X95.178 Y118.492 E-.2119
;WIPE_END
G1 Z.6 F7200
G1 X94.056 Y116.354 Z.6
G1 Z.2
G1 E1.2 F1800
;WIDTH:0.281269
G1 X93.939 Y116.202 E.00374
;WIDTH:0.239158
G1 X93.822 Y116.049 E.00308
;WIDTH:0.197047
G1 X93.705 Y115.897 E.00242
;WIDTH:0.154936
G1 X93.588 Y115.744 E.00176
;WIDTH:0.13388
G1 X93.47 Y115.591 E.00143
G1 E-1.00768
;WIPE_START
G1 X93.588 Y115.744 E-.19232
;WIPE_END
G1 Z.6 F7200
G1 X92.478 Y113.622 Z.6
G1 Z.2
G1 E1.2 F1800
;WIDTH:0.281269
G1 X92.36 Y113.47 E.00374
;WIDTH:0.239158
G1 X92.243 Y113.317 E.00308
;WIDTH:0.197047
G1 X92.126 Y113.164 E.00242
;WIDTH:0.154936
G1 X92.009 Y113.012 E.00176
;WIDTH:0.13388
G1 X91.892 Y112.859 E.00143
G1 E-1.00768
;WIPE_START
G1 X92.009 Y113.012 E-.19232
;WIPE_END
G1 Z.6 F7200
G1 X90.899 Y110.89 Z.6
G1 Z.2
G1 E1.2 F1800
;WIDTH:0.28127
G1 X90.782 Y110.737 E.00374
;WIDTH:0.239158
G1 X90.665 Y110.585 E.00308
;WIDTH:0.197047
G1 X90.548 Y110.432 E.00242
;WIDTH:0.154936
G1 X90.431 Y110.28 E.00176
;WIDTH:0.13388
G1 X90.314 Y110.127 E.00143
G1 E-1.00768
;WIPE_START
G1 X90.431 Y110.28 E-.19232
;WIPE_END
M73 P14 R7
G1 Z.6 F7200
G1 X89.321 Y108.158 Z.6
G1 Z.2
G1 E1.2 F1800
;WIDTH:0.28127
G1 X89.203 Y108.005 E.00374
;WIDTH:0.239158
G1 X89.086 Y107.853 E.00308
;WIDTH:0.197047
G1 X88.969 Y107.7 E.00242
;WIDTH:0.154936
G1 X88.852 Y107.548 E.00176
;WIDTH:0.13388
G1 X88.735 Y107.395 E.00143
G1 E-1.00768
;WIPE_START
G1 X88.852 Y107.548 E-.19232
;WIPE_END
G1 Z.6 F7200
G1 X87.742 Y105.426 Z.6
G1 Z.2
G1 E1.2 F1800
;WIDTH:0.28127
G1 X87.625 Y105.273 E.00374
;WIDTH:0.239158
G1 X87.508 Y105.121 E.00308
;WIDTH:0.197047
G1 X87.391 Y104.968 E.00242
;WIDTH:0.154936
G1 X87.274 Y104.816 E.00176
;WIDTH:0.13388
G1 X87.157 Y104.663 E.00143
G1 E-1.00768
;WIPE_START
G1 X87.274 Y104.816 E-.19232
;WIPE_END
G1 Z.6 F7200
G1 X86.164 Y102.694 Z.6
G1 Z.2
G1 E1.2 F1800
;WIDTH:0.28127
G1 X86.047 Y102.541 E.00374
;WIDTH:0.239158
G1 X85.929 Y102.389 E.00308
;WIDTH:0.197047
G1 X85.812 Y102.236 E.00242
;WIDTH:0.154936
G1 X85.695 Y102.083 E.00176
;WIDTH:0.13388
G1 X85.578 Y101.931 E.00143
G1 E-1.00768
;WIPE_START
G1 X85.695 Y102.083 E-.19232
;WIPE_END
G1 Z.6 F7200
G1 X84.585 Y99.962 Z.6
G1 Z.2
G1 E1.2 F1800
;WIDTH:0.282064
G1 X84.422 Y99.749 E.00523
;WIDTH:0.261803
G1 X84.258 Y99.535 E.00479
G1 E-.93142
;WIPE_START
G1 X84.422 Y99.749 E-.26858
;WIPE_END
G1 Z.6 F7200
G1 X89.197 Y91.646 Z.6
G1 Z.2
G1 E1.2 F1800
;WIDTH:0.107893
