; HEADER_BLOCK_START
; generated by OrcaSlicer 2.0.0 on 2024-05-12 at 16:37:11
; total layer number: 15
; filament_density: 1.24
; filament_diameter: 1.75
; max_z_height: 3.00
; HEADER_BLOCK_END

; THUMBNAIL_BLOCK_START

;
; THUMBNAIL_BLOCK_END

; THUMBNAIL_BLOCK_START

;
; THUMBNAIL_BLOCK_END

; external perimeters extrusion width = 0.45mm
; perimeters extrusion width = 0.45mm
; infill extrusion width = 0.45mm
; solid infill extrusion width = 0.45mm
; top infill extrusion width = 0.40mm

; EXECUTABLE_BLOCK_START
M73 P0 R8
M201 X5000 Y5000 Z500 E5000
M203 X500 Y500 Z30 E100
M204 P5000 R2500 T5000 ; sets acceleration (P, T) and retract acceleration (R), mm/sec^2
M205 X10.00 Y10.00 Z0.40 E5.00 ; sets the jerk limits, mm/sec
;TYPE:Custom
M220 S100 ;Reset Feedrate 
M221 S100 ;Reset Flowrate 
 
M140 S55 ;Set final bed temp 
G28 ;Home 
M420 S1; Enable mesh leveling 
G92 E0 ;Reset Extruder 
G1 Z2.0 F3000 ;Move Z Axis up 
M104 S220 ;Set final nozzle temp 
G1 X-2.1 Y20 Z0.28 F5000.0 ;Move to start position 
M190 S55 ;Wait for bed temp to stabilize 
M109 S220 ;Wait for nozzle temp to stabilize 
G1 X-2.1 Y145.0 Z0.28 F1500.0 E15 ;Draw the first line 
G1 X-2.4 Y145.0 Z0.28 F5000.0 ;Move to side a little 
M73 P1 R8
G1 X-2.4 Y20 Z0.28 F1500.0 E30 ;Draw the second line 
G92 E0  ;Reset Extruder 
G1 E-1.0000 F1800 ;Retract a bit 
G1 Z2.0 F3000 ;Move Z Axis up 
G1 E0.0000 F1800
G90
G21
M83 ; use relative distances for extrusion
; filament start gcode
M106 S0
;LAYER_CHANGE
;Z:0.2
;HEIGHT:0.2
;BEFORE_LAYER_CHANGE
;0.2
G92 E0

G1 E-1.2 F1800
;_SET_FAN_SPEED_CHANGING_LAYER
M204 P300
M204 T300
M73 P2 R8
G1 Z.4 F7200
G1 X105.072 Y77.922
G1 Z.4
G1 Z.2
G1 E1.2 F1800
;TYPE:Skirt
;WIDTH:0.45
G1 F3000
G1 X106.071 Y76.98 E.04555
G1 X107.154 Y76.722 E.03694
G1 X118.902 Y76.722 E.3897
G1 X120.218 Y77.114 E.04555
G1 X120.982 Y77.918 E.03679
G1 X126.8 Y87.908 E.38349
G1 X127.085 Y89.568 E.05587
G1 X121.141 Y120.904 E1.05801
G1 X120.862 Y121.656 E.0266
G1 X109.114 Y142.072 E.78136
G1 X108.118 Y143.017 E.04555
G1 X106.768 Y143.264 E.04555
G1 X105.502 Y142.732 E.04555
G1 X104.94 Y142.068 E.02886
G1 X99.192 Y132.038 E.38348
G1 X98.916 Y131.296 E.02624
G1 X92.916 Y100.138 E1.05256
G1 X93.194 Y98.482 E.0557
G1 X105.052 Y77.956 E.78633
; printing object Evil_A.stl id:0 copy 0
G1 E-.84 F1800
;WIPE_START
M73 P3 R8
G1 F3000
G1 X105.773 Y77.264 E-.36
;WIPE_END
G1 Z.6 F7200
G1 X112.428 Y88.677 Z.6
G1 Z.2
G1 E1.2 F1800
;TYPE:Inner wall
;WIDTH:0.449999
G1 X112.358 Y88.747 E.00329
G1 X106.217 Y99.378 E.40724
G1 X106.136 Y99.683 E.01049
G1 X106.218 Y99.989 E.0105
G1 X118.046 Y120.456 E.78416
G1 X107.029 Y139.602 E.73275
G1 X102.009 Y130.842 E.33489
G1 X107.839 Y120.761 E.38632
G1 X107.921 Y120.456 E.01048
G1 X107.839 Y120.149 E.01052
G1 X96.01 Y99.683 E.78416
G1 X107.519 Y79.761 E.76319
G1 X118.539 Y79.761 E.36555
M73 P4 R8
G1 X123.618 Y88.483 E.3348
G1 X112.887 Y88.442 E.35598
G1 X112.581 Y88.524 E.0105
G1 X112.456 Y88.649 E.00585
G1 X112.71 Y88.951 F7200
;TYPE:Outer wall
G1 F1800
G1 X106.555 Y99.608 E.40826
G1 X106.57 Y99.785 E.00589
G1 X118.516 Y120.455 E.79195
G1 X107.028 Y140.419 E.76405
G1 X101.54 Y130.842 E.36618
G1 X107.503 Y120.53 E.39513
G1 X107.487 Y120.353 E.00589
G1 X95.54 Y99.683 E.79196
G1 X107.284 Y79.354 E.77879
G1 X118.773 Y79.354 E.3811
M73 P5 R8
G1 X124.328 Y88.893 E.36616
G1 X112.856 Y88.849 E.38054
G1 X112.743 Y88.928 E.00457
G1 E-.84
;WIPE_START
G1 X112.242 Y89.793 E-.36
;WIPE_END
G1 Z.6 F7200
G1 X119.605 Y81.916
G1 Z.6
G1 Z.2
G1 E1.2 F1800
;TYPE:Bottom surface
;WIDTH:0.450164
G1 F3600
G1 X117.796 Y80.107 E.08489
G1 X117.22 Y80.107 E.01911
G1 X119.901 Y82.787 E.12579
G1 X120.704 Y84.167 E.05296
G1 X116.644 Y80.107 E.19051
G1 X116.069 Y80.107 E.01911
G1 X121.507 Y85.546 E.25523
G1 X122.31 Y86.925 E.05296
G1 X115.493 Y80.107 E.31996
G1 X114.917 Y80.107 E.01911
G1 X122.944 Y88.134 E.37672
G1 X122.366 Y88.132 E.01919
G1 X114.341 Y80.107 E.37661
G1 X113.765 Y80.107 E.01911
G1 X121.787 Y88.13 E.37651
G1 X121.209 Y88.128 E.01919
G1 X113.189 Y80.107 E.37641
G1 X112.613 Y80.107 E.01911
G1 X120.631 Y88.125 E.3763
G1 X120.053 Y88.123 E.01919
M73 P6 R8
G1 X112.037 Y80.107 E.3762
G1 X111.461 Y80.107 E.01911
G1 X119.475 Y88.121 E.3761
G1 X118.897 Y88.119 E.01919
G1 X110.885 Y80.107 E.37599
G1 X110.309 Y80.107 E.01911
G1 X118.319 Y88.117 E.37589
G1 X117.741 Y88.114 E.01919
G1 X109.733 Y80.107 E.37579
G1 X109.157 Y80.107 E.01911
G1 X117.162 Y88.112 E.37568
G1 X116.584 Y88.11 E.01919
G1 X108.581 Y80.107 E.37558
G1 X108.006 Y80.107 E.01911
G1 X116.006 Y88.108 E.37548
G1 X115.428 Y88.106 E.01919
G1 X107.613 Y80.29 E.36678
G1 X107.402 Y80.655 E.01399
G1 X114.85 Y88.103 E.34954
G1 X114.272 Y88.101 E.01919
G1 X107.191 Y81.02 E.33231
G1 X106.98 Y81.385 E.01399
G1 X113.694 Y88.099 E.31507
G1 X113.115 Y88.097 E.01919
G1 X106.769 Y81.75 E.29784
G1 X106.558 Y82.115 E.01399
G1 X112.588 Y88.145 E.283
G1 X112.408 Y88.224 E.00654
G1 X112.229 Y88.362 E.00749
G1 X106.347 Y82.48 E.27602
G1 X106.137 Y82.846 E.01399
M73 P7 R8
G1 X111.987 Y88.697 E.27459
G1 X111.777 Y89.062 E.01399
G1 X105.926 Y83.211 E.27459
G1 X105.715 Y83.576 E.01399
G1 X111.566 Y89.427 E.27459
G1 X111.355 Y89.792 E.01399
G1 X105.504 Y83.941 E.27459
G1 X105.293 Y84.306 E.01399
G1 X111.144 Y90.157 E.2746
G1 X110.933 Y90.522 E.01399
G1 X105.082 Y84.671 E.2746
G1 X104.871 Y85.036 E.01399
G1 X110.722 Y90.887 E.2746
G1 X110.511 Y91.252 E.01399
G1 X104.66 Y85.401 E.2746
G1 X104.449 Y85.766 E.01399
G1 X110.301 Y91.617 E.2746
G1 X110.09 Y91.982 E.01399
G1 X104.239 Y86.131 E.2746
G1 X104.028 Y86.496 E.01399
G1 X109.879 Y92.347 E.2746
G1 X109.668 Y92.712 E.01399
G1 X103.817 Y86.861 E.2746
G1 X103.606 Y87.226 E.01399
G1 X109.457 Y93.077 E.2746
G1 X109.246 Y93.442 E.01399
G1 X103.395 Y87.591 E.2746
G1 X103.184 Y87.956 E.01399
G1 X109.035 Y93.807 E.2746
G1 X108.824 Y94.172 E.01399
G1 X102.973 Y88.321 E.2746
G1 X102.762 Y88.686 E.01399
G1 X108.614 Y94.538 E.27461
G1 X108.403 Y94.903 E.01399
M73 P8 R8
G1 X102.551 Y89.051 E.27461
G1 X102.341 Y89.416 E.01399
G1 X108.192 Y95.268 E.27461
G1 X107.981 Y95.633 E.01399
G1 X102.13 Y89.781 E.27461
G1 X101.919 Y90.146 E.01399
G1 X107.77 Y95.998 E.27461
G1 X107.559 Y96.363 E.01399
G1 X101.708 Y90.511 E.27461
G1 X101.497 Y90.877 E.01399
G1 X107.348 Y96.728 E.27461
G1 X107.138 Y97.093 E.01399
G1 X101.286 Y91.242 E.27461
G1 X101.075 Y91.607 E.01399
G1 X106.927 Y97.458 E.27461
G1 X106.716 Y97.823 E.01399
G1 X100.864 Y91.972 E.27461
G1 X100.653 Y92.337 E.01399
G1 X106.505 Y98.188 E.27461
G1 X106.294 Y98.553 E.01399
G1 X100.443 Y92.702 E.27461
G1 X100.232 Y93.067 E.01399
G1 X106.083 Y98.918 E.27462
G1 X105.878 Y99.289 E.01406
G1 X100.021 Y93.432 E.27488
G1 X99.81 Y93.797 E.01399
G1 X105.798 Y99.785 E.28101
G1 X105.846 Y100.007 E.00756
G1 X105.915 Y100.156 E.00544
G1 X106.355 Y100.918 E.02919
G1 X99.599 Y94.162 E.31706
G1 X99.388 Y94.527 E.01399
G1 X107.144 Y102.282 E.36397
G1 X107.932 Y103.647 E.0523
G1 X99.177 Y94.892 E.41088
G1 X98.966 Y95.257 E.01399
M73 P9 R8
G1 X108.721 Y105.011 E.45778
G1 X109.509 Y106.376 E.0523
G1 X98.756 Y95.622 E.50469
G1 X98.545 Y95.987 E.01399
G1 X110.298 Y107.741 E.5516
G1 X111.087 Y109.105 E.0523
G1 X98.334 Y96.352 E.59851
G1 X98.123 Y96.717 E.01399
M73 P9 R7
G1 X111.875 Y110.47 E.64542
G1 X112.664 Y111.834 E.0523
G1 X97.912 Y97.082 E.69233
G1 X97.701 Y97.447 E.01399
G1 X113.453 Y113.199 E.73924
G1 X114.241 Y114.564 E.0523
G1 X97.49 Y97.812 E.78615
G1 X97.279 Y98.177 E.01399
G1 X115.03 Y115.928 E.83306
G1 X115.819 Y117.293 E.0523
G1 X97.068 Y98.542 E.87997
G1 X96.858 Y98.907 E.01399
G1 X116.607 Y118.657 E.92688
G1 X117.396 Y120.022 E.0523
M73 P10 R7
G1 X96.647 Y99.273 E.97379
G1 X96.436 Y99.638 E.01399
G1 X117.504 Y120.705 E.98873
G1 X117.293 Y121.071 E.014
G1 X97.101 Y100.878 E.94766
G1 X97.889 Y102.243 E.05231
G1 X117.083 Y121.436 E.90077
G1 X116.872 Y121.802 E.014
G1 X98.678 Y103.608 E.85387
G1 X99.467 Y104.973 E.05231
G1 X116.662 Y122.168 E.80698
G1 X116.452 Y122.533 E.014
G1 X100.256 Y106.337 E.76009
G1 X101.045 Y107.702 E.05231
G1 X116.241 Y122.899 E.7132
G1 X116.031 Y123.264 E.014
M73 P11 R7
G1 X101.833 Y109.067 E.66631
G1 X102.622 Y110.431 E.05231
G1 X115.821 Y123.63 E.61941
G1 X115.61 Y123.995 E.014
G1 X103.411 Y111.796 E.57252
G1 X104.2 Y113.161 E.05231
G1 X115.4 Y124.361 E.52563
G1 X115.19 Y124.727 E.014
G1 X104.989 Y114.526 E.47874
G1 X105.777 Y115.89 E.05231
G1 X114.979 Y125.092 E.43185
G1 X114.769 Y125.458 E.014
G1 X106.566 Y117.255 E.38495
G1 X107.355 Y118.62 E.05231
G1 X114.558 Y125.823 E.33806
G1 X114.348 Y126.189 E.014
G1 X108.143 Y119.984 E.2912
G1 X108.211 Y120.131 E.00537
G1 X108.254 Y120.293 E.00558
G1 X108.268 Y120.456 E.00542
G1 X108.243 Y120.66 E.00681
G1 X114.138 Y126.554 E.27665
G1 X113.927 Y126.92 E.014
G1 X108.067 Y121.059 E.27506
G1 X107.855 Y121.424 E.01399
G1 X113.717 Y127.286 E.27509
G1 X113.507 Y127.651 E.014
G1 X107.644 Y121.789 E.27512
G1 X107.433 Y122.154 E.01399
G1 X113.296 Y128.017 E.27515
G1 X113.086 Y128.382 E.014
G1 X107.222 Y122.519 E.27518
G1 X107.011 Y122.884 E.01399
M73 P12 R7
G1 X112.876 Y128.748 E.27521
G1 X112.665 Y129.113 E.014
G1 X106.8 Y123.249 E.27524
G1 X106.589 Y123.613 E.01399
G1 X112.455 Y129.479 E.27527
G1 X112.244 Y129.845 E.014
G1 X106.378 Y123.978 E.2753
G1 X106.167 Y124.343 E.01399
G1 X112.034 Y130.21 E.27533
G1 X111.824 Y130.576 E.014
G1 X105.956 Y124.708 E.27537
G1 X105.745 Y125.073 E.01399
G1 X111.613 Y130.941 E.2754
G1 X111.403 Y131.307 E.014
G1 X105.534 Y125.438 E.27543
G1 X105.323 Y125.803 E.01399
G1 X111.193 Y131.672 E.27546
G1 X110.982 Y132.038 E.014
G1 X105.112 Y126.168 E.27549
G1 X104.901 Y126.533 E.01399
G1 X110.772 Y132.404 E.27552
G1 X110.562 Y132.769 E.014
G1 X104.69 Y126.898 E.27555
G1 X104.479 Y127.263 E.01399
G1 X110.351 Y133.135 E.27558
G1 X110.141 Y133.5 E.014
G1 X104.268 Y127.628 E.27561
G1 X104.057 Y127.992 E.01399
G1 X109.931 Y133.866 E.27564
G1 X109.72 Y134.231 E.014
G1 X103.846 Y128.357 E.27568
G1 X103.635 Y128.722 E.01399
G1 X109.51 Y134.597 E.27571
G1 X109.299 Y134.963 E.014
M73 P13 R7
G1 X103.424 Y129.087 E.27574
G1 X103.213 Y129.452 E.01399
G1 X109.089 Y135.328 E.27577
G1 X108.879 Y135.694 E.014
G1 X103.002 Y129.817 E.2758
G1 X102.791 Y130.182 E.01399
G1 X108.668 Y136.059 E.27583
G1 X108.458 Y136.425 E.014
G1 X102.58 Y130.547 E.27586
G1 X102.409 Y130.843 E.01136
G1 X102.554 Y131.096 E.00969
G1 X108.248 Y136.79 E.26722
G1 X108.037 Y137.156 E.014
G1 X103.327 Y132.445 E.22107
G1 X104.1 Y133.795 E.0516
G1 X107.827 Y137.522 E.17491
G1 X107.617 Y137.887 E.014
G1 X104.873 Y135.144 E.12876
G1 X105.646 Y136.493 E.0516
G1 X107.406 Y138.253 E.0826
G1 X107.196 Y138.618 E.014
G1 X105.925 Y137.347 E.05966
G1 E-.84 F1800
;WIPE_START
G1 F3600
G1 X106.632 Y138.054 E-.36
;WIPE_END
G1 Z.6 F7200
G1 X121.399 Y85.12 Z.6
G1 Z.2
G1 E1.2 F1800
;TYPE:Gap infill
;WIDTH:0.112906
G1 X121.28 Y84.965 E.00111
;WIDTH:0.155179
G1 X121.161 Y84.811 E.00179
;WIDTH:0.197452
G1 X121.042 Y84.656 E.00246
;WIDTH:0.239724
G1 X120.923 Y84.501 E.00313
;WIDTH:0.26086
G1 X120.804 Y84.347 E.00347
G1 E-1.00481
;WIPE_START
G1 X120.923 Y84.501 E-.19519
;WIPE_END
G1 Z.6 F7200
G1 X119.793 Y82.362 Z.6
G1 Z.2
G1 E1.2 F1800
;WIDTH:0.114697
G1 X119.677 Y82.211 E.00111
;WIDTH:0.152193
G1 X119.561 Y82.06 E.0017
G1 X119.561 Y81.96 E.00089
G1 X118.99 Y80.983 F7200
;WIDTH:0.114454
G1 F1800
G1 X118.859 Y80.813 E.00125
;WIDTH:0.159821
G1 X118.728 Y80.643 E.00204
;WIDTH:0.205189
G1 X118.598 Y80.474 E.00283
;WIDTH:0.250556
G1 X118.467 Y80.304 E.00362
;WIDTH:0.295924
G1 X118.336 Y80.134 E.00442
;WIDTH:0.318607
G1 X118.206 Y79.965 E.00481
G1 E-.98585
;WIPE_START
G1 X118.336 Y80.134 E-.21415
;WIPE_END
G1 Z.6 F7200
G1 X97.001 Y100.698 Z.6
G1 Z.2
M73 P14 R7
G1 E1.2 F1800
;WIDTH:0.281131
G1 X96.884 Y100.545 E.00373
;WIDTH:0.239051
G1 X96.767 Y100.393 E.00307
;WIDTH:0.19697
G1 X96.65 Y100.24 E.00241
;WIDTH:0.15489
G1 X96.533 Y100.088 E.00175
;WIDTH:0.13385
G1 X96.416 Y99.935 E.00142
G1 E-1.0077
;WIPE_START
G1 X96.533 Y100.088 E-.1923
;WIPE_END
G1 Z.6 F7200
G1 X98.579 Y103.427 Z.6
G1 Z.2
G1 E1.2 F1800
;WIDTH:0.281131
G1 X98.462 Y103.275 E.00373
;WIDTH:0.23905
G1 X98.344 Y103.122 E.00307
;WIDTH:0.19697
G1 X98.227 Y102.97 E.00241
;WIDTH:0.15489
G1 X98.11 Y102.817 E.00175
;WIDTH:0.13385
G1 X97.993 Y102.665 E.00142
G1 E-1.0077
;WIPE_START
G1 X98.11 Y102.817 E-.1923
;WIPE_END
G1 Z.6 F7200
G1 X100.156 Y106.157 Z.6
G1 Z.2
G1 E1.2 F1800
;WIDTH:0.281133
G1 X100.039 Y106.004 E.00373
;WIDTH:0.239052
G1 X99.922 Y105.852 E.00307
;WIDTH:0.196972
G1 X99.805 Y105.699 E.00241
;WIDTH:0.154891
G1 X99.688 Y105.547 E.00175
;WIDTH:0.133851
G1 X99.571 Y105.394 E.00142
G1 E-1.0077
;WIPE_START
G1 X99.688 Y105.547 E-.1923
;WIPE_END
G1 Z.6 F7200
G1 X101.734 Y108.886 Z.6
G1 Z.2
G1 E1.2 F1800
;WIDTH:0.281133
G1 X101.617 Y108.734 E.00373
;WIDTH:0.239052
G1 X101.5 Y108.581 E.00307
;WIDTH:0.196972
G1 X101.383 Y108.429 E.00241
;WIDTH:0.154891
G1 X101.265 Y108.276 E.00175
;WIDTH:0.133851
G1 X101.148 Y108.124 E.00142
G1 E-1.0077
;WIPE_START
G1 X101.265 Y108.276 E-.1923
;WIPE_END
G1 Z.6 F7200
G1 X103.311 Y111.616 Z.6
G1 Z.2
G1 E1.2 F1800
;WIDTH:0.281132
G1 X103.194 Y111.463 E.00373
;WIDTH:0.239052
G1 X103.077 Y111.311 E.00307
;WIDTH:0.196971
G1 X102.96 Y111.158 E.00241
;WIDTH:0.154891
G1 X102.843 Y111.006 E.00175
;WIDTH:0.133851
G1 X102.726 Y110.853 E.00142
G1 E-1.0077
;WIPE_START
G1 X102.843 Y111.006 E-.1923
;WIPE_END
G1 Z.6 F7200
G1 X104.889 Y114.345 Z.6
G1 Z.2
G1 E1.2 F1800
;WIDTH:0.281133
G1 X104.772 Y114.193 E.00373
;WIDTH:0.239052
G1 X104.655 Y114.04 E.00307
;WIDTH:0.196972
G1 X104.538 Y113.888 E.00241
;WIDTH:0.154891
G1 X104.421 Y113.735 E.00175
;WIDTH:0.133851
G1 X104.304 Y113.583 E.00142
G1 E-1.0077
;WIPE_START
G1 X104.421 Y113.735 E-.1923
;WIPE_END
G1 Z.6 F7200
G1 X106.467 Y117.075 Z.6
G1 Z.2
G1 E1.2 F1800
;WIDTH:0.281131
G1 X106.35 Y116.922 E.00373
;WIDTH:0.239051
G1 X106.233 Y116.77 E.00307
;WIDTH:0.19697
G1 X106.115 Y116.617 E.00241
;WIDTH:0.15489
G1 X105.998 Y116.465 E.00175
;WIDTH:0.13385
G1 X105.881 Y116.312 E.00142
G1 E-1.0077
;WIPE_START
G1 X105.998 Y116.465 E-.1923
;WIPE_END
G1 Z.6 F7200
G1 X108.045 Y119.805 Z.6
G1 Z.2
G1 E1.2 F1800
;WIDTH:0.281175
G1 X107.927 Y119.652 E.00373
;WIDTH:0.239085
G1 X107.81 Y119.499 E.00307
;WIDTH:0.196995
G1 X107.693 Y119.347 E.00242
;WIDTH:0.154905
G1 X107.576 Y119.194 E.00176
;WIDTH:0.13386
G1 X107.459 Y119.042 E.00143
G1 E-1.00763
;WIPE_START
G1 X107.576 Y119.194 E-.19237
;WIPE_END
G1 Z.6 F7200
G1 X103.228 Y132.265 Z.6
G1 Z.2
G1 E1.2 F1800
;WIDTH:0.280161
G1 X103.113 Y132.115 E.00366
;WIDTH:0.238296
G1 X102.998 Y131.964 E.00301
;WIDTH:0.196432
G1 X102.883 Y131.814 E.00237
;WIDTH:0.154567
G1 X102.768 Y131.664 E.00172
;WIDTH:0.133635
G1 X102.653 Y131.514 E.0014
G1 E-1.01086
;WIPE_START
G1 X102.768 Y131.664 E-.18914
;WIPE_END
G1 Z.6 F7200
G1 X104.774 Y134.963 Z.6
G1 Z.2
M73 P15 R7
G1 E1.2 F1800
;WIDTH:0.280161
G1 X104.659 Y134.813 E.00366
;WIDTH:0.238296
G1 X104.544 Y134.663 E.00301
;WIDTH:0.196432
G1 X104.429 Y134.512 E.00237
;WIDTH:0.154567
G1 X104.314 Y134.362 E.00172
;WIDTH:0.133635
G1 X104.199 Y134.212 E.0014
G1 E-1.01086
;WIPE_START
G1 X104.314 Y134.362 E-.18914
;WIPE_END
G1 Z.6 F7200
G1 X106.013 Y137.259 Z.6
G1 Z.2
G1 E1.2 F1800
;WIDTH:0.160069
G1 X105.879 Y137.085 E.0021
;WIDTH:0.137302
G1 X105.746 Y136.91 E.00169
G1 E-.98018
;WIPE_START
G1 X105.879 Y137.085 E-.21982
;WIPE_END
G1 Z.6 F7200
G1 X107.218 Y138.865 Z.6
G1 Z.2
G1 E1.2 F1800
;WIDTH:0.189027
G1 X107.155 Y138.886 E.00079
;WIDTH:0.236464
G1 X107.092 Y138.907 E.00104
;WIDTH:0.284086
G1 X107.029 Y138.927 E.0013
;WIDTH:0.285909
G1 X106.927 Y138.793 E.00333
;WIDTH:0.242767
G1 X106.825 Y138.66 E.00274
;WIDTH:0.199625
G1 X106.723 Y138.526 E.00215
;WIDTH:0.156483
G1 X106.621 Y138.393 E.00156
;WIDTH:0.134912
G1 X106.519 Y138.259 E.00126
G1 E-1.03184
;WIPE_START
G1 X106.621 Y138.393 E-.16816
;WIPE_END
G1 Z.6 F7200
G1 X116.504 Y118.236 Z.6
G1 Z.2
G1 E1.2 F1800
;WIDTH:0.112808
G1 X116.387 Y118.083 E.00109
;WIDTH:0.154887
G1 X116.269 Y117.931 E.00175
;WIDTH:0.196965
G1 X116.152 Y117.778 E.00241
;WIDTH:0.239044
G1 X116.035 Y117.626 E.00307
;WIDTH:0.260083
G1 X115.918 Y117.473 E.0034
G1 E-1.00773
;WIPE_START
G1 X116.035 Y117.626 E-.19227
;WIPE_END
