; HEADER_BLOCK_START
; generated by OrcaSlicer 2.0.0 on 2024-05-12 at 16:54:33
; total layer number: 15
; filament_density: 1.24
; filament_diameter: 1.75
; max_z_height: 3.00
; HEADER_BLOCK_END

; THUMBNAIL_BLOCK_START

;
; THUMBNAIL_BLOCK_END

; THUMBNAIL_BLOCK_START

;
; THUMBNAIL_BLOCK_END

; external perimeters extrusion width = 0.45mm
; perimeters extrusion width = 0.45mm
; infill extrusion width = 0.45mm
; solid infill extrusion width = 0.45mm
; top infill extrusion width = 0.40mm

; EXECUTABLE_BLOCK_START
M73 P0 R8
M201 X5000 Y5000 Z500 E5000
M203 X500 Y500 Z30 E100
M204 P5000 R2500 T5000 ; sets acceleration (P, T) and retract acceleration (R), mm/sec^2
M205 X10.00 Y10.00 Z0.40 E5.00 ; sets the jerk limits, mm/sec
;TYPE:Custom
M220 S100 ;Reset Feedrate 
M221 S100 ;Reset Flowrate 
 
M140 S55 ;Set final bed temp 
G28 ;Home 
M420 S1; Enable mesh leveling 
G92 E0 ;Reset Extruder 
G1 Z2.0 F3000 ;Move Z Axis up 
M104 S220 ;Set final nozzle temp 
G1 X-2.1 Y20 Z0.28 F5000.0 ;Move to start position 
M190 S55 ;Wait for bed temp to stabilize 
M109 S220 ;Wait for nozzle temp to stabilize 
G1 X-2.1 Y145.0 Z0.28 F1500.0 E15 ;Draw the first line 
G1 X-2.4 Y145.0 Z0.28 F5000.0 ;Move to side a little 
M73 P1 R7
G1 X-2.4 Y20 Z0.28 F1500.0 E30 ;Draw the second line 
G92 E0  ;Reset Extruder 
G1 E-1.0000 F1800 ;Retract a bit 
M73 P2 R7
G1 Z2.0 F3000 ;Move Z Axis up 
G1 E0.0000 F1800
G90
G21
M83 ; use relative distances for extrusion
; filament start gcode
M106 S0
;LAYER_CHANGE
;Z:0.2
;HEIGHT:0.2
;BEFORE_LAYER_CHANGE
;0.2
G92 E0

G1 E-1.2 F1800
;_SET_FAN_SPEED_CHANGING_LAYER
M204 P300
M204 T300
G1 Z.4 F7200
G1 X89.911 Y88.386
G1 Z.4
G1 Z.2
G1 E1.2 F1800
;TYPE:Skirt
;WIDTH:0.45
G1 F3000
G1 X90.905 Y87.439 E.04555
G1 X91.999 Y87.176 E.03733
G1 X104 Y87.176 E.3981
G1 X105.197 Y87.495 E.0411
G1 X123.072 Y97.744 E.6835
G1 X123.957 Y98.625 E.04142
G1 X135.836 Y119.185 E.78767
G1 X136.153 Y120.521 E.04555
G1 X135.838 Y121.583 E.03674
G1 X130.089 Y131.614 E.38352
G1 X129.095 Y132.561 E.04555
G1 X127.745 Y132.81 E.04555
G1 X126.801 Y132.504 E.03292
G1 X90.925 Y111.869 E1.37289
G1 X90.041 Y110.986 E.04143
M73 P3 R7
G1 X84.166 Y100.818 E.38955
G1 X83.847 Y99.483 E.04555
G1 X84.162 Y98.417 E.03686
G1 X89.891 Y88.421 E.38219
; printing object Evil_B.stl id:15 copy 0
G1 E-.84 F1800
;WIPE_START
G1 F3000
G1 X90.609 Y87.725 E-.36
;WIPE_END
G1 Z.6 F7200
G1 X97.631 Y100.448 Z.6
G1 Z.2
G1 E1.2 F1800
;TYPE:Inner wall
;WIDTH:0.449999
G1 X97.843 Y100.561 E.00798
G1 X98.105 Y100.572 E.00868
G1 X98.372 Y100.454 E.00969
G1 X98.527 Y100.277 E.00782
G1 X103.996 Y90.849 E.36157
G1 X109.361 Y100.218 E.35811
G1 X109.573 Y100.398 E.00924
G1 X109.859 Y100.469 E.00977
G1 X121.51 Y100.464 E.3865
G1 X133.021 Y120.387 E.76325
G1 X128 Y129.148 E.33494
G1 X116.671 Y109.451 E.75374
G1 X116.447 Y109.227 E.01049
M73 P4 R7
G1 X116.141 Y109.145 E.01051
G1 X92.49 Y109.15 E.78456
G1 X86.979 Y99.613 E.36538
G1 X92.002 Y90.848 E.33509
G1 X97.471 Y100.277 E.36156
G1 X97.596 Y100.429 E.00652
G1 X97.86 Y100.137 F7200
;TYPE:Outer wall
G1 F1800
G1 X98.034 Y100.171 E.00588
G1 X98.175 Y100.073 E.0057
G1 X103.999 Y90.034 E.385
G1 X109.704 Y99.998 E.38088
G1 X109.859 Y100.062 E.00555
G1 X121.745 Y100.057 E.3943
G1 X133.49 Y120.386 E.77882
G1 X128.001 Y129.965 E.36623
G1 X116.302 Y109.627 E.77831
M73 P5 R7
G1 X116.141 Y109.552 E.00588
G1 X92.255 Y109.557 E.79236
G1 X86.51 Y99.614 E.38094
G1 X92 Y90.033 E.36628
G1 X97.84 Y100.103 E.38613
G1 E-.84
;WIPE_START
G1 X98.034 Y100.171 E-.07403
G1 X98.175 Y100.073 E-.06184
G1 X98.487 Y99.534 E-.22413
;WIPE_END
G1 Z.6 F7200
G1 X122.567 Y102.619
G1 Z.6
G1 Z.2
G1 E1.2 F1800
;TYPE:Bottom surface
;WIDTH:0.454552
G1 F3600
G1 X120.759 Y100.811 E.0858
G1 X120.177 Y100.811 E.01952
G1 X122.863 Y103.497 E.12742
G1 X123.659 Y104.875 E.05341
G1 X119.595 Y100.811 E.1928
G1 X119.013 Y100.811 E.01952
G1 X124.456 Y106.254 E.25819
G1 X125.252 Y107.633 E.05341
G1 X118.431 Y100.812 E.32358
M73 P6 R7
G1 X117.849 Y100.812 E.01952
G1 X126.049 Y109.011 E.38896
G1 X126.845 Y110.39 E.05341
G1 X117.267 Y100.812 E.45435
G1 X116.685 Y100.812 E.01952
G1 X127.642 Y111.769 E.51973
G1 X128.438 Y113.147 E.05341
G1 X116.103 Y100.813 E.58512
G1 X115.522 Y100.813 E.01952
G1 X129.235 Y114.526 E.65051
G1 X130.031 Y115.905 E.05341
G1 X114.94 Y100.813 E.71589
G1 X114.358 Y100.813 E.01952
G1 X130.828 Y117.283 E.78128
G1 X131.624 Y118.662 E.05341
G1 X113.776 Y100.813 E.84667
G1 X113.194 Y100.814 E.01952
G1 X132.421 Y120.04 E.91205
G1 X132.622 Y120.388 E.01346
G1 X132.463 Y120.665 E.0107
G1 X112.612 Y100.814 E.94165
G1 X112.03 Y100.814 E.01952
M73 P7 R7
G1 X132.251 Y121.035 E.9592
G1 X132.039 Y121.405 E.01431
G1 X111.448 Y100.814 E.97674
G1 X110.866 Y100.815 E.01952
G1 X131.827 Y121.775 E.99428
G1 X131.615 Y122.145 E.01431
G1 X110.101 Y100.632 E1.02051
G1 E-.84 F1800
;WIPE_START
G1 F3600
G1 X110.809 Y101.339 E-.36
;WIPE_END
G1 Z.6 F7200
G1 X103.834 Y91.454 Z.6
G1 Z.2
G1 E1.2 F1800
G1 F3600
G1 X104.091 Y91.711 E.01221
G1 X104.871 Y93.073 E.05264
G1 X103.754 Y91.956 E.05298
G1 X103.54 Y92.324 E.01429
G1 X105.651 Y94.435 E.10011
G1 X106.431 Y95.797 E.05264
G1 X103.327 Y92.693 E.14724
G1 X103.113 Y93.061 E.01429
G1 X107.21 Y97.159 E.19437
G1 X107.99 Y98.521 E.05264
G1 X102.899 Y93.43 E.24149
M73 P8 R7
G1 X102.686 Y93.798 E.01429
G1 X131.402 Y122.515 E1.36223
G1 X131.19 Y122.885 E.01431
G1 X102.472 Y94.167 E1.36231
G1 X102.258 Y94.535 E.01429
G1 X130.978 Y123.255 E1.36239
G1 X130.766 Y123.625 E.01431
G1 X117.717 Y110.576 E.61903
G1 X118.505 Y111.946 E.05303
G1 X130.554 Y123.995 E.57157
G1 X130.342 Y124.365 E.01431
G1 X119.293 Y113.316 E.52412
G1 X120.081 Y114.687 E.05303
G1 X130.13 Y124.735 E.47667
G1 X129.918 Y125.105 E.01431
G1 X120.87 Y116.057 E.42922
G1 X121.658 Y117.427 E.05303
M73 P9 R7
G1 X129.706 Y125.475 E.38177
G1 X129.494 Y125.845 E.01431
G1 X122.446 Y118.798 E.33432
G1 X123.234 Y120.168 E.05303
G1 X129.282 Y126.215 E.28687
G1 X129.07 Y126.586 E.01431
G1 X124.022 Y121.538 E.23942
G1 X124.811 Y122.909 E.05303
G1 X128.857 Y126.956 E.19197
G1 X128.645 Y127.326 E.01431
G1 X125.599 Y124.279 E.14451
G1 X126.387 Y125.65 E.05303
G1 X128.433 Y127.696 E.09706
G1 X128.221 Y128.066 E.01431
G1 X127.175 Y127.02 E.04961
G1 X127.964 Y128.39 E.05303
G1 X128.143 Y128.57 E.00853
G1 E-.84 F1800
;WIPE_START
G1 F3600
G1 X127.964 Y128.39 E-.09152
G1 X127.592 Y127.744 E-.26848
;WIPE_END
G1 Z.6 F7200
G1 X116.123 Y108.982 Z.6
G1 Z.2
G1 E1.2 F1800
G1 F3600
G1 X102.044 Y94.903 E.66785
G1 X101.831 Y95.272 E.01429
G1 X115.358 Y108.799 E.64169
G1 X114.776 Y108.799 E.01952
G1 X101.617 Y95.64 E.62422
G1 X101.403 Y96.009 E.01429
G1 X114.194 Y108.799 E.60675
G1 X113.612 Y108.799 E.01952
M73 P10 R7
G1 X101.19 Y96.377 E.58928
G1 X100.976 Y96.745 E.01429
G1 X113.03 Y108.8 E.5718
G1 X112.448 Y108.8 E.01952
G1 X100.762 Y97.114 E.55433
G1 X100.548 Y97.482 E.01429
G1 X111.866 Y108.8 E.53686
G1 X111.284 Y108.8 E.01952
G1 X100.335 Y97.851 E.51939
G1 X100.121 Y98.219 E.01429
G1 X110.702 Y108.8 E.50192
G1 X110.12 Y108.8 E.01952
G1 X99.907 Y98.588 E.48445
G1 X99.694 Y98.956 E.01429
G1 X109.538 Y108.8 E.46698
G1 X108.956 Y108.8 E.01952
G1 X99.48 Y99.324 E.44951
G1 X99.266 Y99.693 E.01429
G1 X108.374 Y108.801 E.43204
G1 X107.792 Y108.801 E.01952
G1 X99.052 Y100.061 E.41457
G1 X98.839 Y100.43 E.01429
G1 X107.21 Y108.801 E.3971
M73 P11 R7
G1 X106.628 Y108.801 E.01952
G1 X98.432 Y100.605 E.38879
G1 E-.84 F1800
;WIPE_START
G1 F3600
G1 X99.139 Y101.312 E-.36
;WIPE_END
G1 Z.6 F7200
G1 X92.933 Y92.777 Z.6
G1 Z.2
G1 E1.2 F1800
G1 F3600
G1 X91.892 Y91.737 E.04936
G1 X91.68 Y92.107 E.01431
G1 X93.232 Y93.659 E.07364
G1 X94.036 Y95.045 E.05374
G1 X91.468 Y92.477 E.12183
G1 X91.256 Y92.847 E.01431
G1 X94.84 Y96.431 E.17003
G1 X95.644 Y97.817 E.05374
G1 X91.044 Y93.217 E.21822
G1 X90.832 Y93.587 E.01431
G1 X96.448 Y99.203 E.26641
G1 X97.175 Y100.456 E.04859
G1 X97.265 Y100.585 E.00529
G1 X97.37 Y100.692 E.00503
G1 X97.496 Y100.786 E.00526
G1 X97.75 Y100.895 E.00926
G1 X97.907 Y100.924 E.00535
G1 X98.155 Y100.91 E.00835
G1 X106.046 Y108.801 E.3743
G1 X105.464 Y108.801 E.01952
G1 X90.62 Y93.957 E.70416
G1 X90.407 Y94.327 E.01431
G1 X104.882 Y108.801 E.68661
G1 X104.3 Y108.801 E.01952
G1 X90.195 Y94.697 E.66906
G1 X89.983 Y95.067 E.01431
G1 X103.718 Y108.801 E.65152
G1 X103.136 Y108.802 E.01952
M73 P12 R7
G1 X89.771 Y95.437 E.63397
G1 X89.559 Y95.807 E.01431
G1 X102.554 Y108.802 E.61642
G1 X101.972 Y108.802 E.01952
G1 X89.347 Y96.177 E.59887
G1 X89.135 Y96.547 E.01431
G1 X101.39 Y108.802 E.58132
G1 X100.808 Y108.802 E.01952
G1 X88.923 Y96.917 E.56377
G1 X88.711 Y97.287 E.01431
G1 X100.226 Y108.802 E.54623
G1 X99.644 Y108.802 E.01952
G1 X88.499 Y97.657 E.52868
G1 X88.287 Y98.027 E.01431
G1 X99.062 Y108.802 E.51113
G1 X98.48 Y108.803 E.01952
G1 X88.075 Y98.398 E.49358
G1 X87.862 Y98.768 E.01431
G1 X97.898 Y108.803 E.47603
G1 X97.316 Y108.803 E.01952
M73 P12 R6
G1 X87.65 Y99.138 E.45849
G1 X87.438 Y99.508 E.01431
M73 P13 R6
G1 X96.734 Y108.803 E.44094
G1 X96.152 Y108.803 E.01952
G1 X87.95 Y100.602 E.38903
G1 X88.747 Y101.981 E.05341
G1 X95.57 Y108.803 E.32363
G1 X94.988 Y108.803 E.01952
G1 X89.544 Y103.36 E.25823
G1 X90.34 Y104.738 E.05341
G1 X94.406 Y108.803 E.19283
G1 X93.824 Y108.804 E.01952
G1 X91.137 Y106.117 E.12743
G1 X91.934 Y107.496 E.05341
G1 X93.425 Y108.987 E.07072
G1 X92.826 Y108.946 F7200
;TYPE:Gap infill
;WIDTH:0.344733
G1 F1800
G1 X92.695 Y108.776 E.00528
;WIDTH:0.298739
G1 X92.564 Y108.606 E.00447
;WIDTH:0.252746
G1 X92.434 Y108.436 E.00367
;WIDTH:0.206753
G1 X92.303 Y108.265 E.00286
;WIDTH:0.16076
G1 X92.172 Y108.095 E.00206
;WIDTH:0.137763
G1 X92.042 Y107.925 E.00166
G1 E-.98541
;WIPE_START
G1 X92.172 Y108.095 E-.21459
;WIPE_END
G1 Z.6 F7200
G1 X117.617 Y110.393 Z.6
G1 Z.2
G1 E1.2 F1800
;WIDTH:0.281868
G1 X117.5 Y110.241 E.00373
;WIDTH:0.239624
G1 X117.384 Y110.088 E.00307
;WIDTH:0.19738
G1 X117.267 Y109.936 E.00241
;WIDTH:0.155136
G1 X117.151 Y109.784 E.00175
;WIDTH:0.134014
G1 X117.034 Y109.632 E.00142
G1 E-1.00827
;WIPE_START
G1 X117.151 Y109.784 E-.19173
;WIPE_END
G1 Z.6 F7200
G1 X119.193 Y113.134 Z.6
G1 Z.2
G1 E1.2 F1800
;WIDTH:0.281868
G1 X119.077 Y112.981 E.00373
;WIDTH:0.239624
G1 X118.96 Y112.829 E.00307
;WIDTH:0.19738
G1 X118.844 Y112.677 E.00241
;WIDTH:0.155136
G1 X118.727 Y112.525 E.00175
;WIDTH:0.134014
G1 X118.61 Y112.373 E.00142
G1 E-1.00828
;WIPE_START
G1 X118.727 Y112.525 E-.19172
;WIPE_END
G1 Z.6 F7200
G1 X120.77 Y115.874 Z.6
G1 Z.2
G1 E1.2 F1800
;WIDTH:0.281867
G1 X120.653 Y115.722 E.00373
;WIDTH:0.239624
G1 X120.537 Y115.57 E.00307
;WIDTH:0.19738
G1 X120.42 Y115.418 E.00241
;WIDTH:0.155136
G1 X120.303 Y115.265 E.00175
;WIDTH:0.134014
G1 X120.187 Y115.113 E.00142
G1 E-1.00828
;WIPE_START
G1 X120.303 Y115.265 E-.19172
;WIPE_END
G1 Z.6 F7200
G1 X122.346 Y118.615 Z.6
G1 Z.2
G1 E1.2 F1800
;WIDTH:0.281866
G1 X122.23 Y118.463 E.00373
;WIDTH:0.239623
G1 X122.113 Y118.311 E.00307
;WIDTH:0.197379
M73 P14 R6
G1 X121.996 Y118.158 E.00241
;WIDTH:0.155136
G1 X121.88 Y118.006 E.00175
;WIDTH:0.134014
G1 X121.763 Y117.854 E.00142
G1 E-1.00828
;WIPE_START
G1 X121.88 Y118.006 E-.19172
;WIPE_END
G1 Z.6 F7200
G1 X123.923 Y121.356 Z.6
G1 Z.2
G1 E1.2 F1800
;WIDTH:0.281866
G1 X123.806 Y121.203 E.00373
;WIDTH:0.239623
G1 X123.689 Y121.051 E.00307
;WIDTH:0.197379
G1 X123.573 Y120.899 E.00241
;WIDTH:0.155136
G1 X123.456 Y120.747 E.00175
;WIDTH:0.134014
G1 X123.34 Y120.595 E.00142
G1 E-1.00828
;WIPE_START
G1 X123.456 Y120.747 E-.19172
;WIPE_END
G1 Z.6 F7200
G1 X125.499 Y124.096 Z.6
G1 Z.2
G1 E1.2 F1800
;WIDTH:0.281866
G1 X125.383 Y123.944 E.00373
;WIDTH:0.239622
G1 X125.266 Y123.792 E.00307
;WIDTH:0.197379
G1 X125.149 Y123.64 E.00241
;WIDTH:0.155135
G1 X125.033 Y123.488 E.00175
;WIDTH:0.134014
G1 X124.916 Y123.335 E.00142
G1 E-1.00828
;WIPE_START
G1 X125.033 Y123.488 E-.19172
;WIPE_END
G1 Z.6 F7200
G1 X127.076 Y126.837 Z.6
G1 Z.2
G1 E1.2 F1800
;WIDTH:0.281865
G1 X126.959 Y126.685 E.00373
;WIDTH:0.239622
G1 X126.842 Y126.533 E.00307
;WIDTH:0.197379
G1 X126.726 Y126.38 E.00241
;WIDTH:0.155135
G1 X126.609 Y126.228 E.00175
;WIDTH:0.134014
G1 X126.493 Y126.076 E.00142
G1 E-1.00828
;WIPE_START
G1 X126.609 Y126.228 E-.19172
;WIPE_END
G1 Z.6 F7200
G1 X132.313 Y119.612 Z.6
G1 Z.2
G1 E1.2 F1800
;WIDTH:0.112947
G1 X132.195 Y119.458 E.0011
;WIDTH:0.155304
G1 X132.078 Y119.305 E.00177
;WIDTH:0.197661
G1 X131.96 Y119.151 E.00244
;WIDTH:0.240018
G1 X131.842 Y118.998 E.00311
;WIDTH:0.261196
G1 X131.724 Y118.845 E.00344
G1 E-1.00662
;WIPE_START
G1 X131.842 Y118.998 E-.19338
;WIPE_END
G1 Z.6 F7200
G1 X130.72 Y116.854 Z.6
G1 Z.2
G1 E1.2 F1800
;WIDTH:0.112947
G1 X130.602 Y116.701 E.0011
;WIDTH:0.155304
G1 X130.485 Y116.548 E.00177
;WIDTH:0.197661
G1 X130.367 Y116.394 E.00244
;WIDTH:0.240018
G1 X130.249 Y116.241 E.00311
;WIDTH:0.261196
G1 X130.131 Y116.087 E.00344
G1 E-1.00662
;WIPE_START
G1 X130.249 Y116.241 E-.19338
;WIPE_END
G1 Z.6 F7200
G1 X129.127 Y114.097 Z.6
G1 Z.2
G1 E1.2 F1800
;WIDTH:0.112947
G1 X129.009 Y113.944 E.0011
;WIDTH:0.155304
G1 X128.892 Y113.79 E.00177
;WIDTH:0.197661
G1 X128.774 Y113.637 E.00244
;WIDTH:0.240018
G1 X128.656 Y113.483 E.00311
;WIDTH:0.261196
G1 X128.538 Y113.33 E.00344
G1 E-1.00662
;WIPE_START
G1 X128.656 Y113.483 E-.19338
;WIPE_END
G1 Z.6 F7200
G1 X127.534 Y111.34 Z.6
G1 Z.2
G1 E1.2 F1800
;WIDTH:0.112947
G1 X127.416 Y111.186 E.0011
;WIDTH:0.155304
G1 X127.299 Y111.033 E.00177
;WIDTH:0.197661
G1 X127.181 Y110.88 E.00244
;WIDTH:0.240018
G1 X127.063 Y110.726 E.00311
;WIDTH:0.261196
G1 X126.945 Y110.573 E.00344
G1 E-1.00662
;WIPE_START
G1 X127.063 Y110.726 E-.19338
;WIPE_END
G1 Z.6 F7200
G1 X125.941 Y108.582 Z.6
G1 Z.2
G1 E1.2 F1800
;WIDTH:0.112947
G1 X125.823 Y108.429 E.0011
;WIDTH:0.155304
G1 X125.705 Y108.276 E.00177
;WIDTH:0.197661
G1 X125.588 Y108.122 E.00244
;WIDTH:0.240017
G1 X125.47 Y107.969 E.00311
;WIDTH:0.261196
G1 X125.352 Y107.815 E.00344
G1 E-1.00662
;WIPE_START
G1 X125.47 Y107.969 E-.19338
;WIPE_END
G1 Z.6 F7200
G1 X124.348 Y105.825 Z.6
G1 Z.2
G1 E1.2 F1800
;WIDTH:0.112947
G1 X124.23 Y105.672 E.0011
;WIDTH:0.155304
G1 X124.112 Y105.518 E.00177
;WIDTH:0.197661
G1 X123.995 Y105.365 E.00244
;WIDTH:0.240018
G1 X123.877 Y105.212 E.00311
;WIDTH:0.261196
G1 X123.759 Y105.058 E.00344
G1 E-1.00662
;WIPE_START
G1 X123.877 Y105.212 E-.19338
;WIPE_END
G1 Z.6 F7200
M73 P15 R6
G1 X122.755 Y103.068 Z.6
G1 Z.2
G1 E1.2 F1800
;WIDTH:0.115092
G1 X122.617 Y102.888 E.00133
;WIDTH:0.138416
G1 X122.479 Y102.708 E.00177
G1 X121.958 Y101.689 F7200
;WIDTH:0.114768
G1 F1800
G1 X121.828 Y101.519 E.00126
;WIDTH:0.160768
G1 X121.697 Y101.349 E.00206
;WIDTH:0.206768
G1 X121.566 Y101.179 E.00287
;WIDTH:0.252767
G1 X121.436 Y101.008 E.00367
;WIDTH:0.298767
G1 X121.305 Y100.838 E.00447
;WIDTH:0.321766
G1 X121.175 Y100.668 E.00488
G1 E-.98541
;WIPE_START
G1 X121.305 Y100.838 E-.21459
;WIPE_END
G1 Z.6 F7200
G1 X108.667 Y99.458 Z.6
G1 Z.2
G1 E1.2 F1800
;WIDTH:0.112834
G1 X108.551 Y99.307 E.00108
;WIDTH:0.15496
G1 X108.436 Y99.156 E.00173
;WIDTH:0.197087
G1 X108.321 Y99.005 E.00239
;WIDTH:0.239214
G1 X108.205 Y98.854 E.00304
;WIDTH:0.260278
G1 X108.09 Y98.703 E.00337
G1 E-1.00997
;WIPE_START
G1 X108.205 Y98.854 E-.19003
;WIPE_END
G1 Z.6 F7200
G1 X107.107 Y96.735 Z.6
G1 Z.2
G1 E1.2 F1800
;WIDTH:0.106264
G1 X107.026 Y96.628 E.00069
;WIDTH:0.143463
G1 X106.902 Y96.466 E.00167
;WIDTH:0.188876
G1 X106.778 Y96.304 E.00243
;WIDTH:0.234288
G1 X106.654 Y96.142 E.00318
;WIDTH:0.256994
G1 X106.53 Y95.98 E.00356
G1 E-.99596
;WIPE_START
G1 X106.654 Y96.142 E-.20404
;WIPE_END
G1 Z.6 F7200
G1 X105.548 Y94.011 Z.6
G1 Z.2
G1 E1.2 F1800
;WIDTH:0.114538
G1 X105.436 Y93.864 E.00108
;WIDTH:0.160075
G1 X105.324 Y93.718 E.00176
;WIDTH:0.202769
G1 X105.206 Y93.564 E.00253
;WIDTH:0.242623
G1 X105.088 Y93.41 E.00315
;WIDTH:0.26255
G1 X104.971 Y93.256 E.00347
G1 E-1.00615
;WIPE_START
G1 X105.088 Y93.41 E-.19385
;WIPE_END
G1 Z.6 F7200
G1 X96.338 Y98.772 Z.6
G1 Z.2
G1 E1.2 F1800
;WIDTH:0.112999
G1 X96.219 Y98.618 E.00111
;WIDTH:0.155455
G1 X96.1 Y98.463 E.00179
;WIDTH:0.19791
G1 X95.982 Y98.309 E.00246
;WIDTH:0.240366
G1 X95.863 Y98.154 E.00314
;WIDTH:0.261594
G1 X95.744 Y98 E.00347
G1 E-1.00514
;WIPE_START
G1 X95.863 Y98.154 E-.19486
;WIPE_END
