; HEADER_BLOCK_START
; generated by OrcaSlicer 2.0.0 on 2024-05-12 at 16:28:22
; total layer number: 60
; filament_density: 1.24
; filament_diameter: 1.75
; max_z_height: 12.00
; HEADER_BLOCK_END

; THUMBNAIL_BLOCK_START

;
; THUMBNAIL_BLOCK_END

; THUMBNAIL_BLOCK_START

;
; THUMBNAIL_BLOCK_END

; external perimeters extrusion width = 0.45mm
; perimeters extrusion width = 0.45mm
; infill extrusion width = 0.45mm
; solid infill extrusion width = 0.45mm
; top infill extrusion width = 0.40mm

; EXECUTABLE_BLOCK_START
M73 P0 R157
M201 X5000 Y5000 Z500 E5000
M203 X500 Y500 Z30 E100
M204 P5000 R2500 T5000 ; sets acceleration (P, T) and retract acceleration (R), mm/sec^2
M205 X10.00 Y10.00 Z0.40 E5.00 ; sets the jerk limits, mm/sec
;TYPE:Custom
M220 S100 ;Reset Feedrate 
M221 S100 ;Reset Flowrate 
 
M140 S55 ;Set final bed temp 
G28 ;Home 
M420 S1; Enable mesh leveling 
G92 E0 ;Reset Extruder 
G1 Z2.0 F3000 ;Move Z Axis up 
M104 S220 ;Set final nozzle temp 
G1 X-2.1 Y20 Z0.28 F5000.0 ;Move to start position 
M190 S55 ;Wait for bed temp to stabilize 
M109 S220 ;Wait for nozzle temp to stabilize 
G1 X-2.1 Y145.0 Z0.28 F1500.0 E15 ;Draw the first line 
G1 X-2.4 Y145.0 Z0.28 F5000.0 ;Move to side a little 
M73 P0 R156
G1 X-2.4 Y20 Z0.28 F1500.0 E30 ;Draw the second line 
G92 E0  ;Reset Extruder 
G1 E-1.0000 F1800 ;Retract a bit 
G1 Z2.0 F3000 ;Move Z Axis up 
G1 E0.0000 F1800
G90
G21
M83 ; use relative distances for extrusion
; filament start gcode
M106 S0
;LAYER_CHANGE
;Z:0.2
;HEIGHT:0.2
;BEFORE_LAYER_CHANGE
;0.2
G92 E0

G1 E-1.2 F1800
;_SET_FAN_SPEED_CHANGING_LAYER
M204 P300
M204 T300
G1 Z.4 F7200
G1 X71.341 Y41.189
G1 Z.4
G1 Z.2
G1 E1.2 F1800
;TYPE:Skirt
;WIDTH:0.45
G1 F3000
G1 X77.915 Y29.802 E.43615
G1 X78.913 Y28.858 E.04555
G1 X80 Y28.599 E.03708
G1 X134 Y28.599 E1.79128
G1 X135.316 Y28.991 E.04555
G1 X136.085 Y29.802 E.03708
G1 X166.085 Y81.763 E1.9903
G1 X166.407 Y82.967 E.04133
G1 X166.407 Y137.033 E1.79347
G1 X166.085 Y138.237 E.04133
G1 X136.085 Y190.198 E1.99029
G1 X135.087 Y191.142 E.04555
G1 X134 Y191.401 E.03708
G1 X80 Y191.401 E1.79128
G1 X78.684 Y191.009 E.04555
G1 X77.915 Y190.198 E.03708
G1 X53.915 Y148.629 E1.59224
G1 X53.593 Y147.425 E.04133
G1 X53.593 Y72.575 E2.48291
G1 X53.915 Y71.371 E.04133
G1 X71.321 Y41.224 E1.15476
; printing object Evil_Puzzle_-_With_2x3mm_Magnets.stl id:0 copy 0
G1 E-.84 F1800
;WIPE_START
G1 F3000
G1 X71.821 Y40.358 E-.36
;WIPE_END
G1 Z.6 F7200
G1 X137.369 Y116.348 Z.6
G1 Z.2
G1 E1.2 F1800
;TYPE:Inner wall
;WIDTH:0.449999
G1 X137.389 Y116.261 E.00296
G1 X137.389 Y109.712 E.21727
G1 X148.563 Y109.587 E.37069
G1 X151.368 Y109.57 E.09303
G1 X151.368 Y116.282 E.22263
G1 X151.45 Y116.559 E.0096
G1 X163.27 Y137.033 E.78422
G1 X133.635 Y188.362 E1.96608
G1 X80.365 Y188.362 E1.76707
G1 X56.73 Y147.425 E1.56803
G1 X74.57 Y116.522 E1.18365
G1 X74.632 Y116.254 E.00915
G1 X74.632 Y109.56 E.22204
G1 X75.976 Y109.557 E.04459
G1 X81.817 Y109.632 E.19376
G1 X82.528 Y109.681 E.02366
G1 X83.124 Y109.801 E.02015
G1 X88.611 Y109.801 E.18202
G1 X88.617 Y116.345 E.2171
G1 X88.722 Y116.612 E.0095
G1 X88.949 Y116.808 E.00996
G1 X89.222 Y116.872 E.00928
G1 X105.477 Y116.872 E.53924
G1 X105.767 Y116.749 E.01044
G1 X105.95 Y116.525 E.00958
G1 X106.01 Y116.261 E.00898
G1 X106.01 Y109.593 E.2212
G1 X108.128 Y109.593 E.07025
G1 X110.09 Y109.685 E.06515
G1 X119.99 Y109.685 E.32841
G1 X119.99 Y116.339 E.22075
G1 X120.098 Y116.609 E.00962
G1 X120.311 Y116.799 E.00947
G1 X120.601 Y116.872 E.00991
G1 X136.866 Y116.872 E.53955
G1 X137.15 Y116.746 E.01031
G1 X137.327 Y116.529 E.00929
G1 X137.36 Y116.387 E.00484
G1 X136.982 Y116.261 F7200
;TYPE:Outer wall
G1 F1800
G1 X136.982 Y109.309 E.23063
G1 X148.56 Y109.18 E.38408
G1 X151.775 Y109.161 E.10665
G1 X151.775 Y116.254 E.23529
G1 X151.802 Y116.356 E.00349
G1 X163.74 Y137.033 E.79202
G1 X133.87 Y188.769 E1.98167
G1 X80.13 Y188.769 E1.78266
G1 X56.26 Y147.425 E1.58362
G1 X74.198 Y116.356 E1.19007
G1 X74.225 Y116.254 E.00349
G1 X74.225 Y109.154 E.23551
G1 X75.978 Y109.15 E.05816
G1 X81.833 Y109.225 E.19423
G1 X82.812 Y109.292 E.03255
G1 X83.124 Y109.394 E.01086
G1 X89.018 Y109.394 E.19552
G1 X89.018 Y116.261 E.22782
G1 X89.076 Y116.404 E.0051
G1 X89.222 Y116.465 E.00523
G1 X105.399 Y116.465 E.53665
G1 X105.535 Y116.413 E.00483
G1 X105.603 Y116.261 E.0055
G1 X105.603 Y109.186 E.2347
G1 X108.137 Y109.186 E.08406
G1 X110.099 Y109.278 E.06515
G1 X120.397 Y109.278 E.3416
G1 X120.397 Y116.261 E.23167
G1 X120.449 Y116.398 E.00485
G1 X120.601 Y116.465 E.00548
G1 X136.778 Y116.465 E.53665
G1 X136.913 Y116.414 E.00478
G1 X136.966 Y116.298 E.00422
G1 E-.84
;WIPE_START
G1 X136.968 Y115.298 E-.36
;WIPE_END
G1 Z.6 F7200
G1 X151.205 Y110.558
G1 Z.6
G1 Z.2
G1 E1.2 F1800
;TYPE:Bottom surface
;WIDTH:0.450487
G1 F3600
G1 X150.568 Y109.921 E.02991
G1 X149.995 Y109.924 E.01903
G1 X151.022 Y110.951 E.04822
G1 X151.022 Y111.527 E.01914
G1 X149.422 Y109.928 E.07514
G1 X148.849 Y109.931 E.01903
G1 X151.022 Y112.104 E.10205
G1 X151.022 Y112.68 E.01914
G1 X148.278 Y109.936 E.12889
G1 X147.708 Y109.942 E.01893
G1 X151.022 Y113.257 E.15567
G1 X151.022 Y113.833 E.01914
G1 X147.138 Y109.949 E.18244
G1 X146.568 Y109.955 E.01893
G1 X151.022 Y114.409 E.20921
G1 X151.022 Y114.986 E.01914
G1 X145.998 Y109.961 E.23598
G1 X145.428 Y109.968 E.01893
G1 X151.022 Y115.562 E.26276
G1 X151.022 Y116.139 E.01914
G1 X144.858 Y109.974 E.28953
G1 X144.288 Y109.981 E.01893
G1 X151.324 Y117.017 E.33047
G1 X152.109 Y118.379 E.05223
G1 X143.718 Y109.987 E.39415
G1 X143.148 Y109.993 E.01893
G1 X152.895 Y119.741 E.45784
G1 X153.681 Y121.103 E.05223
G1 X142.577 Y110 E.52152
G1 X142.007 Y110.006 E.01893
G1 X154.467 Y122.465 E.5852
G1 X155.253 Y123.828 E.05223
G1 X141.437 Y110.012 E.64888
G1 X140.867 Y110.019 E.01893
G1 X156.039 Y125.19 E.71256
G1 X156.824 Y126.552 E.05223
G1 X140.297 Y110.025 E.77625
G1 X139.727 Y110.031 E.01893
G1 X157.61 Y127.914 E.83993
G1 X158.396 Y129.277 E.05223
G1 X139.157 Y110.038 E.90361
G1 X138.587 Y110.044 E.01893
G1 X159.182 Y130.639 E.96729
G1 X159.968 Y132.001 E.05223
G1 X138.017 Y110.051 E1.03097
G1 X137.735 Y110.054 E.00938
G1 X137.735 Y110.344 E.00966
G1 X160.754 Y133.363 E1.08115
G1 X161.539 Y134.725 E.05223
G1 X137.735 Y110.921 E1.11807
G1 X137.734 Y111.497 E.01913
G1 X162.325 Y136.088 E1.155
G1 X162.871 Y137.033 E.03624
G1 X162.806 Y137.145 E.00429
G1 X137.734 Y112.073 E1.17759
G1 X137.734 Y112.649 E.01913
G1 X162.595 Y137.51 E1.16769
G1 X162.384 Y137.876 E.01401
G1 X137.734 Y113.225 E1.15779
G1 X137.733 Y113.801 E.01913
G1 X162.173 Y138.241 E1.1479
G1 X161.962 Y138.606 E.01401
G1 X137.733 Y114.377 E1.138
G1 X137.733 Y114.953 E.01913
M73 P0 R155
G1 X161.751 Y138.972 E1.12811
G1 X161.54 Y139.337 E.01401
G1 X137.732 Y115.53 E1.11821
G1 X137.732 Y116.106 E.01913
G1 X161.329 Y139.703 E1.10831
G1 X161.118 Y140.068 E.01401
G1 X137.665 Y116.615 E1.10156
G1 X137.563 Y116.81 E.00733
G1 X137.432 Y116.958 E.00655
G1 X160.907 Y140.434 E1.10261
G1 X160.696 Y140.799 E.01401
G1 X137.068 Y117.171 E1.10978
G1 X136.877 Y117.214 E.00649
G1 X136.535 Y117.214 E.01138
G1 X160.485 Y141.164 E1.12492
G1 X160.274 Y141.53 E.01401
G1 X135.958 Y117.214 E1.14208
G1 X135.382 Y117.214 E.01914
G1 X160.063 Y141.895 E1.15923
G1 X159.852 Y142.261 E.01401
G1 X134.806 Y117.214 E1.17639
G1 X134.23 Y117.214 E.01914
G1 X159.641 Y142.626 E1.19354
G1 X159.43 Y142.991 E.01401
G1 X133.653 Y117.214 E1.2107
G1 X133.077 Y117.215 E.01914
G1 X159.219 Y143.357 E1.22785
G1 X159.009 Y143.722 E.01401
G1 X132.501 Y117.215 E1.24501
G1 X131.925 Y117.215 E.01914
G1 X158.798 Y144.088 E1.26216
G1 X158.587 Y144.453 E.01401
G1 X131.349 Y117.215 E1.27932
G1 X130.772 Y117.215 E.01914
G1 X158.376 Y144.818 E1.29648
G1 X158.165 Y145.184 E.01401
G1 X130.196 Y117.215 E1.31363
G1 X129.62 Y117.216 E.01914
G1 X157.954 Y145.549 E1.33079
G1 X157.743 Y145.915 E.01401
G1 X129.044 Y117.216 E1.34794
G1 X128.467 Y117.216 E.01914
G1 X157.532 Y146.28 E1.3651
G1 X157.321 Y146.646 E.01401
G1 X127.891 Y117.216 E1.38225
G1 X127.315 Y117.216 E.01914
G1 X157.11 Y147.011 E1.39941
G1 X156.899 Y147.376 E.01401
G1 X126.739 Y117.216 E1.41656
G1 X126.163 Y117.217 E.01914
G1 X156.688 Y147.742 E1.43372
G1 X156.477 Y148.107 E.01401
G1 X125.586 Y117.217 E1.45087
G1 X125.01 Y117.217 E.01914
G1 X156.266 Y148.473 E1.46803
G1 X156.055 Y148.838 E.01401
G1 X124.434 Y117.217 E1.48518
G1 X123.858 Y117.217 E.01914
G1 X155.844 Y149.203 E1.50234
G1 X155.633 Y149.569 E.01401
G1 X123.281 Y117.217 E1.51949
G1 X122.705 Y117.218 E.01914
G1 X155.422 Y149.934 E1.53665
G1 X155.211 Y150.3 E.01401
G1 X122.129 Y117.218 E1.5538
G1 X121.553 Y117.218 E.01914
G1 X155 Y150.665 E1.57096
G1 X154.789 Y151.031 E.01401
G1 X120.793 Y117.035 E1.59672
G1 E-.84 F1800
;WIPE_START
G1 F3600
G1 X121.5 Y117.742 E-.36
;WIPE_END
G1 Z.6 F7200
G1 X119.827 Y110.305 Z.6
G1 Z.2
G1 E1.2 F1800
G1 F3600
G1 X119.553 Y110.031 E.01288
G1 X118.977 Y110.031 E.01914
G1 X119.644 Y110.698 E.03136
G1 X119.645 Y111.275 E.01915
G1 X118.4 Y110.031 E.05845
G1 X117.824 Y110.031 E.01914
G1 X119.645 Y111.852 E.08553
G1 X119.645 Y112.428 E.01915
G1 X117.247 Y110.031 E.11261
G1 X116.671 Y110.031 E.01914
G1 X119.645 Y113.005 E.1397
G1 X119.646 Y113.582 E.01915
G1 X116.095 Y110.031 E.16678
G1 X115.518 Y110.031 E.01914
G1 X119.646 Y114.158 E.19387
G1 X119.646 Y114.735 E.01915
G1 X114.942 Y110.031 E.22095
G1 X114.366 Y110.031 E.01914
G1 X119.647 Y115.312 E.24804
G1 X119.647 Y115.888 E.01915
G1 X113.789 Y110.031 E.27512
G1 X113.213 Y110.031 E.01914
G1 X154.578 Y151.396 E1.94286
G1 X154.367 Y151.761 E.01401
M73 P1 R155
G1 X112.636 Y110.031 E1.96002
G1 X112.06 Y110.031 E.01914
G1 X154.156 Y152.127 E1.97718
G1 X153.945 Y152.492 E.01401
G1 X111.484 Y110.031 E1.99434
G1 X110.907 Y110.031 E.01914
G1 X153.734 Y152.858 E2.01151
G1 X153.523 Y153.223 E.01401
G1 X110.331 Y110.031 E2.02867
G1 X109.738 Y110.014 E.01971
G1 X153.312 Y153.588 E2.04662
G1 X153.101 Y153.954 E.01401
G1 X109.133 Y109.986 E2.06509
G1 X108.529 Y109.958 E.02009
G1 X152.89 Y154.319 E2.08357
G1 X152.679 Y154.685 E.01401
G1 X107.934 Y109.939 E2.10162
G1 X107.357 Y109.939 E.01914
G1 X152.468 Y155.05 E2.11878
G1 X152.257 Y155.415 E.01401
G1 X106.781 Y109.939 E2.13594
G1 X106.356 Y109.939 E.01411
G1 X106.356 Y110.091 E.00503
G1 X152.046 Y155.781 E2.146
G1 X151.835 Y156.146 E.01401
G1 X106.356 Y110.667 E2.13609
G1 X106.356 Y111.243 E.01914
G1 X151.624 Y156.512 E2.12619
G1 X151.413 Y156.877 E.01401
G1 X106.356 Y111.819 E2.11628
G1 X106.356 Y112.396 E.01914
G1 X151.202 Y157.243 E2.10638
G1 X150.992 Y157.608 E.01401
G1 X106.355 Y112.972 E2.09648
G1 X106.355 Y113.548 E.01914
G1 X150.781 Y157.973 E2.08657
G1 X150.57 Y158.339 E.01401
G1 X106.355 Y114.124 E2.07667
G1 X106.355 Y114.701 E.01914
G1 X150.359 Y158.704 E2.06676
G1 X150.148 Y159.07 E.01401
G1 X106.355 Y115.277 E2.05686
G1 X106.355 Y115.853 E.01914
G1 X149.937 Y159.435 E2.04696
G1 X149.726 Y159.8 E.01401
G1 X106.336 Y116.411 E2.03793
G1 X106.298 Y116.595 E.00624
M73 P1 R154
G1 X106.172 Y116.823 E.00865
G1 X149.515 Y160.166 E2.03573
G1 X149.304 Y160.531 E.01401
G1 X105.862 Y117.09 E2.04038
G1 X105.773 Y117.143 E.00346
G1 X105.592 Y117.199 E.0063
G1 X105.413 Y117.217 E.00595
G1 X149.093 Y160.897 E2.05154
G1 X148.882 Y161.262 E.01401
G1 X104.838 Y117.218 E2.06867
G1 X104.261 Y117.218 E.01914
G1 X148.671 Y161.628 E2.08583
G1 X148.46 Y161.993 E.01401
G1 X103.685 Y117.218 E2.10299
G1 X103.109 Y117.218 E.01914
G1 X148.249 Y162.358 E2.12016
G1 X148.038 Y162.724 E.01401
G1 X102.532 Y117.218 E2.13732
G1 X101.956 Y117.218 E.01914
G1 X147.827 Y163.089 E2.15448
G1 X147.616 Y163.455 E.01401
G1 X101.379 Y117.218 E2.17165
G1 X100.803 Y117.218 E.01914
G1 X147.405 Y163.82 E2.18881
G1 X147.194 Y164.185 E.01401
G1 X100.227 Y117.218 E2.20597
G1 X99.65 Y117.218 E.01914
G1 X146.983 Y164.551 E2.22313
G1 X146.772 Y164.916 E.01401
G1 X99.074 Y117.218 E2.2403
G1 X98.498 Y117.218 E.01914
G1 X146.561 Y165.282 E2.25746
G1 X146.35 Y165.647 E.01401
G1 X97.921 Y117.218 E2.27462
G1 X97.345 Y117.218 E.01914
G1 X146.139 Y166.012 E2.29179
G1 X145.928 Y166.378 E.01401
G1 X96.768 Y117.218 E2.30895
G1 X96.192 Y117.218 E.01914
G1 X145.717 Y166.743 E2.32611
G1 X145.506 Y167.109 E.01401
G1 X95.616 Y117.218 E2.34327
G1 X95.039 Y117.218 E.01914
G1 X145.295 Y167.474 E2.36044
G1 X145.084 Y167.84 E.01401
G1 X94.463 Y117.218 E2.3776
G1 X93.886 Y117.218 E.01914
G1 X144.873 Y168.205 E2.39476
G1 X144.662 Y168.57 E.01401
G1 X93.31 Y117.218 E2.41192
G1 X92.734 Y117.218 E.01914
G1 X144.451 Y168.936 E2.42909
G1 X144.24 Y169.301 E.01401
G1 X92.157 Y117.218 E2.44625
G1 X91.581 Y117.218 E.01914
G1 X144.029 Y169.667 E2.46341
G1 X143.818 Y170.032 E.01401
G1 X91.005 Y117.218 E2.48058
G1 X90.428 Y117.218 E.01914
G1 X143.607 Y170.397 E2.49774
G1 X143.396 Y170.763 E.01401
G1 X89.669 Y117.035 E2.52351
G1 E-.84 F1800
;WIPE_START
G1 F3600
G1 X90.376 Y117.742 E-.36
;WIPE_END
G1 Z.6 F7200
G1 X88.449 Y110.628 Z.6
G1 Z.2
G1 E1.2 F1800
G1 F3600
G1 X87.968 Y110.147 E.02259
G1 X87.391 Y110.147 E.01914
G1 X88.266 Y111.021 E.04108
G1 X88.267 Y111.599 E.01917
G1 X86.815 Y110.147 E.06819
G1 X86.239 Y110.147 E.01914
G1 X88.268 Y112.176 E.09529
G1 X88.268 Y112.753 E.01917
G1 X85.662 Y110.147 E.1224
G1 X85.086 Y110.147 E.01914
G1 X88.269 Y113.33 E.1495
G1 X88.27 Y113.907 E.01917
G1 X84.51 Y110.147 E.17661
G1 X83.933 Y110.147 E.01914
G1 X88.27 Y114.484 E.20371
G1 X88.271 Y115.061 E.01917
G1 X83.357 Y110.147 E.23081
G1 X83.116 Y110.147 E.008
G1 X82.918 Y110.125 E.00662
G1 X82.677 Y110.044 E.00843
G1 X88.455 Y115.822 E.27137
G1 E-.84 F1800
;WIPE_START
G1 F3600
G1 X87.748 Y115.114 E-.36
;WIPE_END
G1 Z.6 F7200
G1 X81.855 Y109.798 Z.6
G1 Z.2
G1 E1.2 F1800
G1 F3600
G1 X88.272 Y116.215 E.30142
G1 X88.273 Y116.389 E.00578
G1 X88.309 Y116.55 E.00546
G1 X88.391 Y116.738 E.00682
G1 X88.486 Y116.874 E.00552
G1 X88.591 Y116.982 E.00498
G1 X88.744 Y117.091 E.00624
G1 X88.889 Y117.159 E.00534
G1 X89.055 Y117.204 E.0057
G1 X89.275 Y117.218 E.00733
G1 X143.186 Y171.128 E2.53206
G1 X142.975 Y171.494 E.01401
G1 X81.454 Y109.973 E2.88951
G1 X80.87 Y109.966 E.01939
G1 X142.764 Y171.859 E2.90702
G1 X142.553 Y172.224 E.01401
G1 X80.286 Y109.958 E2.92453
G1 X79.703 Y109.951 E.01939
G1 X142.342 Y172.59 E2.94204
G1 X142.131 Y172.955 E.01401
G1 X79.119 Y109.943 E2.95955
G1 X78.535 Y109.936 E.01939
G1 X141.92 Y173.321 E2.97707
G1 X141.709 Y173.686 E.01401
G1 X77.951 Y109.929 E2.99458
G1 X77.367 Y109.921 E.01939
G1 X141.498 Y174.052 E3.01209
G1 X141.287 Y174.417 E.01401
G1 X76.784 Y109.914 E3.0296
G1 X76.2 Y109.906 E.01939
G1 X141.076 Y174.782 E3.04711
G1 X140.865 Y175.148 E.01401
M73 P1 R153
G1 X75.621 Y109.904 E3.06437
G1 X75.046 Y109.905 E.01911
G1 X140.654 Y175.513 E3.08148
G1 X140.443 Y175.879 E.01401
G1 X74.978 Y110.414 E3.07476
G1 X74.978 Y110.99 E.01914
G1 X140.232 Y176.244 E3.06485
G1 X140.021 Y176.609 E.01401
M73 P2 R153
G1 X74.978 Y111.567 E3.05495
G1 X74.978 Y112.143 E.01914
G1 X139.81 Y176.975 E3.04504
G1 X139.599 Y177.34 E.01401
G1 X74.978 Y112.719 E3.03513
G1 X74.978 Y113.296 E.01914
G1 X139.388 Y177.706 E3.02522
G1 X139.177 Y178.071 E.01401
G1 X74.978 Y113.872 E3.01531
G1 X74.978 Y114.449 E.01914
G1 X138.966 Y178.437 E3.0054
G1 X138.755 Y178.802 E.01401
G1 X74.978 Y115.025 E2.99549
G1 X74.978 Y115.601 E.01914
G1 X138.544 Y179.167 E2.98558
G1 X138.333 Y179.533 E.01401
G1 X74.978 Y116.178 E2.97567
G1 X74.955 Y116.466 E.00961
G1 X74.886 Y116.662 E.0069
G1 X138.122 Y179.898 E2.97009
G1 X137.911 Y180.264 E.01401
G1 X74.676 Y117.029 E2.97002
G1 X74.465 Y117.394 E.01401
G1 X137.7 Y180.629 E2.97002
G1 X137.489 Y180.994 E.01401
G1 X74.255 Y117.76 E2.97002
G1 X74.044 Y118.125 E.01401
G1 X137.278 Y181.36 E2.97002
G1 X137.067 Y181.725 E.01401
G1 X73.833 Y118.491 E2.97002
G1 X73.622 Y118.856 E.01401
G1 X136.856 Y182.091 E2.97002
G1 X136.645 Y182.456 E.01401
G1 X73.411 Y119.221 E2.97002
G1 X73.2 Y119.587 E.01401
G1 X136.434 Y182.821 E2.97002
G1 X136.223 Y183.187 E.01401
G1 X72.989 Y119.952 E2.97002
G1 X72.778 Y120.318 E.01401
G1 X136.012 Y183.552 E2.97002
G1 X135.801 Y183.918 E.01401
G1 X72.567 Y120.683 E2.97001
G1 X72.356 Y121.049 E.01401
G1 X135.59 Y184.283 E2.97001
G1 X135.379 Y184.649 E.01401
G1 X72.145 Y121.414 E2.97001
