; HEADER_BLOCK_START
; generated by OrcaSlicer 2.0.0 on 2024-05-12 at 16:55:02
; total layer number: 15
; filament_density: 1.24
; filament_diameter: 1.75
; max_z_height: 3.00
; HEADER_BLOCK_END

; THUMBNAIL_BLOCK_START

;
; THUMBNAIL_BLOCK_END

; THUMBNAIL_BLOCK_START

;
; THUMBNAIL_BLOCK_END

; external perimeters extrusion width = 0.45mm
; perimeters extrusion width = 0.45mm
; infill extrusion width = 0.45mm
; solid infill extrusion width = 0.45mm
; top infill extrusion width = 0.40mm

; EXECUTABLE_BLOCK_START
M73 P0 R9
M201 X5000 Y5000 Z500 E5000
M203 X500 Y500 Z30 E100
M204 P5000 R2500 T5000 ; sets acceleration (P, T) and retract acceleration (R), mm/sec^2
M205 X10.00 Y10.00 Z0.40 E5.00 ; sets the jerk limits, mm/sec
;TYPE:Custom
M220 S100 ;Reset Feedrate 
M221 S100 ;Reset Flowrate 
 
M140 S55 ;Set final bed temp 
G28 ;Home 
M420 S1; Enable mesh leveling 
G92 E0 ;Reset Extruder 
G1 Z2.0 F3000 ;Move Z Axis up 
M104 S220 ;Set final nozzle temp 
G1 X-2.1 Y20 Z0.28 F5000.0 ;Move to start position 
M190 S55 ;Wait for bed temp to stabilize 
M109 S220 ;Wait for nozzle temp to stabilize 
G1 X-2.1 Y145.0 Z0.28 F1500.0 E15 ;Draw the first line 
G1 X-2.4 Y145.0 Z0.28 F5000.0 ;Move to side a little 
G1 X-2.4 Y20 Z0.28 F1500.0 E30 ;Draw the second line 
G92 E0  ;Reset Extruder 
G1 E-1.0000 F1800 ;Retract a bit 
M73 P1 R9
G1 Z2.0 F3000 ;Move Z Axis up 
G1 E0.0000 F1800
G90
G21
M83 ; use relative distances for extrusion
; filament start gcode
M106 S0
;LAYER_CHANGE
;Z:0.2
;HEIGHT:0.2
;BEFORE_LAYER_CHANGE
;0.2
G92 E0

G1 E-1.2 F1800
;_SET_FAN_SPEED_CHANGING_LAYER
M204 P300
M204 T300
G1 Z.4 F7200
G1 X102.041 Y83.127
G1 Z.4
M73 P2 R9
G1 Z.2
G1 E1.2 F1800
;TYPE:Skirt
;WIDTH:0.45
G1 F3000
G1 X103.038 Y82.183 E.04555
G1 X104.121 Y81.924 E.03694
G1 X127.879 Y81.924 E.78807
G1 X129.194 Y82.318 E.04555
G1 X129.959 Y83.127 E.03694
G1 X135.834 Y93.295 E.38955
G1 X136.153 Y94.63 E.04555
G1 X135.838 Y95.696 E.03686
G1 X130.089 Y105.727 E.38352
G1 X129.735 Y106.2 E.0196
G1 X99.733 Y137.357 E1.4348
G1 X98.538 Y138.033 E.04555
G1 X97.167 Y137.946 E.04555
G1 X95.913 Y136.888 E.05445
G1 X84.164 Y116.472 E.78137
G1 X83.847 Y115.136 E.04555
G1 X84.166 Y114.067 E.03699
G1 X102.021 Y83.161 E1.18398
; printing object Evil_C.stl id:0 copy 0
G1 E-.84 F1800
;WIPE_START
G1 F3000
G1 X102.742 Y82.468 E-.36
;WIPE_END
G1 Z.6 F7200
G1 X122.238 Y93.67 Z.6
G1 Z.2
G1 E1.2 F1800
;TYPE:Inner wall
;WIDTH:0.449999
G1 X122.142 Y93.644 E.0033
G1 X109.859 Y93.644 E.40748
G1 X109.553 Y93.726 E.0105
M73 P3 R9
G1 X109.33 Y93.949 E.01046
G1 X97.188 Y114.966 E.80513
G1 X97.107 Y115.272 E.01051
G1 X97.188 Y115.576 E.01044
G1 X103.019 Y125.658 E.38636
G1 X97.998 Y134.418 E.33491
G1 X86.98 Y115.272 E.73277
G1 X104.49 Y84.963 E1.16111
G1 X127.51 Y84.963 E.76363
G1 X133.021 Y94.5 E.36538
G1 X128.001 Y103.258 E.33485
G1 X122.671 Y93.949 E.35584
G1 X122.448 Y93.726 E.01046
M73 P4 R9
G1 X122.277 Y93.68 E.00588
G1 X122.142 Y94.051 F7200
;TYPE:Outer wall
G1 F1800
G1 X109.828 Y94.051 E.4085
G1 X109.682 Y94.153 E.00589
G1 X97.526 Y115.196 E.80615
G1 X97.541 Y115.373 E.00588
G1 X103.488 Y125.657 E.39411
G1 X97.999 Y135.235 E.3662
G1 X86.51 Y115.271 E.76407
G1 X104.255 Y84.556 E1.17669
G1 X127.745 Y84.556 E.77921
G1 X133.49 Y94.499 E.38094
M73 P4 R8
G1 X128.001 Y104.077 E.3662
G1 X122.303 Y94.126 E.38038
M73 P5 R8
G1 X122.179 Y94.068 E.00456
G1 E-.84
;WIPE_START
G1 X121.179 Y94.067 E-.36
;WIPE_END
G1 Z.6 F7200
G1 X126.583 Y85.126
G1 Z.6
G1 Z.2
G1 E1.2 F1800
;TYPE:Bottom surface
;WIDTH:0.45084
G1 F3600
G1 X128.056 Y86.598 E.06922
G1 X128.845 Y87.965 E.05245
G1 X126.189 Y85.309 E.12484
G1 X125.612 Y85.309 E.01918
G1 X129.634 Y89.331 E.18908
G1 X130.424 Y90.698 E.05245
G1 X125.035 Y85.309 E.25331
G1 X124.459 Y85.309 E.01918
G1 X131.213 Y92.064 E.31754
G1 X132.003 Y93.43 E.05245
G1 X123.882 Y85.309 E.38177
G1 X123.305 Y85.309 E.01918
G1 X132.576 Y94.58 E.43583
G1 X132.366 Y94.947 E.01405
G1 X122.728 Y85.309 E.45307
G1 X122.151 Y85.309 E.01918
G1 X132.156 Y95.314 E.47031
G1 X131.946 Y95.68 E.01405
G1 X121.574 Y85.309 E.48755
G1 X120.997 Y85.309 E.01918
G1 X131.735 Y96.047 E.50479
G1 X131.525 Y96.414 E.01405
G1 X120.42 Y85.309 E.52203
G1 X119.843 Y85.309 E.01918
G1 X131.315 Y96.781 E.53926
G1 X131.105 Y97.147 E.01405
M73 P6 R8
G1 X119.267 Y85.309 E.5565
G1 X118.69 Y85.309 E.01918
G1 X130.895 Y97.514 E.57374
G1 X130.684 Y97.881 E.01405
G1 X118.113 Y85.309 E.59098
G1 X117.536 Y85.309 E.01918
G1 X130.474 Y98.247 E.60822
G1 X130.264 Y98.614 E.01405
G1 X116.959 Y85.309 E.62546
G1 X116.382 Y85.309 E.01918
G1 X130.054 Y98.981 E.6427
G1 X129.844 Y99.348 E.01405
G1 X115.805 Y85.309 E.65994
G1 X115.228 Y85.309 E.01918
G1 X129.634 Y99.714 E.67717
G1 X129.423 Y100.081 E.01405
G1 X114.652 Y85.309 E.69441
G1 X114.075 Y85.309 E.01918
G1 X122.063 Y93.298 E.37555
G1 X122.312 Y93.313 E.00828
G1 X122.474 Y93.357 E.00558
G1 X122.622 Y93.426 E.00542
G1 X122.756 Y93.52 E.00544
G1 X122.875 Y93.639 E.0056
G1 X122.968 Y93.771 E.00537
G1 X123.546 Y94.78 E.03866
G1 X129.213 Y100.448 E.26642
G1 X129.003 Y100.814 E.01405
G1 X124.318 Y96.13 E.22022
G1 X125.091 Y97.479 E.05169
G1 X128.793 Y101.181 E.17401
M73 P7 R8
G1 X128.583 Y101.548 E.01405
G1 X125.864 Y98.829 E.12781
G1 X126.637 Y100.179 E.05169
G1 X128.373 Y101.915 E.0816
G1 X128.162 Y102.281 E.01405
G1 X126.916 Y101.034 E.05861
G1 E-.84 F1800
;WIPE_START
G1 F3600
G1 X127.623 Y101.742 E-.36
;WIPE_END
G1 Z.6 F7200
G1 X121.67 Y93.481 Z.6
G1 Z.2
G1 E1.2 F1800
G1 F3600
G1 X113.498 Y85.309 E.38416
G1 X112.921 Y85.309 E.01918
G1 X120.91 Y93.298 E.37555
G1 X120.333 Y93.298 E.01918
G1 X112.344 Y85.309 E.37555
G1 X111.767 Y85.309 E.01918
G1 X119.756 Y93.298 E.37555
G1 X119.179 Y93.298 E.01918
G1 X111.19 Y85.309 E.37555
G1 X110.613 Y85.309 E.01918
G1 X118.602 Y93.298 E.37555
G1 X118.025 Y93.298 E.01918
G1 X110.036 Y85.309 E.37555
G1 X109.46 Y85.309 E.01918
G1 X117.448 Y93.298 E.37555
G1 X116.871 Y93.298 E.01918
G1 X108.883 Y85.309 E.37555
G1 X108.306 Y85.309 E.01918
G1 X116.295 Y93.298 E.37555
G1 X115.718 Y93.298 E.01918
G1 X107.729 Y85.309 E.37555
G1 X107.152 Y85.309 E.01918
G1 X115.141 Y93.298 E.37555
G1 X114.564 Y93.298 E.01918
G1 X106.575 Y85.309 E.37555
G1 X105.998 Y85.309 E.01918
M73 P8 R8
G1 X113.987 Y93.298 E.37555
G1 X113.41 Y93.298 E.01918
G1 X105.421 Y85.309 E.37555
G1 X104.844 Y85.309 E.01918
G1 X112.833 Y93.298 E.37555
G1 X112.256 Y93.298 E.01918
G1 X104.535 Y85.577 E.36297
G1 X104.324 Y85.942 E.01404
G1 X111.679 Y93.298 E.34578
G1 X111.103 Y93.298 E.01918
G1 X104.113 Y86.308 E.3286
G1 X103.901 Y86.673 E.01404
G1 X110.526 Y93.298 E.31141
G1 X109.949 Y93.298 E.01918
G1 X103.69 Y87.039 E.29422
G1 X103.479 Y87.405 E.01404
G1 X109.461 Y93.387 E.28124
G1 X109.246 Y93.519 E.00839
G1 X109.131 Y93.634 E.0054
G1 X103.268 Y87.77 E.27562
G1 X103.056 Y88.136 E.01404
G1 X108.908 Y93.988 E.27508
G1 X108.697 Y94.353 E.01404
G1 X102.845 Y88.502 E.27508
G1 X102.634 Y88.867 E.01404
G1 X108.485 Y94.719 E.27508
G1 X108.274 Y95.085 E.01404
G1 X102.423 Y89.233 E.27508
G1 X102.211 Y89.599 E.01404
G1 X108.063 Y95.45 E.27508
G1 X107.852 Y95.816 E.01404
G1 X102 Y89.964 E.27508
G1 X101.789 Y90.33 E.01404
G1 X107.641 Y96.182 E.27508
G1 X107.429 Y96.547 E.01404
M73 P9 R8
G1 X101.578 Y90.696 E.27508
G1 X101.366 Y91.061 E.01404
G1 X107.218 Y96.913 E.27508
G1 X107.007 Y97.279 E.01404
G1 X101.155 Y91.427 E.27508
G1 X100.944 Y91.792 E.01404
G1 X106.796 Y97.644 E.27508
G1 X106.584 Y98.01 E.01404
G1 X100.733 Y92.158 E.27508
G1 X100.521 Y92.524 E.01404
G1 X106.373 Y98.375 E.27508
G1 X106.162 Y98.741 E.01404
G1 X100.31 Y92.889 E.27508
G1 X100.099 Y93.255 E.01404
G1 X105.951 Y99.107 E.27508
G1 X105.739 Y99.472 E.01404
G1 X99.888 Y93.621 E.27508
G1 X99.676 Y93.986 E.01404
G1 X105.528 Y99.838 E.27508
G1 X105.317 Y100.204 E.01404
G1 X99.465 Y94.352 E.27508
G1 X99.254 Y94.718 E.01404
G1 X105.106 Y100.569 E.27508
G1 X104.894 Y100.935 E.01404
G1 X99.043 Y95.083 E.27508
G1 X98.831 Y95.449 E.01404
G1 X104.683 Y101.301 E.27508
G1 X104.472 Y101.666 E.01404
G1 X98.62 Y95.815 E.27508
G1 X98.409 Y96.18 E.01404
G1 X104.261 Y102.032 E.27508
G1 X104.049 Y102.398 E.01404
G1 X98.198 Y96.546 E.27508
G1 X97.986 Y96.911 E.01404
G1 X103.838 Y102.763 E.27509
G1 X103.627 Y103.129 E.01404
G1 X97.775 Y97.277 E.27509
G1 X97.564 Y97.643 E.01404
M73 P10 R8
G1 X103.416 Y103.495 E.27509
G1 X103.205 Y103.86 E.01404
G1 X97.353 Y98.008 E.27509
G1 X97.141 Y98.374 E.01404
G1 X102.993 Y104.226 E.27509
G1 X102.782 Y104.591 E.01404
G1 X96.93 Y98.74 E.27509
G1 X96.719 Y99.105 E.01404
G1 X102.571 Y104.957 E.27509
G1 X102.36 Y105.323 E.01404
G1 X96.508 Y99.471 E.27509
G1 X96.297 Y99.837 E.01404
G1 X102.148 Y105.688 E.27509
G1 X101.937 Y106.054 E.01404
G1 X96.085 Y100.202 E.27509
G1 X95.874 Y100.568 E.01404
G1 X101.726 Y106.42 E.27509
G1 X101.515 Y106.785 E.01404
G1 X95.663 Y100.934 E.27509
G1 X95.452 Y101.299 E.01404
G1 X101.303 Y107.151 E.27509
G1 X101.092 Y107.517 E.01404
G1 X95.24 Y101.665 E.27509
G1 X95.029 Y102.03 E.01404
G1 X100.881 Y107.882 E.27509
G1 X100.67 Y108.248 E.01404
G1 X94.818 Y102.396 E.27509
G1 X94.607 Y102.762 E.01404
G1 X100.458 Y108.614 E.27509
G1 X100.247 Y108.979 E.01404
G1 X94.395 Y103.127 E.27509
G1 X94.184 Y103.493 E.01404
G1 X100.036 Y109.345 E.27509
G1 X99.825 Y109.711 E.01404
G1 X93.973 Y103.859 E.27509
G1 X93.762 Y104.224 E.01404
M73 P11 R8
G1 X99.613 Y110.076 E.27509
G1 X99.402 Y110.442 E.01404
G1 X93.55 Y104.59 E.27509
G1 X93.339 Y104.956 E.01404
G1 X99.191 Y110.807 E.27509
G1 X98.98 Y111.173 E.01404
G1 X93.128 Y105.321 E.27509
G1 X92.917 Y105.687 E.01404
G1 X98.769 Y111.539 E.27509
G1 X98.557 Y111.904 E.01404
G1 X92.705 Y106.053 E.27509
G1 X92.494 Y106.418 E.01404
G1 X98.346 Y112.27 E.27509
G1 X98.135 Y112.636 E.01404
G1 X92.283 Y106.784 E.27509
G1 X92.072 Y107.149 E.01404
G1 X97.924 Y113.001 E.27509
G1 X97.712 Y113.367 E.01404
G1 X91.86 Y107.515 E.27509
G1 X91.649 Y107.881 E.01404
G1 X97.501 Y113.733 E.27509
G1 X97.29 Y114.098 E.01404
G1 X91.438 Y108.246 E.27509
G1 X91.227 Y108.612 E.01404
G1 X97.079 Y114.464 E.27509
G1 X96.87 Y114.832 E.01407
G1 X91.015 Y108.978 E.27521
G1 X90.804 Y109.343 E.01404
G1 X96.763 Y115.302 E.2801
G1 X96.774 Y115.434 E.00441
G1 X96.817 Y115.596 E.00556
G1 X96.885 Y115.743 E.00539
G1 X97.239 Y116.355 E.02351
G1 X90.593 Y109.709 E.31242
G1 X90.382 Y110.075 E.01404
G1 X98.03 Y117.723 E.35954
G1 X98.821 Y119.091 E.05253
G1 X90.17 Y110.44 E.40666
G1 X89.959 Y110.806 E.01404
M73 P12 R8
G1 X99.612 Y120.459 E.45377
G1 X100.403 Y121.827 E.05253
G1 X89.748 Y111.172 E.50089
G1 X89.537 Y111.537 E.01404
G1 X101.194 Y123.195 E.548
G1 X101.985 Y124.563 E.05253
G1 X89.326 Y111.903 E.59512
G1 X89.114 Y112.268 E.01404
G1 X102.578 Y125.732 E.6329
G1 X102.368 Y126.099 E.01405
G1 X88.903 Y112.634 E.63295
G1 X88.692 Y113 E.01404
G1 X102.157 Y126.465 E.633
G1 X101.947 Y126.832 E.01405
G1 X88.481 Y113.365 E.63305
G1 X88.269 Y113.731 E.01404
G1 X101.737 Y127.199 E.6331
G1 X101.527 Y127.565 E.01405
G1 X88.058 Y114.097 E.63315
G1 X87.847 Y114.462 E.01404
G1 X101.317 Y127.932 E.6332
G1 X101.106 Y128.299 E.01405
G1 X87.636 Y114.828 E.63325
G1 X87.424 Y115.194 E.01404
M73 P13 R8
G1 X100.896 Y128.665 E.6333
G1 X100.686 Y129.032 E.01405
G1 X87.993 Y116.34 E.59666
G1 X88.776 Y117.699 E.05212
G1 X100.476 Y129.399 E.55002
G1 X100.266 Y129.766 E.01405
G1 X89.558 Y119.057 E.50338
G1 X90.34 Y120.416 E.05212
G1 X100.055 Y130.132 E.45673
G1 X99.845 Y130.499 E.01405
G1 X91.122 Y121.775 E.41009
G1 X91.904 Y123.134 E.05212
G1 X99.635 Y130.866 E.36345
G1 X99.425 Y131.232 E.01405
G1 X92.686 Y124.493 E.31681
G1 X93.468 Y125.852 E.05212
G1 X99.215 Y131.599 E.27016
G1 X99.005 Y131.966 E.01405
G1 X94.25 Y127.211 E.22352
G1 X95.032 Y128.57 E.05212
G1 X98.794 Y132.333 E.17688
G1 X98.584 Y132.699 E.01405
G1 X95.814 Y129.929 E.13023
G1 X96.596 Y131.288 E.05212
G1 X98.374 Y133.066 E.08359
G1 X98.164 Y133.433 E.01405
G1 X96.88 Y132.149 E.06035
G1 E-.84 F1800
;WIPE_START
G1 F3600
G1 X97.587 Y132.856 E-.36
;WIPE_END
G1 Z.6 F7200
G1 X109.807 Y93.444 Z.6
G1 Z.2
G1 E1.2 F1800
;TYPE:Gap infill
;WIDTH:0.130837
G1 X109.709 Y93.409 E.00074
M73 P14 R8
G1 X109.655 Y93.464 E.00055
G1 E-1.01916
;WIPE_START
G1 X109.709 Y93.409 E-.07731
G1 X109.807 Y93.444 E-.10353
;WIPE_END
G1 Z.6 F7200
G1 X97.925 Y117.3 Z.6
G1 Z.2
G1 E1.2 F1800
;WIDTH:0.112837
G1 X97.808 Y117.147 E.0011
;WIDTH:0.154974
G1 X97.691 Y116.994 E.00176
;WIDTH:0.197111
G1 X97.573 Y116.841 E.00242
;WIDTH:0.239248
G1 X97.456 Y116.688 E.00308
;WIDTH:0.260316
G1 X97.339 Y116.536 E.00341
G1 E-1.00732
;WIPE_START
G1 X97.456 Y116.688 E-.19268
;WIPE_END
G1 Z.6 F7200
G1 X99.507 Y120.036 Z.6
G1 Z.2
G1 E1.2 F1800
;WIDTH:0.112837
G1 X99.39 Y119.883 E.0011
;WIDTH:0.154974
G1 X99.273 Y119.73 E.00176
;WIDTH:0.197111
G1 X99.155 Y119.577 E.00242
;WIDTH:0.239248
G1 X99.038 Y119.424 E.00308
;WIDTH:0.260317
G1 X98.921 Y119.271 E.00341
G1 E-1.00732
;WIPE_START
G1 X99.038 Y119.424 E-.19268
;WIPE_END
G1 Z.6 F7200
G1 X101.09 Y122.771 Z.6
G1 Z.2
G1 E1.2 F1800
;WIDTH:0.112837
G1 X100.972 Y122.619 E.0011
;WIDTH:0.154975
G1 X100.855 Y122.466 E.00176
;WIDTH:0.197112
G1 X100.737 Y122.313 E.00242
;WIDTH:0.23925
G1 X100.62 Y122.16 E.00308
;WIDTH:0.260318
G1 X100.503 Y122.007 E.00341
G1 E-1.00732
;WIPE_START
G1 X100.62 Y122.16 E-.19268
;WIPE_END
G1 Z.6 F7200
G1 X102.672 Y125.507 Z.6
G1 Z.2
G1 E1.2 F1800
;WIDTH:0.112837
G1 X102.554 Y125.355 E.0011
;WIDTH:0.154975
G1 X102.437 Y125.202 E.00176
;WIDTH:0.197112
G1 X102.32 Y125.049 E.00242
;WIDTH:0.239249
G1 X102.202 Y124.896 E.00308
;WIDTH:0.260318
G1 X102.085 Y124.743 E.00341
G1 E-1.00732
;WIPE_START
G1 X102.202 Y124.896 E-.19268
;WIPE_END
G1 Z.6 F7200
G1 X98.186 Y133.68 Z.6
G1 Z.2
G1 E1.2 F1800
;WIDTH:0.189447
G1 X98.123 Y133.701 E.00079
;WIDTH:0.237108
G1 X98.06 Y133.722 E.00105
;WIDTH:0.284977
G1 X97.997 Y133.742 E.00131
;WIDTH:0.286776
G1 X97.894 Y133.607 E.00338
;WIDTH:0.243441
G1 X97.79 Y133.472 E.00278
;WIDTH:0.200106
G1 X97.687 Y133.337 E.00218
;WIDTH:0.156771
G1 X97.583 Y133.202 E.00158
;WIDTH:0.135104
G1 X97.48 Y133.067 E.00128
G1 X96.968 Y132.061 F7200
;WIDTH:0.160411
G1 F1800
G1 X96.833 Y131.885 E.00213
;WIDTH:0.13753
G1 X96.698 Y131.708 E.00171
G1 E-.97802
;WIPE_START
G1 X96.833 Y131.885 E-.22198
;WIPE_END
G1 Z.6 F7200
G1 X95.714 Y129.748 Z.6
G1 Z.2
G1 E1.2 F1800
;WIDTH:0.280832
G1 X95.598 Y129.597 E.0037
;WIDTH:0.238818
G1 X95.482 Y129.445 E.00305
;WIDTH:0.196804
G1 X95.366 Y129.294 E.00239
;WIDTH:0.15479
G1 X95.25 Y129.142 E.00174
;WIDTH:0.133783
G1 X95.134 Y128.991 E.00141
G1 E-1.00914
;WIPE_START
G1 X95.25 Y129.142 E-.19086
;WIPE_END
G1 Z.6 F7200
G1 X94.15 Y127.03 Z.6
G1 Z.2
G1 E1.2 F1800
;WIDTH:0.280833
G1 X94.034 Y126.879 E.0037
;WIDTH:0.238818
G1 X93.918 Y126.727 E.00305
;WIDTH:0.196804
G1 X93.802 Y126.576 E.00239
;WIDTH:0.15479
G1 X93.686 Y126.424 E.00174
;WIDTH:0.133783
G1 X93.57 Y126.273 E.00141
G1 E-1.00914
;WIPE_START
G1 X93.686 Y126.424 E-.19086
;WIPE_END
G1 Z.6 F7200
G1 X92.586 Y124.312 Z.6
G1 Z.2
G1 E1.2 F1800
;WIDTH:0.280833
G1 X92.47 Y124.161 E.0037
;WIDTH:0.238818
G1 X92.354 Y124.009 E.00305
;WIDTH:0.196804
G1 X92.238 Y123.858 E.00239
;WIDTH:0.15479
G1 X92.122 Y123.706 E.00174
;WIDTH:0.133783
G1 X92.006 Y123.555 E.00141
G1 E-1.00914
;WIPE_START
G1 X92.122 Y123.706 E-.19086
;WIPE_END
G1 Z.6 F7200
G1 X91.022 Y121.595 Z.6
G1 Z.2
G1 E1.2 F1800
;WIDTH:0.280833
G1 X90.906 Y121.443 E.0037
;WIDTH:0.238818
G1 X90.79 Y121.292 E.00305
;WIDTH:0.196804
G1 X90.674 Y121.14 E.00239
;WIDTH:0.15479
G1 X90.558 Y120.989 E.00174
;WIDTH:0.133783
G1 X90.442 Y120.837 E.00141
G1 E-1.00914
;WIPE_START
G1 X90.558 Y120.989 E-.19086
;WIPE_END
G1 Z.6 F7200
G1 X89.458 Y118.877 Z.6
G1 Z.2
G1 E1.2 F1800
;WIDTH:0.280833
G1 X89.342 Y118.725 E.0037
;WIDTH:0.238818
G1 X89.226 Y118.574 E.00305
;WIDTH:0.196804
M73 P15 R8
G1 X89.11 Y118.422 E.00239
;WIDTH:0.15479
G1 X88.994 Y118.271 E.00174
;WIDTH:0.133783
G1 X88.878 Y118.119 E.00141
G1 E-1.00914
;WIPE_START
G1 X88.994 Y118.271 E-.19086
;WIPE_END
G1 Z.6 F7200
G1 X87.894 Y116.159 Z.6
G1 Z.2
G1 E1.2 F1800
;WIDTH:0.280833
G1 X87.778 Y116.007 E.0037
;WIDTH:0.238818
G1 X87.662 Y115.856 E.00305
;WIDTH:0.196804
G1 X87.546 Y115.704 E.00239
;WIDTH:0.15479
G1 X87.43 Y115.553 E.00174
;WIDTH:0.133783
