;FLAVOR:Marlin
;TIME:2251.97
;Filament used:3.00175m
;Layer height: 0.2
;MINX:88.263
;MINY:88.263
;MINZ:0.2
;MAXX:131.737
;MAXY:131.737
;MAXZ:46.2
;OuterWall Time:603.436
;InnerWall Time:753.921
;Skin Time:384.827
;Support Time:0
;SkirtBrim Time:0
;Infill Time:327.633
;InfillSupport Time:0
;Combing Time:160.343
;Retraction Time:21.8117
;PrimeTower Time:0

;
;
;
;
;
;
;
;
;
;
;
;
;
;
;
;
;
;
;
;
;
;
;
;
;
;
;
;
;
;
;
;
;
;
;
;
;
;
;
;
;
;
;
;
;
;
;
;
;

;Creality Print GCode Generated by CXEngine
;CRSLICE_GIT_HASH:87dd5d0
;Creality Print Version : V4.3.6.6231
;CXEngine Release Time:2023-07-21 16:32:51
;Gcode Generated Time:2024-02-13 07:22:44
;----------Machine Config--------------
;Machine Name:Ender-3 V3 SE
;Machine Height:250
;Machine Width:220
;Machine Depth:220
;Material Type:PLA
;Material Name:CR-PLA_1.75
;Number of Extruders:1
;ExtruderParams[0] Nozzle Diameter:1000
;----------Profile Config---------------
;Layer Height:0.2
;Wall Thickness:0.8
;Top/Bottom Thickness:0.8
;Out Wall Line Width:0.4
;Inner Wall Line Width:0.4
;Inital Layer Height:200
;Wall Line Count:3
;Infill Line Distance:8
;Infill Pattern:grid
;Infill Sparse Density:10
;Infill Wipe Distance:0.1
;Print Temperature:205
;Bed Temperature:60
;Support Enable:false
;Support Density:15
;Support Angle:60
;Adhesion Type:none
;machine is belt:false
;machine belt offset:10
;machine belt offset Y:0
;Raft Base Line Spacing:1.6
;Wait Heatup Sync:true
;Enable Ironing:false
;Material Type:PLA
;Max volumetric speed:20
;----------Shell Config----------------
;Outer Wall Wipe Distance:200
;Outer Inset First:false
;Infill Before Walls:false
;Infill Overlap:0.04
;Fill Gaps Between Walls:everywhere
;Minimum Infill Area:15
;Top Surface Skin Layer:0
;Top Layers:4
;Z Seam Alignment:sharpest_corner
;Seam Corner Preference:z_seam_corner_inner
;Z Seam X:110
;Z Seam Y:220
;Horizontal Expansion:0
;Top/Bottom Pattern:zigzag
;Ironing Pattern:zigzag
;Vase Model:false
;----------Support Config----------------
;Support Type:everywhere
;Support Pattern:zigzag
;Support Infill Layer Thickness:0.15
;Minimum Support Area:5
;Enable Support Roof:true
;Support Roof Thickness:0.8
;Support Roof Pattern:lines
;Connect Support Lines:0
;Connect Support ZigZags:1
;Minimum Support X/Y Distance:0.2
;Support Line Distance:2.67
; ---------PrintSpeed & Travel----------
;Enable Print Cool:true
;Avoid Printed Parts Traveling:true
;Enable Retraction:true
;Retraction Distance:0.8
;Retraction Speed:40
;Retraction Prime Speed:40
;Maximum Retraction Count:100
;Minimum Extrusion Distance Window:0.8
;Z Hop When Retracted:false
;Z Hop Height:0.2
;Retract Before Outer Wall:true

;Outer Wall Speed:60
;Inner Wall Speed:90
;Infill Speed:180
;Top/Bottom Speed:50
;Travel Speed:150
;Initial Layer Speed:30
;Skirt/Brim Speed:25
;Prime Tower Speed:60
;Outer Wall Acceleration:1000
;Inner Wall Acceleration:2000
;Infill Acceleration:2500
;Top/Bottom Acceleration:2500
;Travel Acceleration:2500
;Initial Layer Print Acceleration:500
;Initial Layer Travel Acceleration:500
;Skirt/Brim Acceleration:500
;Combing Mode:noskin
; --------SpecialModel&Mesh Fixes--------
;Union Overlapping Volum:true
;Remove All Holes:false
;Maximum Travel Resolution:0.25
;Maximum Deviation:0.05
;Maximum Model Angle:0.872767
;IS Mold Print:false
;Make Overhang Printable:false
;Enable Coasting:false
;Coasting Volumes:0.064
;Coasting Speed:0.9
;Raft AirGap:0.25
;Layer0 ZOverLap:0.13
;---------------------End of Head--------------------------
M140 S60
M105
M190 S60
M104 S205
M82 ;absolute extrusion mode
M220 S100 ;Reset Feedrate
M221 S100 ;Reset Flowrate

G28 ;Home

G92 E0 ;Reset Extruder
G1 Z2.0 F3000 ;Move Z Axis up
G1 X10.1 Y20 Z0.28 F5000.0 ;Move to start position
M109 S205.000000
G1 X10.1 Y145.0 Z0.28 F1500.0 E15 ;Draw the first line
G1 X10.4 Y145.0 Z0.28 F5000.0 ;Move to side a little
G1 X10.4 Y20 Z0.28 F1500.0 E30 ;Draw the second line
G92 E0  ;Reset Extruder
G1 E-1.0000 F1800 ;Retract a bit
G1 Z2.0 F3000 ;Move Z Axis up
G1 E0.0000 F1800 

G92 E0
G92 E0
G1 F2400 E-0.8
;LAYER_COUNT:231

;LAYER:0
M106 S0
M106 P2 S0
M204 S500
;MESH:0_0
G0 F4800 X89.063 Y110.003 Z0.2
;TYPE:WALL-INNER
G1 F2400 E0
G1 F1800 X89.105 Y111.313 E0.04359
G1 X89.229 Y112.621 E0.08728
G1 X89.44 Y113.952 E0.1321
G1 X89.72 Y115.204 E0.17476
G1 X90.088 Y116.468 E0.21855
G1 X90.533 Y117.707 E0.26233
G1 X91.05 Y118.899 E0.30554
G1 X91.653 Y120.085 E0.34978
G1 X92.322 Y121.216 E0.39348
G1 X93.061 Y122.303 E0.4372
G1 X93.867 Y123.343 E0.48095
G1 X94.737 Y124.33 E0.52471
G1 X95.667 Y125.26 E0.56845
G1 X96.654 Y126.13 E0.6122
G1 X97.697 Y126.939 E0.6561
G1 X98.78 Y127.675 E0.69965
G1 X99.914 Y128.346 E0.74347
G1 X101.102 Y128.95 E0.78779
G1 X102.289 Y129.465 E0.83082
G1 X103.532 Y129.912 E0.87475
G1 X104.797 Y130.28 E0.91856
G1 X106.056 Y130.562 E0.96147
G1 X107.378 Y130.771 E1.00598
G1 X108.687 Y130.895 E1.04971
G1 X110 Y130.937 E1.09339
G1 X111.313 Y130.895 E1.13708
G1 X112.621 Y130.771 E1.18078
G1 X113.944 Y130.561 E1.22533
G1 X115.204 Y130.28 E1.26826
G1 X116.468 Y129.912 E1.31204
G1 X117.711 Y129.465 E1.35597
G1 X118.898 Y128.95 E1.399
G1 X120.086 Y128.346 E1.44332
G1 X121.22 Y127.675 E1.48714
G1 X122.303 Y126.939 E1.53069
G1 X123.346 Y126.13 E1.57458
G1 X124.333 Y125.26 E1.61834
G1 X125.263 Y124.33 E1.66208
G1 X126.133 Y123.343 E1.70583
G1 X126.939 Y122.303 E1.74959
G1 X127.678 Y121.216 E1.7933
G1 X128.347 Y120.085 E1.837
G1 X128.95 Y118.899 E1.88125
G1 X129.467 Y117.707 E1.92446
G1 X129.912 Y116.468 E1.96824
G1 X130.28 Y115.203 E2.01206
G1 X130.561 Y113.952 E2.0547
G1 X130.771 Y112.622 E2.09947
G1 X130.895 Y111.313 E2.1432
G1 X130.916 Y110.648 E2.16533
G1 X130.937 Y109.997 E2.18699
G1 X130.895 Y108.684 E2.23068
G1 X130.771 Y107.374 E2.27444
G1 X130.56 Y106.048 E2.31909
G1 X130.28 Y104.795 E2.36179
G1 X129.912 Y103.53 E2.4056
G1 X129.465 Y102.29 E2.44944
G1 X128.95 Y101.101 E2.49253
G1 X128.346 Y99.914 E2.53682
G1 X127.675 Y98.78 E2.58064
G1 X126.939 Y97.697 E2.62419
G1 X126.13 Y96.654 E2.66808
G1 X125.26 Y95.667 E2.71184
G1 X124.33 Y94.737 E2.75558
G1 X123.343 Y93.867 E2.79933
G1 X122.303 Y93.062 E2.84307
G1 X121.22 Y92.325 E2.88664
G1 X120.086 Y91.654 E2.93046
G1 X118.899 Y91.05 E2.97475
G1 X117.711 Y90.535 E3.01781
G1 X116.468 Y90.088 E3.06174
G1 X115.203 Y89.72 E3.10555
G1 X113.944 Y89.438 E3.14846
G1 X112.622 Y89.229 E3.19297
G1 X111.313 Y89.105 E3.2367
G1 X110 Y89.063 E3.28038
G1 X108.687 Y89.105 E3.32407
G1 X107.379 Y89.229 E3.36777
G1 X106.056 Y89.439 E3.41231
G1 X104.796 Y89.72 E3.45525
G1 X103.532 Y90.088 E3.49903
G1 X102.289 Y90.535 E3.54296
G1 X101.101 Y91.05 E3.58602
G1 X99.914 Y91.654 E3.63031
G1 X98.78 Y92.325 E3.67413
G1 X97.697 Y93.061 E3.71768
G1 X96.654 Y93.87 E3.76157
G1 X95.667 Y94.74 E3.80533
G1 X94.737 Y95.67 E3.84907
G1 X93.867 Y96.657 E3.89282
G1 X93.061 Y97.697 E3.93658
G1 X92.322 Y98.784 E3.98029
G1 X91.653 Y99.915 E4.02399
G1 X91.05 Y101.101 E4.06824
G1 X90.533 Y102.293 E4.11145
G1 X90.088 Y103.532 E4.15523
G1 X89.72 Y104.797 E4.19904
G1 X89.439 Y106.048 E4.24169
G1 X89.229 Y107.378 E4.28646
G1 X89.105 Y108.687 E4.33019
G1 X89.063 Y110.003 E4.37398
G0 F4800 X88.663 Y110.003
G1 F1800 X88.705 Y111.338 E4.4184
G1 X88.832 Y112.672 E4.46296
G1 X89.047 Y114.027 E4.50859
G1 X89.332 Y115.303 E4.55207
G1 X89.708 Y116.591 E4.59669
G1 X90.161 Y117.854 E4.64131
G1 X90.688 Y119.07 E4.68539
G1 X91.302 Y120.278 E4.73045
G1 X91.984 Y121.43 E4.77497
G1 X92.738 Y122.538 E4.81954
G1 X93.559 Y123.598 E4.86413
G1 X94.446 Y124.604 E4.90874
G1 X95.393 Y125.551 E4.95328
G1 X96.399 Y126.438 E4.99788
G1 X97.462 Y127.262 E5.04261
G1 X98.566 Y128.013 E5.08701
G1 X99.721 Y128.697 E5.13165
G1 X100.931 Y129.312 E5.17679
G1 X102.142 Y129.837 E5.22069
G1 X103.409 Y130.292 E5.26546
G1 X104.697 Y130.668 E5.31008
G1 X105.981 Y130.955 E5.35383
G1 X107.328 Y131.168 E5.39919
G1 X108.662 Y131.295 E5.44375
G1 X110 Y131.337 E5.48827
G1 X111.338 Y131.295 E5.53279
G1 X112.672 Y131.168 E5.57735
G1 X114.019 Y130.954 E5.62271
G1 X115.303 Y130.668 E5.66646
G1 X116.591 Y130.292 E5.71108
G1 X117.858 Y129.837 E5.75585
G1 X119.069 Y129.312 E5.79975
G1 X120.279 Y128.697 E5.84489
G1 X121.434 Y128.013 E5.88953
G1 X122.538 Y127.262 E5.93393
G1 X123.601 Y126.438 E5.97866
G1 X124.607 Y125.551 E6.02326
G1 X125.554 Y124.604 E6.0678
G1 X126.441 Y123.598 E6.1124
G1 X127.262 Y122.538 E6.15699
G1 X128.016 Y121.43 E6.20156
G1 X128.698 Y120.278 E6.24609
G1 X129.312 Y119.07 E6.29115
G1 X129.839 Y117.854 E6.33522
G1 X130.292 Y116.591 E6.37985
G1 X130.668 Y115.303 E6.42447
G1 X130.954 Y114.027 E6.46796
G1 X131.168 Y112.672 E6.51358
G1 X131.295 Y111.338 E6.55814
G1 X131.316 Y110.661 E6.58067
G1 X131.337 Y109.997 E6.60276
G1 X131.295 Y108.659 E6.64728
G1 X131.168 Y107.324 E6.69188
G1 X130.953 Y105.973 E6.73737
G1 X130.668 Y104.696 E6.78088
G1 X130.292 Y103.406 E6.82557
G1 X129.837 Y102.142 E6.87025
G1 X129.312 Y100.931 E6.91414
G1 X128.697 Y99.721 E6.95928
G1 X128.013 Y98.566 E7.00392
G1 X127.262 Y97.462 E7.04833
G1 X126.438 Y96.399 E7.09306
G1 X125.551 Y95.393 E7.13766
G1 X124.604 Y94.446 E7.1822
G1 X123.598 Y93.559 E7.2268
G1 X122.538 Y92.738 E7.27139
G1 X121.434 Y91.987 E7.31579
G1 X120.279 Y91.303 E7.36043
G1 X119.069 Y90.688 E7.40557
G1 X117.858 Y90.163 E7.44947
G1 X116.591 Y89.708 E7.49424
G1 X115.303 Y89.332 E7.53886
G1 X114.019 Y89.045 E7.58262
G1 X112.672 Y88.832 E7.62797
G1 X111.338 Y88.705 E7.67253
G1 X110 Y88.663 E7.71705
G1 X108.662 Y88.705 E7.76157
G1 X107.328 Y88.832 E7.80614
G1 X105.981 Y89.046 E7.85149
G1 X104.697 Y89.332 E7.89524
G1 X103.409 Y89.708 E7.93986
G1 X102.142 Y90.163 E7.98463
G1 X100.931 Y90.688 E8.02853
G1 X99.721 Y91.303 E8.07367
G1 X98.566 Y91.987 E8.11831
G1 X97.462 Y92.738 E8.16271
G1 X96.399 Y93.562 E8.20744
G1 X95.393 Y94.449 E8.25205
G1 X94.446 Y95.396 E8.29658
G1 X93.559 Y96.402 E8.34119
G1 X92.738 Y97.462 E8.38578
G1 X91.984 Y98.57 E8.43035
G1 X91.302 Y99.722 E8.47487
G1 X90.688 Y100.93 E8.51993
G1 X90.161 Y102.146 E8.56401
G1 X89.708 Y103.409 E8.60863
G1 X89.332 Y104.697 E8.65325
G1 X89.046 Y105.973 E8.69674
G1 X88.832 Y107.328 E8.74236
G1 X88.705 Y108.662 E8.78692
G1 X88.663 Y110.003 E8.83154
G0 F4800 X88.263 Y110.003
;TYPE:WALL-OUTER
G1 F1800 X88.306 Y111.363 E8.87589
G1 X88.435 Y112.722 E8.92038
G1 X88.654 Y114.102 E8.96592
G1 X88.945 Y115.403 E9.00937
G1 X89.327 Y116.715 E9.0539
G1 X89.789 Y118.001 E9.09844
G1 X90.326 Y119.24 E9.14245
G1 X90.951 Y120.471 E9.18744
G1 X91.646 Y121.645 E9.23191
G1 X92.414 Y122.773 E9.27638
G1 X93.25 Y123.853 E9.32089
G1 X94.154 Y124.878 E9.36543
G1 X95.119 Y125.843 E9.40991
G1 X96.144 Y126.747 E9.45445
G1 X97.227 Y127.586 E9.4991
G1 X98.351 Y128.351 E9.54341
G1 X99.528 Y129.048 E9.58799
G1 X100.761 Y129.674 E9.63306
G1 X101.995 Y130.209 E9.6769
G1 X103.285 Y130.673 E9.72158
G1 X104.597 Y131.055 E9.76611
G1 X105.906 Y131.348 E9.80983
G1 X107.278 Y131.565 E9.8551
G1 X108.637 Y131.694 E9.89959
G1 X110 Y131.737 E9.94403
G1 X111.363 Y131.694 E9.98848
G1 X112.722 Y131.565 E10.03297
G1 X114.094 Y131.347 E10.07824
G1 X115.403 Y131.055 E10.12195
G1 X116.715 Y130.673 E10.16649
G1 X118.005 Y130.209 E10.21117
G1 X119.239 Y129.674 E10.255
G1 X120.472 Y129.048 E10.30007
G1 X121.649 Y128.351 E10.34465
G1 X122.773 Y127.586 E10.38896
G1 X123.856 Y126.747 E10.43361
G1 X124.881 Y125.843 E10.47815
G1 X125.846 Y124.878 E10.52263
G1 X126.75 Y123.853 E10.56717
G1 X127.586 Y122.773 E10.61169
G1 X128.354 Y121.645 E10.65616
G1 X129.049 Y120.471 E10.70062
G1 X129.674 Y119.24 E10.74562
G1 X130.211 Y118.001 E10.78963
G1 X130.673 Y116.715 E10.83416
G1 X131.055 Y115.403 E10.8787
G1 X131.347 Y114.102 E10.92215
G1 X131.565 Y112.722 E10.96769
G1 X131.694 Y111.363 E11.01218
G1 X131.716 Y110.673 E11.03468
G1 X131.737 Y109.997 E11.05672
G1 X131.694 Y108.634 E11.10116
G1 X131.565 Y107.273 E11.14572
G1 X131.346 Y105.898 E11.1911
G1 X131.055 Y104.596 E11.23458
G1 X130.673 Y103.282 E11.27918
G1 X130.209 Y101.995 E11.32376
G1 X129.674 Y100.76 E11.36763
G1 X129.048 Y99.528 E11.41267
G1 X128.351 Y98.351 E11.45725
G1 X127.586 Y97.227 E11.50156
G1 X126.747 Y96.144 E11.54621
G1 X125.843 Y95.119 E11.59075
G1 X124.878 Y94.154 E11.63523
G1 X123.853 Y93.25 E11.67977
G1 X122.773 Y92.414 E11.72428
G1 X121.649 Y91.649 E11.76859
G1 X120.472 Y90.952 E11.81317
G1 X119.24 Y90.326 E11.85821
G1 X118.005 Y89.791 E11.90208
G1 X116.715 Y89.327 E11.94676
G1 X115.403 Y88.945 E11.99129
G1 X114.094 Y88.652 E12.03501
G1 X112.722 Y88.435 E12.08028
G1 X111.363 Y88.306 E12.12477
G1 X110 Y88.263 E12.16921
G1 X108.637 Y88.306 E12.21366
G1 X107.278 Y88.435 E12.25815
G1 X105.906 Y88.653 E12.30342
G1 X104.597 Y88.945 E12.34713
G1 X103.285 Y89.327 E12.39167
G1 X101.995 Y89.791 E12.43635
G1 X100.76 Y90.326 E12.48021
G1 X99.528 Y90.952 E12.52525
G1 X98.351 Y91.649 E12.56983
G1 X97.227 Y92.414 E12.61414
G1 X96.144 Y93.253 E12.65879
G1 X95.119 Y94.157 E12.70334
G1 X94.154 Y95.122 E12.74781
G1 X93.25 Y96.147 E12.79236
G1 X92.414 Y97.227 E12.83687
G1 X91.646 Y98.355 E12.88134
G1 X90.951 Y99.529 E12.92581
G1 X90.326 Y100.76 E12.9708
G1 X89.789 Y101.999 E13.01481
G1 X89.327 Y103.285 E13.05934
G1 X88.945 Y104.597 E13.10388
G1 X88.653 Y105.898 E13.14734
G1 X88.435 Y107.278 E13.19287
G1 X88.306 Y108.637 E13.23736
G1 X88.263 Y110.003 E13.2819
G0 F4800 X88.269 Y110.203
G0 X88.97 Y110.182
G0 X89.165 Y109.997
G0 X89.424 Y110.005
;TYPE:SKIN
G1 F1800 X89.464 Y111.289 E13.32462
G1 X89.586 Y112.574 E13.36755
G1 X89.79 Y113.858 E13.41079
G1 X90.069 Y115.112 E13.45351
G1 X90.431 Y116.355 E13.49656
G1 X90.867 Y117.572 E13.53956
G1 X91.377 Y118.746 E13.58212
G1 X91.968 Y119.911 E13.62557
G1 X92.624 Y121.02 E13.66842
G1 X93.352 Y122.089 E13.71143
G1 X94.143 Y123.114 E13.75449
G1 X94.999 Y124.082 E13.79746
G1 X95.913 Y124.996 E13.84045
G1 X96.882 Y125.852 E13.88345
G1 X97.909 Y126.646 E13.92662
G1 X98.976 Y127.373 E13.96955
G1 X100.088 Y128.031 E14.01253
G1 X101.255 Y128.623 E14.05604
G1 X102.42 Y129.129 E14.09828
G1 X103.645 Y129.569 E14.14157
G1 X104.888 Y129.932 E14.18463
G1 X106.15 Y130.216 E14.22765
G1 X107.425 Y130.414 E14.27056
G1 X108.71 Y130.536 E14.31349
G1 X110 Y130.576 E14.35641
G1 X111.289 Y130.536 E14.3993
G1 X112.574 Y130.414 E14.44223
G1 X113.85 Y130.211 E14.48519
G1 X115.112 Y129.932 E14.52818
G1 X116.355 Y129.569 E14.57124
G1 X117.58 Y129.129 E14.61453
G1 X118.746 Y128.623 E14.6568
G1 X119.912 Y128.031 E14.70029
G1 X121.024 Y127.373 E14.74326
G1 X122.09 Y126.647 E14.78615
G1 X123.118 Y125.852 E14.82937
G1 X124.087 Y124.996 E14.87237
G1 X125.001 Y124.082 E14.91535
G1 X125.857 Y123.114 E14.95833
G1 X126.648 Y122.089 E15.00138
G1 X127.376 Y121.02 E15.0444
G1 X128.032 Y119.911 E15.08725
G1 X128.623 Y118.746 E15.13069
G1 X129.133 Y117.572 E15.17326
G1 X129.569 Y116.355 E15.21625
G1 X129.931 Y115.111 E15.25934
G1 X130.214 Y113.857 E15.30209
G1 X130.414 Y112.575 E15.34524
G1 X130.536 Y111.29 E15.38816
G1 X130.557 Y110.623 E15.41036
G1 X130.576 Y109.995 E15.43125
G1 X130.536 Y108.705 E15.47417
G1 X130.414 Y107.417 E15.5172
G1 X130.21 Y106.143 E15.56011
G1 X129.932 Y104.887 E15.60289
G1 X129.569 Y103.64 E15.64608
G1 X129.129 Y102.42 E15.68921
G1 X128.623 Y101.254 E15.73148
G1 X128.031 Y100.088 E15.77497
G1 X127.371 Y98.972 E15.81809
G1 X126.647 Y97.91 E15.86083
G1 X125.852 Y96.882 E15.90405
G1 X124.996 Y95.913 E15.94705
G1 X124.082 Y94.999 E15.99004
G1 X123.113 Y94.143 E16.03303
G1 X122.09 Y93.352 E16.07604
G1 X121.028 Y92.629 E16.11876
G1 X119.912 Y91.969 E16.16188
G1 X118.746 Y91.377 E16.20537
G1 X117.579 Y90.871 E16.24767
G1 X116.355 Y90.431 E16.29093
G1 X115.112 Y90.068 E16.33399
G1 X113.849 Y89.784 E16.37704
G1 X112.575 Y89.586 E16.41992
G1 X111.29 Y89.464 E16.46285
G1 X110 Y89.424 E16.50577
G1 X108.711 Y89.464 E16.54866
G1 X107.426 Y89.586 E16.59158
G1 X106.15 Y89.789 E16.63455
G1 X104.888 Y90.068 E16.67754
G1 X103.645 Y90.431 E16.7206
G1 X102.42 Y90.871 E16.76389
G1 X101.254 Y91.376 E16.80614
G1 X100.088 Y91.969 E16.84965
G1 X98.974 Y92.628 E16.89269
G1 X97.91 Y93.353 E16.93551
G1 X96.882 Y94.148 E16.97873
G1 X95.913 Y95.004 E17.02173
G1 X94.999 Y95.918 E17.06471
G1 X94.143 Y96.886 E17.10769
G1 X93.352 Y97.911 E17.15074
G1 X92.624 Y98.98 E17.19376
G1 X91.968 Y100.089 E17.23661
G1 X91.377 Y101.254 E17.28005
