; HEADER_BLOCK_START
; generated by OrcaSlicer 2.2.0 on 2024-12-10 at 21:42:34
; total layer number: 15
; filament_density: 1.24
; filament_diameter: 1.75
; max_z_height: 3.00
; HEADER_BLOCK_END

; external perimeters extrusion width = 0.42mm
; perimeters extrusion width = 0.45mm
; infill extrusion width = 0.45mm
; solid infill extrusion width = 0.42mm
; top infill extrusion width = 0.42mm
; first layer extrusion width = 0.46mm

; EXECUTABLE_BLOCK_START
M201 X2500 Y2500 Z500 E5000
M203 X250 Y250 Z5 E40
M204 P2500 R500 T2500 ; sets acceleration (P, T) and retract acceleration (R), mm/sec^2
M205 X10.00 Y10.00 Z0.40 E5.00 ; sets the jerk limits, mm/sec
;TYPE:Custom
M220 S100 ;Reset Feedrate 
M221 S100 ;Reset Flowrate 
 
M104 S220 ;Set final nozzle temp 
M190 S55 ;Set and wait for bed temp to stabilize 
G28 ;Home 
G92 E0 ;Reset Extruder 
G1 Z2.0 F3000 ;Move Z Axis up 
G1 X-2.1 Y20 Z0.28 F5000.0 ;Move to start position 
M109 S220 ;Wait for nozzle temp to stabilize 
G1 X-2.1 Y145.0 Z0.28 F1500.0 E15 ;Draw the first line 
G1 X-2.4 Y145.0 Z0.28 F5000.0 ;Move to side a little 
G1 X-2.4 Y20 Z0.28 F1500.0 E30 ;Draw the second line 
G92 E0  ;Reset Extruder 
G1 E-1.0000 F1800 ;Retract a bit 
M73 P1 R13
G1 Z2.0 F3000 ;Move Z Axis up 
G1 E0.0000 F1800
G90
G21
M83 ; use relative distances for extrusion
; filament start gcode
M106 S0
;LAYER_CHANGE
;Z:0.2
;HEIGHT:0.2
;BEFORE_LAYER_CHANGE
;0.2
G92 E0

G1 E-1.2 F2400
;_SET_FAN_SPEED_CHANGING_LAYER
M204 P500
; printing object ladder_Kill_Team_universal_equipment.stl id:1746926062336 copy 0
M204 T500
G1 Z.6 F9000
G1 X117.426 Y159.012
G1 Z.6
G1 Z.2
G1 E1.2 F1800
;TYPE:Inner wall
;WIDTH:0.459999
G1 X117.397 Y158.978 E.00154
G1 X117.241 Y158.893 E.00603
G1 X117.021 Y158.853 E.00759
G1 X102.93 Y158.853 E.47891
G1 X102.603 Y158.978 E.0119
G1 X102.427 Y159.184 E.00923
G1 X102.353 Y159.479 E.01031
G1 X102.353 Y161.853 E.0807
G1 X100.647 Y161.853 E.05798
G1 X100.647 Y58.147 E3.52461
G1 X102.353 Y58.147 E.05798
M73 P2 R13
G1 X102.353 Y60.521 E.0807
G1 X102.427 Y60.816 E.01031
G1 X102.603 Y61.022 E.00923
G1 X102.759 Y61.107 E.00603
G1 X102.979 Y61.147 E.00759
G1 X117.021 Y61.147 E.47727
G1 X117.241 Y61.107 E.00759
G1 X117.397 Y61.022 E.00603
G1 X117.573 Y60.816 E.00923
G1 X117.647 Y60.521 E.01031
G1 X117.647 Y58.147 E.0807
G1 X119.353 Y58.147 E.05798
G1 X119.353 Y161.853 E3.52461
G1 X117.647 Y161.853 E.05798
M73 P2 R12
G1 X117.647 Y159.479 E.0807
G1 X117.573 Y159.184 E.01031
G1 X117.452 Y159.043 E.00633
G1 X117.147 Y159.312 F9000
;TYPE:Outer wall
G1 F1800
G1 X117.021 Y159.27 E.00448
G1 X102.979 Y159.27 E.47727
G1 X102.853 Y159.312 E.00448
G1 X102.77 Y159.479 E.00634
G1 X102.77 Y162.27 E.09487
G1 X100.23 Y162.27 E.08633
G1 X100.23 Y57.73 E3.55297
G1 X102.77 Y57.73 E.08633
M73 P3 R12
G1 X102.77 Y60.552 E.09592
G1 X102.853 Y60.688 E.00542
G1 X102.979 Y60.73 E.00448
G1 X117.08 Y60.73 E.47925
G1 X117.205 Y60.62 E.00569
G1 X117.23 Y60.521 E.00344
G1 X117.23 Y57.73 E.09487
G1 X119.77 Y57.73 E.08633
G1 X119.77 Y162.27 E3.55297
G1 X117.23 Y162.27 E.08633
G1 X117.23 Y159.479 E.09487
G1 X117.164 Y159.347 E.00498
G1 E-.84 F2400
;WIPE_START
G1 F1800
G1 X117.021 Y159.27 E-.05856
G1 X116.184 Y159.27 E-.30144
;WIPE_END
G1 Z.6 F9000
G1 X117.151 Y157.124 Z.6
G1 Z.2
G1 E1.2 F1800
;TYPE:Inner wall
G1 X117.021 Y157.147 E.00447
G1 X102.979 Y157.147 E.47727
G1 X102.759 Y157.107 E.00759
M73 P4 R12
G1 X102.603 Y157.022 E.00603
G1 X102.427 Y156.816 E.00923
G1 X102.353 Y156.521 E.01031
G1 X102.353 Y147.479 E.30734
G1 X102.427 Y147.184 E.01031
G1 X102.603 Y146.978 E.00923
G1 X102.93 Y146.853 E.0119
G1 X117.021 Y146.853 E.47891
G1 X117.241 Y146.893 E.00759
G1 X117.397 Y146.978 E.00603
G1 X117.573 Y147.184 E.00923
G1 X117.647 Y147.479 E.01031
G1 X117.647 Y156.521 E.30734
G1 X117.573 Y156.816 E.01031
G1 X117.397 Y157.022 E.00923
G1 X117.241 Y157.107 E.00603
G1 X117.19 Y157.116 E.00176
G1 X117.08 Y156.73 F9000
;TYPE:Outer wall
G1 F1800
G1 X102.979 Y156.73 E.47925
G1 X102.853 Y156.688 E.00448
G1 X102.77 Y156.552 E.00542
G1 X102.77 Y147.479 E.30839
G1 X102.853 Y147.312 E.00634
G1 X102.979 Y147.27 E.00448
G1 X117.021 Y147.27 E.47727
G1 X117.147 Y147.312 E.00448
G1 X117.23 Y147.479 E.00634
G1 X117.23 Y156.521 E.30734
G1 X117.205 Y156.62 E.00344
G1 X117.11 Y156.704 E.00433
G1 E-.84 F2400
;WIPE_START
G1 F1800
G1 X116.11 Y156.705 E-.36
;WIPE_END
G1 Z.6 F9000
G1 X117.151 Y145.124 Z.6
G1 Z.2
G1 E1.2 F1800
;TYPE:Inner wall
G1 X117.021 Y145.147 E.00447
G1 X102.979 Y145.147 E.47727
G1 X102.759 Y145.107 E.00759
G1 X102.603 Y145.022 E.00603
G1 X102.427 Y144.816 E.00923
G1 X102.353 Y144.602 E.00768
G1 X102.353 Y135.479 E.31008
G1 X102.427 Y135.184 E.01031
G1 X102.603 Y134.978 E.00923
G1 X102.93 Y134.853 E.0119
G1 X117.021 Y134.853 E.47891
G1 X117.241 Y134.893 E.00759
G1 X117.397 Y134.978 E.00603
G1 X117.573 Y135.184 E.00923
G1 X117.647 Y135.479 E.01031
G1 X117.647 Y144.521 E.30734
G1 X117.573 Y144.816 E.01031
G1 X117.397 Y145.022 E.00923
G1 X117.241 Y145.107 E.00603
G1 X117.19 Y145.116 E.00176
G1 X117.08 Y144.73 F9000
;TYPE:Outer wall
G1 F1800
G1 X102.979 Y144.73 E.47925
G1 X102.853 Y144.688 E.00448
G1 X102.77 Y144.548 E.00554
G1 X102.77 Y135.479 E.30825
G1 X102.853 Y135.312 E.00634
G1 X102.979 Y135.27 E.00448
G1 X117.021 Y135.27 E.47727
G1 X117.147 Y135.312 E.00448
G1 X117.23 Y135.479 E.00634
G1 X117.23 Y144.521 E.30734
G1 X117.205 Y144.62 E.00344
G1 X117.11 Y144.704 E.00433
G1 E-.84 F2400
;WIPE_START
G1 F1800
G1 X116.11 Y144.705 E-.36
;WIPE_END
G1 Z.6 F9000
G1 X117.151 Y133.124 Z.6
G1 Z.2
G1 E1.2 F1800
;TYPE:Inner wall
G1 X117.021 Y133.147 E.00447
M73 P5 R12
G1 X102.979 Y133.147 E.47727
G1 X102.759 Y133.107 E.00759
G1 X102.603 Y133.022 E.00603
G1 X102.427 Y132.816 E.00923
G1 X102.353 Y132.521 E.01031
G1 X102.353 Y123.479 E.30734
G1 X102.427 Y123.184 E.01031
G1 X102.603 Y122.978 E.00923
G1 X102.93 Y122.853 E.0119
G1 X117.021 Y122.853 E.47891
G1 X117.241 Y122.893 E.00759
G1 X117.397 Y122.978 E.00603
G1 X117.573 Y123.184 E.00923
G1 X117.647 Y123.479 E.01031
G1 X117.647 Y132.521 E.30734
G1 X117.573 Y132.816 E.01031
G1 X117.397 Y133.022 E.00923
G1 X117.241 Y133.107 E.00603
G1 X117.19 Y133.116 E.00176
G1 X117.08 Y132.73 F9000
;TYPE:Outer wall
G1 F1800
G1 X102.979 Y132.73 E.47925
G1 X102.853 Y132.688 E.00448
G1 X102.77 Y132.552 E.00542
G1 X102.77 Y123.479 E.30839
G1 X102.853 Y123.312 E.00634
G1 X102.979 Y123.27 E.00448
G1 X117.021 Y123.27 E.47727
G1 X117.095 Y123.283 E.00253
G1 X117.23 Y123.402 E.00612
G1 X117.23 Y132.521 E.30994
G1 X117.205 Y132.62 E.00344
G1 X117.11 Y132.704 E.00433
G1 E-.84 F2400
;WIPE_START
G1 F1800
G1 X116.11 Y132.705 E-.36
;WIPE_END
G1 Z.6 F9000
G1 X117.151 Y121.124 Z.6
G1 Z.2
G1 E1.2 F1800
;TYPE:Inner wall
G1 X117.021 Y121.147 E.00447
G1 X102.979 Y121.147 E.47727
G1 X102.759 Y121.107 E.00759
G1 X102.603 Y121.022 E.00603
G1 X102.427 Y120.816 E.00923
G1 X102.353 Y120.521 E.01031
G1 X102.353 Y111.479 E.30734
G1 X102.427 Y111.184 E.01031
G1 X102.603 Y110.978 E.00923
G1 X102.93 Y110.853 E.0119
G1 X117.021 Y110.853 E.47891
G1 X117.241 Y110.893 E.00759
G1 X117.397 Y110.978 E.00603
G1 X117.573 Y111.184 E.00923
G1 X117.647 Y111.479 E.01031
G1 X117.647 Y120.521 E.30734
G1 X117.573 Y120.816 E.01031
G1 X117.397 Y121.022 E.00923
G1 X117.241 Y121.107 E.00603
G1 X117.19 Y121.116 E.00176
G1 X117.08 Y120.73 F9000
;TYPE:Outer wall
G1 F1800
G1 X102.979 Y120.73 E.47925
G1 X102.853 Y120.688 E.00448
G1 X102.77 Y120.552 E.00542
G1 X102.77 Y111.479 E.30839
G1 X102.853 Y111.312 E.00634
G1 X102.979 Y111.27 E.00448
G1 X117.021 Y111.27 E.47727
G1 X117.147 Y111.312 E.00448
G1 X117.23 Y111.479 E.00634
G1 X117.23 Y120.521 E.30734
G1 X117.205 Y120.62 E.00344
G1 X117.11 Y120.704 E.00433
G1 E-.84 F2400
;WIPE_START
G1 F1800
G1 X116.11 Y120.705 E-.36
;WIPE_END
G1 Z.6 F9000
G1 X117.598 Y96.718 Z.6
G1 Z.2
M73 P6 R12
G1 E1.2 F1800
;TYPE:Inner wall
G1 X117.573 Y96.816 E.00344
G1 X117.397 Y97.022 E.00923
G1 X117.241 Y97.107 E.00603
G1 X117.021 Y97.147 E.00759
G1 X102.979 Y97.147 E.47727
G1 X102.759 Y97.107 E.00759
G1 X102.603 Y97.022 E.00603
G1 X102.427 Y96.816 E.00923
G1 X102.353 Y96.521 E.01031
G1 X102.353 Y87.479 E.30734
G1 X102.427 Y87.184 E.01031
G1 X102.603 Y86.978 E.00923
G1 X102.93 Y86.853 E.0119
G1 X117.021 Y86.853 E.47891
G1 X117.241 Y86.893 E.00759
G1 X117.397 Y86.978 E.00603
G1 X117.573 Y87.184 E.00923
G1 X117.647 Y87.479 E.01031
G1 X117.647 Y96.521 E.30734
G1 X117.608 Y96.679 E.00552
G1 X117.205 Y96.62 F9000
;TYPE:Outer wall
G1 F1800
G1 X117.08 Y96.73 E.00569
G1 X102.979 Y96.73 E.47925
G1 X102.853 Y96.688 E.00448
G1 X102.77 Y96.552 E.00542
G1 X102.77 Y87.479 E.30839
G1 X102.853 Y87.312 E.00634
G1 X102.979 Y87.27 E.00448
G1 X117.021 Y87.27 E.47727
G1 X117.147 Y87.312 E.00448
G1 X117.23 Y87.479 E.00634
G1 X117.23 Y96.521 E.30734
G1 X117.215 Y96.581 E.00208
G1 E-.84 F2400
;WIPE_START
G1 F1800
G1 X117.08 Y96.73 E-.07259
G1 X116.281 Y96.73 E-.28741
;WIPE_END
G1 Z.6 F9000
G1 X117.151 Y85.124 Z.6
G1 Z.2
G1 E1.2 F1800
;TYPE:Inner wall
G1 X117.021 Y85.147 E.00447
G1 X102.979 Y85.147 E.47727
G1 X102.759 Y85.107 E.00759
G1 X102.603 Y85.022 E.00603
G1 X102.427 Y84.816 E.00923
G1 X102.353 Y84.521 E.01031
G1 X102.353 Y75.479 E.30734
G1 X102.427 Y75.184 E.01031
G1 X102.603 Y74.978 E.00923
G1 X102.93 Y74.853 E.0119
G1 X117.021 Y74.853 E.47891
G1 X117.241 Y74.893 E.00759
G1 X117.397 Y74.978 E.00603
G1 X117.573 Y75.184 E.00923
G1 X117.647 Y75.479 E.01031
G1 X117.647 Y84.521 E.30734
G1 X117.573 Y84.816 E.01031
G1 X117.397 Y85.022 E.00923
G1 X117.241 Y85.107 E.00603
G1 X117.19 Y85.116 E.00176
G1 X117.08 Y84.73 F9000
;TYPE:Outer wall
G1 F1800
G1 X102.979 Y84.73 E.47925
G1 X102.853 Y84.688 E.00448
G1 X102.77 Y84.552 E.00542
G1 X102.77 Y75.479 E.30839
G1 X102.853 Y75.312 E.00634
G1 X102.979 Y75.27 E.00448
G1 X117.021 Y75.27 E.47727
G1 X117.147 Y75.312 E.00448
G1 X117.23 Y75.479 E.00634
G1 X117.23 Y84.521 E.30734
G1 X117.205 Y84.62 E.00344
M73 P7 R12
G1 X117.11 Y84.704 E.00433
G1 E-.84 F2400
;WIPE_START
G1 F1800
G1 X116.11 Y84.705 E-.36
;WIPE_END
G1 Z.6 F9000
G1 X117.151 Y73.124 Z.6
G1 Z.2
G1 E1.2 F1800
;TYPE:Inner wall
G1 X117.021 Y73.147 E.00447
G1 X102.979 Y73.147 E.47727
G1 X102.759 Y73.107 E.00759
G1 X102.603 Y73.022 E.00603
G1 X102.427 Y72.816 E.00923
G1 X102.353 Y72.521 E.01031
G1 X102.353 Y63.479 E.30734
G1 X102.427 Y63.184 E.01031
G1 X102.603 Y62.978 E.00923
G1 X102.93 Y62.853 E.0119
G1 X117.021 Y62.853 E.47891
G1 X117.241 Y62.893 E.00759
G1 X117.397 Y62.978 E.00603
G1 X117.573 Y63.184 E.00923
G1 X117.647 Y63.479 E.01031
G1 X117.647 Y72.521 E.30734
G1 X117.573 Y72.816 E.01031
G1 X117.397 Y73.022 E.00923
G1 X117.241 Y73.107 E.00603
G1 X117.19 Y73.116 E.00176
G1 X117.08 Y72.73 F9000
;TYPE:Outer wall
G1 F1800
G1 X102.979 Y72.73 E.47925
G1 X102.853 Y72.688 E.00448
G1 X102.77 Y72.552 E.00542
G1 X102.77 Y63.479 E.30839
G1 X102.853 Y63.312 E.00634
G1 X102.979 Y63.27 E.00448
G1 X117.021 Y63.27 E.47727
G1 X117.147 Y63.312 E.00448
G1 X117.23 Y63.479 E.00634
G1 X117.23 Y72.521 E.30734
G1 X117.205 Y72.62 E.00344
G1 X117.11 Y72.704 E.00433
G1 E-.84 F2400
;WIPE_START
G1 F1800
G1 X116.11 Y72.705 E-.36
;WIPE_END
G1 Z.6 F9000
G1 X117.151 Y109.124 Z.6
G1 Z.2
G1 E1.2 F1800
;TYPE:Inner wall
G1 X117.021 Y109.147 E.00447
G1 X102.979 Y109.147 E.47727
G1 X102.759 Y109.107 E.00759
G1 X102.603 Y109.022 E.00603
G1 X102.427 Y108.816 E.00923
G1 X102.353 Y108.521 E.01031
G1 X102.353 Y99.479 E.30734
G1 X102.427 Y99.184 E.01031
G1 X102.603 Y98.978 E.00923
G1 X102.93 Y98.853 E.0119
G1 X117.021 Y98.853 E.47891
G1 X117.241 Y98.893 E.00759
G1 X117.397 Y98.978 E.00603
G1 X117.573 Y99.184 E.00923
G1 X117.647 Y99.479 E.01031
G1 X117.647 Y108.521 E.30734
G1 X117.573 Y108.816 E.01031
G1 X117.397 Y109.022 E.00923
G1 X117.241 Y109.107 E.00603
G1 X117.19 Y109.116 E.00176
G1 X117.08 Y108.73 F9000
;TYPE:Outer wall
G1 F1800
G1 X102.979 Y108.73 E.47925
G1 X102.853 Y108.688 E.00448
G1 X102.77 Y108.552 E.00542
G1 X102.77 Y99.479 E.30839
G1 X102.853 Y99.312 E.00634
M73 P8 R12
G1 X102.979 Y99.27 E.00448
G1 X117.021 Y99.27 E.47727
G1 X117.147 Y99.312 E.00448
G1 X117.23 Y99.479 E.00634
G1 X117.23 Y108.521 E.30734
G1 X117.205 Y108.62 E.00344
G1 X117.11 Y108.704 E.00433
G1 E-.84 F2400
;WIPE_START
G1 F1800
G1 X116.11 Y108.705 E-.36
;WIPE_END
G1 Z.6 F9000
G1 X118.381 Y58.272
G1 Z.6
G1 Z.2
G1 E1.2 F1800
;TYPE:Bottom surface
;WIDTH:0.461673
G1 F4800
G1 X119.04 Y58.931 E.0318
G1 X119.04 Y59.523 E.02021
G1 X117.977 Y58.46 E.05132
G1 X117.959 Y58.46 E.00059
G1 X117.956 Y59.032 E.01951
G1 X119.04 Y60.116 E.05231
G1 X119.04 Y60.708 E.02021
G1 X117.953 Y59.621 E.05246
G1 X117.95 Y60.21 E.0201
G1 X119.04 Y61.3 E.05261
G1 X119.04 Y61.892 E.02021
G1 X117.918 Y60.77 E.05417
G1 X117.85 Y60.967 E.00712
G1 X117.699 Y61.143 E.00792
G1 X119.04 Y62.484 E.06474
G1 X119.04 Y63.077 E.02021
G1 X117.36 Y61.396 E.08108
G1 X117.031 Y61.46 E.01144
G1 X116.831 Y61.46 E.00681
G1 X119.04 Y63.669 E.1066
G1 X119.04 Y64.261 E.02021
G1 X116.239 Y61.46 E.13518
G1 X115.646 Y61.46 E.02021
G1 X116.727 Y62.54 E.05214
G1 X116.135 Y62.54 E.02021
G1 X115.054 Y61.459 E.05215
G1 X114.462 Y61.459 E.02021
G1 X115.543 Y62.54 E.05216
G1 X114.95 Y62.54 E.02021
G1 X113.869 Y61.459 E.05216
G1 X113.277 Y61.459 E.02021
G1 X114.358 Y62.54 E.05217
G1 X113.766 Y62.54 E.02021
G1 X112.685 Y61.459 E.05218
G1 X112.092 Y61.459 E.02021
G1 X113.174 Y62.54 E.05218
G1 X112.582 Y62.54 E.02021
G1 X111.5 Y61.459 E.05219
G1 X110.908 Y61.459 E.02021
G1 X111.989 Y62.54 E.0522
G1 X111.397 Y62.54 E.02021
G1 X110.315 Y61.458 E.0522
G1 X109.723 Y61.458 E.02021
G1 X110.805 Y62.54 E.05221
G1 X110.213 Y62.54 E.02021
G1 X109.131 Y61.458 E.05221
G1 X108.538 Y61.458 E.02021
G1 X109.621 Y62.54 E.05222
G1 X109.028 Y62.54 E.02021
G1 X107.946 Y61.458 E.05223
G1 X107.354 Y61.458 E.02021
G1 X108.436 Y62.54 E.05223
G1 X107.844 Y62.54 E.02021
G1 X106.761 Y61.458 E.05224
G1 X106.169 Y61.457 E.02021
G1 X107.252 Y62.54 E.05225
G1 X106.659 Y62.54 E.02021
G1 X105.577 Y61.457 E.05225
G1 X104.984 Y61.457 E.02021
G1 X106.067 Y62.54 E.05226
G1 X105.475 Y62.54 E.02021
G1 X104.392 Y61.457 E.05227
G1 X103.8 Y61.457 E.02021
G1 X104.883 Y62.54 E.05227
G1 X104.291 Y62.54 E.02021
G1 X103.02 Y61.269 E.06134
G1 E-.84 F2400
;WIPE_START
G1 F4800
G1 X103.727 Y61.976 E-.36
;WIPE_END
G1 Z.6 F9000
G1 X102.228 Y58.701 Z.6
G1 Z.2
G1 E1.2 F1800
G1 F4800
G1 X101.987 Y58.46 E.01162
G1 X101.395 Y58.46 E.02021
G1 X102.04 Y59.105 E.03114
G1 X102.04 Y59.697 E.02021
G1 X100.96 Y58.617 E.05213
G1 X100.96 Y59.209 E.02021
G1 X102.228 Y60.477 E.06119
G1 X100.772 Y59.614 F9000
G1 F4800
G1 X103.698 Y62.54 E.14121
G1 X103.106 Y62.54 E.02021
G1 X100.96 Y60.394 E.10358
G1 X100.96 Y60.986 E.02021
G1 X102.6 Y62.626 E.07913
G1 X102.411 Y62.729 E.00733
G1 X102.273 Y62.891 E.00728
G1 X100.96 Y61.578 E.06334
G1 X100.96 Y62.17 E.02021
G1 X102.083 Y63.294 E.0542
G1 X102.04 Y63.466 E.00605
G1 X102.04 Y63.843 E.01287
G1 X100.96 Y62.763 E.05213
G1 X100.96 Y63.355 E.02021
G1 X102.04 Y64.435 E.05213
G1 X102.04 Y65.027 E.02021
G1 X100.96 Y63.947 E.05213
G1 X100.96 Y64.539 E.02021
G1 X102.04 Y65.619 E.05213
G1 X102.04 Y66.212 E.02021
G1 X100.96 Y65.131 E.05213
G1 X100.96 Y65.724 E.02021
G1 X102.04 Y66.804 E.05213
G1 X102.04 Y67.396 E.02021
G1 X100.96 Y66.316 E.05213
G1 X100.96 Y66.908 E.02021
G1 X102.04 Y67.988 E.05213
G1 X102.04 Y68.58 E.02021
G1 X100.96 Y67.5 E.05213
M73 P9 R12
G1 X100.96 Y68.092 E.02021
G1 X102.04 Y69.173 E.05213
G1 X102.04 Y69.765 E.02021
G1 X100.96 Y68.685 E.05213
G1 X100.96 Y69.277 E.02021
G1 X102.04 Y70.357 E.05213
G1 X102.04 Y70.949 E.02021
G1 X100.96 Y69.869 E.05213
G1 X100.96 Y70.461 E.02021
G1 X102.04 Y71.541 E.05213
G1 X102.04 Y72.134 E.02021
G1 X100.772 Y70.866 E.06119
G1 E-.84 F2400
;WIPE_START
G1 F4800
G1 X101.479 Y71.573 E-.36
;WIPE_END
G1 Z.6 F9000
G1 X119.228 Y65.041 Z.6
G1 Z.2
G1 E1.2 F1800
G1 F4800
G1 X117.96 Y63.773 E.06119
G1 X117.96 Y64.365 E.02021
G1 X119.04 Y65.445 E.05213
G1 X119.04 Y66.038 E.02021
G1 X117.96 Y64.957 E.05213
G1 X117.96 Y65.55 E.02021
G1 X119.04 Y66.63 E.05213
G1 X119.04 Y67.222 E.02021
G1 X117.96 Y66.142 E.05213
G1 X117.96 Y66.734 E.02021
G1 X119.04 Y67.814 E.05213
G1 X119.04 Y68.406 E.02021
G1 X117.96 Y67.326 E.05213
G1 X117.96 Y67.918 E.02021
G1 X119.04 Y68.999 E.05213
