; HEADER_BLOCK_START
; generated by OrcaSlicer 2.2.0 on 2024-12-10 at 21:40:02
; total layer number: 10
; filament_density: 1.24
; filament_diameter: 1.75
; max_z_height: 2.00
; HEADER_BLOCK_END

; external perimeters extrusion width = 0.42mm
; perimeters extrusion width = 0.45mm
; infill extrusion width = 0.45mm
; solid infill extrusion width = 0.42mm
; top infill extrusion width = 0.42mm
; first layer extrusion width = 0.46mm

; EXECUTABLE_BLOCK_START
M201 X2500 Y2500 Z500 E5000
M203 X250 Y250 Z5 E40
M204 P2500 R500 T2500 ; sets acceleration (P, T) and retract acceleration (R), mm/sec^2
M205 X10.00 Y10.00 Z0.40 E5.00 ; sets the jerk limits, mm/sec
;TYPE:Custom
M220 S100 ;Reset Feedrate 
M221 S100 ;Reset Flowrate 
 
M104 S220 ;Set final nozzle temp 
M190 S55 ;Set and wait for bed temp to stabilize 
G28 ;Home 
G92 E0 ;Reset Extruder 
G1 Z2.0 F3000 ;Move Z Axis up 
G1 X-2.1 Y20 Z0.28 F5000.0 ;Move to start position 
M109 S220 ;Wait for nozzle temp to stabilize 
G1 X-2.1 Y145.0 Z0.28 F1500.0 E15 ;Draw the first line 
G1 X-2.4 Y145.0 Z0.28 F5000.0 ;Move to side a little 
M73 P2 R4
G1 X-2.4 Y20 Z0.28 F1500.0 E30 ;Draw the second line 
G92 E0  ;Reset Extruder 
G1 E-1.0000 F1800 ;Retract a bit 
M73 P3 R4
G1 Z2.0 F3000 ;Move Z Axis up 
G1 E0.0000 F1800
G90
G21
M83 ; use relative distances for extrusion
; filament start gcode
M106 S0
;LAYER_CHANGE
;Z:0.2
;HEIGHT:0.2
;BEFORE_LAYER_CHANGE
;0.2
G92 E0

G1 E-1.2 F2400
M73 P4 R4
;_SET_FAN_SPEED_CHANGING_LAYER
M204 P500
; printing object pousts_v2_razor_wire_Kill_Team_universal_equipment.stl_1 id:140719483682128 copy 0
M204 T500
G1 Z.6 F9000
G1 X110.656 Y117.853
G1 Z.6
G1 Z.2
G1 E1.2 F1800
;TYPE:Outer wall
;WIDTH:0.631292
G1 X111.155 Y117.691 E.02517
;WIDTH:0.62747
G1 X111.334 Y117.605 E.00946
G1 E-.84 F2400
;WIPE_START
G1 F1800
G1 X111.155 Y117.691 E-.09883
G1 X110.656 Y117.853 E-.26117
;WIPE_END
G1 Z.6 F9000
G1 X109.377 Y115.177 Z.6
G1 Z.2
G1 E1.2 F1800
;TYPE:Inner wall
;WIDTH:0.459999
G1 X109.373 Y114.684 E.01677
G1 X109.561 Y114.508 E.00875
G1 X109.849 Y114.299 E.01211
G1 X110.446 Y114.432 E.02077
G1 X110.713 Y114.979 E.02069
G1 X110.624 Y115.215 E.00855
G1 X110.453 Y115.531 E.01223
G1 X109.861 Y115.672 E.02067
G1 X109.378 Y115.295 E.02085
G1 X109.377 Y115.217 E.00263
G1 X108.778 Y115.589 F9000
;TYPE:Outer wall
;WIDTH:0.610872
G1 F1800
G1 X107.811 Y116.373 E.05762
G1 X107.651 Y116.619 E.01358
;WIDTH:0.607588
G1 X107.718 Y116.818 E.00968
G1 X107.575 Y116.644 E.0104
;WIDTH:0.610872
G1 X107.348 Y116.224 E.02206
;WIDTH:0.612108
G1 X107.178 Y115.746 E.02353
G1 X107.445 Y115.899 E.01427
M73 P5 R4
;WIDTH:0.610872
G1 X108.778 Y115.589 E.06334
G1 X108.82 Y115.536 E.00311
;WIDTH:0.573154
G1 X108.862 Y115.484 E.0029
;WIDTH:0.535436
G1 X108.904 Y115.432 E.0027
;WIDTH:0.497718
G1 X108.946 Y115.379 E.00249
;WIDTH:0.459999
G1 X108.961 Y115.302 E.00268
;WIDTH:0.486418
G1 X108.963 Y114.949 E.01275
;WIDTH:0.512836
G1 X108.966 Y114.596 E.01351
;WIDTH:0.546426
G1 X108.925 Y114.524 E.0034
;WIDTH:0.580016
G1 X108.883 Y114.452 E.00363
G1 X108.965 Y114.438 E.00363
;WIDTH:0.546426
G1 X109.047 Y114.425 E.0034
;WIDTH:0.512836
G1 X109.16 Y114.315 E.00602
;WIDTH:0.486418
G1 X109.273 Y114.206 E.00568
;WIDTH:0.486895
G1 X109.469 Y114.065 E.00873
;WIDTH:0.51379
G1 X109.665 Y113.925 E.00925
;WIDTH:0.546809
G1 X109.694 Y113.848 E.00337
;WIDTH:0.579828
G1 X109.724 Y113.772 E.0036
G1 X109.785 Y113.826 E.0036
;WIDTH:0.546809
G1 X109.847 Y113.881 E.00337
;WIDTH:0.51379
G1 X109.938 Y113.896 E.00355
;WIDTH:0.486929
G1 X110.326 Y113.983 E.01438
;WIDTH:0.513859
G1 X110.623 Y114.054 E.01171
;WIDTH:0.547084
G1 X110.701 Y114.029 E.00338
;WIDTH:0.580308
G1 X110.78 Y114.005 E.0036
G1 X110.775 Y114.087 E.0036
;WIDTH:0.547084
G1 X110.77 Y114.169 E.00338
;WIDTH:0.513859
G1 X110.795 Y114.209 E.00179
;WIDTH:0.486929
G1 X110.82 Y114.248 E.00169
;WIDTH:0.486191
G1 X110.969 Y114.564 E.01263
;WIDTH:0.512382
G1 X111.118 Y114.881 E.01338
;WIDTH:0.54604
G1 X111.187 Y114.928 E.00341
;WIDTH:0.579698
G1 X111.255 Y114.975 E.00364
G1 X111.187 Y115.024 E.00364
;WIDTH:0.54604
G1 X111.119 Y115.072 E.00341
;WIDTH:0.512382
G1 X111.068 Y115.215 E.00581
;WIDTH:0.486191
G1 X111.016 Y115.358 E.00549
;WIDTH:0.459999
G1 X110.828 Y115.713 E.01365
;WIDTH:0.497689
G1 X110.84 Y115.797 E.00316
;WIDTH:0.535379
G1 X110.851 Y115.882 E.00343
;WIDTH:0.573069
G1 X110.863 Y115.966 E.00369
;WIDTH:0.610759
G1 X110.874 Y116.051 E.00395
G1 X111.853 Y116.82 E.0576
G1 X112.063 Y116.924 E.01087
;WIDTH:0.610282
G1 X112.272 Y116.855 E.01014
G1 X112.116 Y117.046 E.01141
;WIDTH:0.610759
G1 X111.804 Y117.308 E.01883
G1 X111.334 Y117.605 E.02573
;WIDTH:0.610613
G1 X111.482 Y117.334 E.01431
;WIDTH:0.610759
G1 X111.454 Y117.233 E.00484
G1 X110.874 Y116.051 E.06093
G1 X110.813 Y116.021 E.00314
;WIDTH:0.573069
G1 X110.752 Y115.992 E.00293
;WIDTH:0.535379
G1 X110.691 Y115.962 E.00272
;WIDTH:0.497689
G1 X110.63 Y115.932 E.00251
;WIDTH:0.459999
G1 X110.474 Y115.955 E.00536
G1 X109.879 Y116.112 E.02094
G1 X109.792 Y116.255 E.00569
G1 X109.675 Y116.229 E.00405
G1 X109.658 Y116.062 E.00569
G1 X109.607 Y116.003 E.00266
G1 X109.118 Y115.621 E.02109
;WIDTH:0.497718
G1 X109.033 Y115.613 E.00316
;WIDTH:0.535436
G1 X108.948 Y115.605 E.00342
;WIDTH:0.573154
G1 X108.863 Y115.597 E.00369
;WIDTH:0.610872
G1 X108.818 Y115.593 E.0021
G1 E-.84 F2400
;WIPE_START
G1 F1800
G1 X108.027 Y116.205 E-.36
;WIPE_END
G1 Z.6 F9000
G1 X108.809 Y117.664 Z.6
G1 Z.2
G1 E1.2 F1800
;WIDTH:0.615182
G1 X108.356 Y117.413 E.02415
;WIDTH:0.624076
G1 X107.948 Y117.078 E.02496
G1 X107.718 Y116.818 E.01644
G1 X107.178 Y115.746 F9000
;WIDTH:0.612108
G1 F1800
G1 X107.088 Y115.247 E.02353
;WIDTH:0.605154
G1 X107.084 Y114.766 E.02203
;WIDTH:0.607856
G1 X107.151 Y114.312 E.02113
G1 X107.661 Y113.224 F9000
;WIDTH:0.609712
G1 F1800
G1 X108.01 Y112.835 E.02415
;WIDTH:0.62003
G1 X108.359 Y112.551 E.02115
G1 X108.725 Y112.344 E.01977
G1 X109.89 Y112.053 F9000
;WIDTH:0.619184
G1 F1800
G1 X110.404 Y112.075 E.02418
;WIDTH:0.609138
G1 X110.874 Y112.18 E.02219
;WIDTH:0.610588
G1 X111.337 Y112.368 E.02315
G1 X112.276 Y113.117 F9000
;WIDTH:0.608778
G1 F1800
G1 X112.552 Y113.515 E.02238
;WIDTH:0.615836
G1 X112.746 Y113.91 E.02053
;WIDTH:0.62869
G1 X112.891 Y114.415 E.02506
G1 X112.899 Y115.537 F9000
;WIDTH:0.625116
G1 F1800
G1 X112.762 Y116.018 E.02373
;WIDTH:0.628514
G1 X112.467 Y116.598 E.03108
G1 X112.272 Y116.855 E.01538
G1 X112.899 Y115.537 F9000
;WIDTH:0.625116
G1 F1800
G1 X112.669 Y115.257 E.01718
;WIDTH:0.613616
G1 X111.34 Y114.975 E.06318
G1 X112.664 Y114.673 E.06316
;WIDTH:0.62869
G1 X112.891 Y114.415 E.01642
G1 X112.954 Y114.99 E.02764
;WIDTH:0.625116
G1 X112.903 Y115.497 E.02414
G1 E-.84 F2400
;WIPE_START
G1 F1800
G1 X112.669 Y115.257 E-.12065
G1 X112.019 Y115.119 E-.23935
;WIPE_END
G1 Z.6 F9000
G1 X110.832 Y113.938 Z.6
G1 Z.2
G1 E1.2 F1800
;WIDTH:0.610888
G1 X111.458 Y112.637 E.06681
G1 X111.337 Y112.368 E.01366
G1 X111.639 Y112.529 E.01584
G1 X112.074 Y112.881 E.02588
;WIDTH:0.609526
G1 X112.276 Y113.117 E.01433
G1 X112.034 Y113.015 E.01214
;WIDTH:0.610888
G1 X111.825 Y113.121 E.01084
M73 P6 R4
G1 X110.863 Y113.912 E.05765
G1 X109.704 Y113.689 F9000
;WIDTH:0.61196
G1 F1800
G1 X109.116 Y112.467 E.06286
G1 X108.87 Y112.309 E.01355
;WIDTH:0.609017
G1 X108.725 Y112.344 E.0069
G1 X108.865 Y112.269 E.00732
;WIDTH:0.61196
G1 X109.381 Y112.11 E.02504
;WIDTH:0.619184
G1 X109.89 Y112.053 E.02405
G1 X109.685 Y112.324 E.01598
;WIDTH:0.61196
G1 X109.704 Y113.649 E.06142
G1 E-.84 F2400
;WIPE_START
G1 F1800
G1 X109.259 Y112.753 E-.36
;WIPE_END
G1 Z.6 F9000
G1 X107.151 Y114.312 Z.6
G1 Z.2
G1 E1.2 F1800
;WIDTH:0.610943
G1 X107.276 Y113.893 E.02026
G1 X107.396 Y113.657 E.01227
G1 X107.661 Y113.224 E.02346
;WIDTH:0.609201
G1 X107.626 Y113.385 E.00759
;WIDTH:0.610943
G1 X107.79 Y113.629 E.0136
G1 X108.807 Y114.416 E.05952
G1 X107.438 Y114.104 E.06501
G1 X107.183 Y114.289 E.01456
G1 E-.84 F2400
;WIPE_START
G1 F1800
G1 X107.276 Y113.893 E-.14637
G1 X107.396 Y113.657 E-.0954
G1 X107.568 Y113.377 E-.11823
;WIPE_END
G1 Z.6 F9000
G1 X106.341 Y109.676 Z.6
G1 Z.2
G1 E1.2 F1800
;WIDTH:0.549143
G1 X106.316 Y109.605 E.0031
;WIDTH:0.499797
G1 X106.291 Y109.535 E.00279
;WIDTH:0.450451
G1 X106.28 Y108.169 E.04535
;WIDTH:0.49934
G1 X106.305 Y108.098 E.00279
;WIDTH:0.54871
G1 X106.329 Y108.027 E.00309
;WIDTH:0.598081
G1 X106.353 Y107.956 E.0034
;WIDTH:0.647451
G1 X106.377 Y107.885 E.0037
G1 X113.436 Y107.832 E.34772
;WIDTH:0.648199
G1 X113.541 Y107.831 E.00521
G1 X113.567 Y107.902 E.0037
;WIDTH:0.598985
G1 X113.592 Y107.972 E.0034
;WIDTH:0.549771
G1 X113.617 Y108.043 E.0031
;WIDTH:0.500557
G1 X113.642 Y108.114 E.0028
;WIDTH:0.451493
G1 X113.652 Y109.48 E.04548
;WIDTH:0.491141
G1 X113.628 Y109.551 E.00274
;WIDTH:0.530789
G1 X113.604 Y109.622 E.00298
;WIDTH:0.570437
G1 X113.58 Y109.693 E.00323
;WIDTH:0.610085
G1 X113.556 Y109.764 E.00347
G1 X106.497 Y109.817 E.32628
;WIDTH:0.647834
G1 X106.391 Y109.818 E.00519
G1 X106.366 Y109.747 E.0037
;WIDTH:0.598489
G1 X106.354 Y109.714 E.00159
G1 E-.84 F2400
;WIPE_START
G1 F1800
G1 X106.316 Y109.605 E-.04141
G1 X106.291 Y109.535 E-.02701
G1 X106.285 Y108.725 E-.29157
;WIPE_END
G1 Z.6 F9000
G1 X106.263 Y105.732 Z.6
G1 Z.2
G1 E1.2 F1800
M73 P7 R4
;WIDTH:0.459999
G1 X106.353 Y105.556 E.00674
G1 X106.486 Y105.522 E.00467
G1 X113.418 Y105.47 E.2356
G1 X113.563 Y105.527 E.00528
;WIDTH:0.458988
G1 X113.624 Y105.677 E.00549
;WIDTH:0.451168
G1 X113.633 Y106.98 E.04333
;WIDTH:0.490898
G1 X113.609 Y107.051 E.00274
;WIDTH:0.530627
G1 X113.585 Y107.122 E.00298
;WIDTH:0.570356
G1 X113.561 Y107.193 E.00322
;WIDTH:0.610085
G1 X113.537 Y107.264 E.00347
G1 X106.478 Y107.317 E.32628
;WIDTH:0.647451
G1 X106.373 Y107.318 E.00516
G1 X106.348 Y107.247 E.0037
;WIDTH:0.598014
G1 X106.323 Y107.176 E.0034
;WIDTH:0.548576
G1 X106.297 Y107.106 E.00309
;WIDTH:0.499138
G1 X106.272 Y107.035 E.00279
;WIDTH:0.4497
G1 X106.263 Y105.772 E.04185
G1 E-.84 F2400
;WIPE_START
G1 F1800
G1 X106.353 Y105.556 E-.08445
G1 X106.486 Y105.522 E-.04949
G1 X107.114 Y105.517 E-.22606
;WIPE_END
G1 Z.6 F9000
G1 X113.397 Y104.599 Z.6
G1 Z.2
G1 E1.2 F1800
;WIDTH:0.459999
G1 X106.48 Y104.651 E.2351
G1 X106.43 Y104.645 E.00171
G1 X106.287 Y104.43 E.00878
;WIDTH:0.426929
G1 X106.455 Y103.009 E.04479
;WIDTH:0.43533
G1 X106.48 Y102.919 E.00298
;WIDTH:0.459999
G1 X106.638 Y102.824 E.00628
G1 X113.204 Y102.775 E.22314
G1 X113.364 Y102.868 E.00632
;WIDTH:0.427085
G1 X113.48 Y103.497 E.02002
;WIDTH:0.432921
G1 X113.582 Y104.368 E.02786
;WIDTH:0.441844
G1 X113.58 Y104.447 E.00259
;WIDTH:0.459999
G1 X113.428 Y104.573 E.0067
G1 E-.84 F2400
;WIPE_START
G1 F1800
G1 X112.428 Y104.584 E-.36
;WIPE_END
G1 Z.6 F9000
G1 X112.912 Y101.875 Z.6
G1 Z.2
G1 E1.2 F1800
G1 X106.951 Y101.919 E.20263
G1 X106.879 Y101.907 E.00247
M73 P8 R4
G1 X106.759 Y101.748 E.00677
;WIDTH:0.430869
G1 X106.972 Y101.049 E.02309
;WIDTH:0.422133
G1 X107.176 Y100.499 E.01813
;WIDTH:0.452443
G1 X107.27 Y100.379 E.00509
;WIDTH:0.459999
G1 X108.016 Y100.352 E.02538
G1 X112.452 Y100.319 E.15078
G1 X112.567 Y100.361 E.00415
;WIDTH:0.445476
G1 X112.836 Y101.004 E.02289
;WIDTH:0.427136
G1 X113.052 Y101.602 E.01988
;WIDTH:0.430367
G1 X113.068 Y101.701 E.00318
;WIDTH:0.459999
G1 X112.939 Y101.845 E.00657
G1 E-.84 F2400
;WIPE_START
G1 F1800
G1 X111.939 Y101.857 E-.36
;WIPE_END
G1 Z.6 F9000
G1 X112.567 Y95.315 Z.6
G1 Z.2
G1 E1.2 F1800
;WIDTH:0.60311
G1 X112.469 Y94.929 E.01821
;WIDTH:0.556065
G1 X112.371 Y94.542 E.01668
;WIDTH:0.50902
G1 X112.365 Y94.515 E.00104
G1 X111.74 Y94.663 F9000
;WIDTH:0.488554
G1 F1800
G1 X111.755 Y94.369 E.01071
G1 X110.745 Y93.654 F9000
;WIDTH:0.646978
G1 F1800
G1 X110.855 Y93.57 E.00682
;WIDTH:0.689532
G1 X110.966 Y93.487 E.0073
G1 X111.083 Y93.517 E.00638
;WIDTH:0.64331
G1 X111.201 Y93.548 E.00593
;WIDTH:0.612582
G1 X111.281 Y93.595 E.00432
G1 X111.71 Y92.659 F9000
;WIDTH:0.38292
G1 F1800
G1 X111.312 Y92.413 E.01298
;WIDTH:0.422779
G1 X111.288 Y92.388 E.00106
;WIDTH:0.462638
G1 X111.265 Y92.363 E.00117
;WIDTH:0.502497
G1 X111.242 Y92.338 E.00128
;WIDTH:0.542356
G1 X111.219 Y92.313 E.00139
;WIDTH:0.59133
G1 X111.087 Y92.345 E.00608
;WIDTH:0.640304
G1 X110.954 Y92.377 E.00663
;WIDTH:0.689278
G1 X110.822 Y92.409 E.00717
G1 X110.72 Y92.492 E.00694
;WIDTH:0.65102
G1 X110.618 Y92.575 E.00653
G1 X110.343 Y94.153 F9000
;TYPE:Inner wall
;WIDTH:0.459999
G1 F1800
G1 X110.777 Y95.057 E.03408
G1 X110.516 Y95.275 E.01154
G1 X110.408 Y95.55 E.01005
G1 X110.453 Y95.882 E.01138
G1 X111.151 Y97.51 E.06021
G1 X110.974 Y97.363 E.00781
G1 X110.57 Y97.219 E.01459
G1 X109.172 Y97.23 E.04752
G1 X108.908 Y97.338 E.0097
G1 X109.538 Y95.881 E.05394
G1 X109.584 Y95.549 E.01138
G1 X109.476 Y95.273 E.01005
G1 X109.215 Y95.054 E.01159
G1 X109.633 Y94.204 E.03221
G1 X109.922 Y94.034 E.0114
G1 X109.998 Y93.932 E.00432
G1 X110.073 Y94.034 E.00432
G1 X110.306 Y94.137 E.00866
G1 X110.674 Y93.7 F9000
;TYPE:Outer wall
;WIDTH:0.604424
G1 F1800
G1 X110.745 Y93.654 E.00388
G1 X110.711 Y93.768 E.00547
;WIDTH:0.560996
G1 X110.714 Y93.836 E.00286
;WIDTH:0.527331
G1 X110.716 Y93.904 E.00267
;WIDTH:0.493665
G1 X110.718 Y93.971 E.00249
;WIDTH:0.459999
G1 X111.321 Y95.221 E.04717
G1 X110.922 Y95.455 E.01572
G1 X110.821 Y95.607 E.00619
G1 X110.836 Y95.718 E.00379
G1 X111.614 Y97.531 E.06708
;WIDTH:0.493348
G1 X111.919 Y98.282 E.02973
G1 X112.373 Y99.054 E.03288
;WIDTH:0.459999
G1 X112.988 Y100.326 E.048
;WIDTH:0.427136
G1 X113.199 Y100.878 E.0185
;WIDTH:0.430367
G1 X113.461 Y101.688 E.0269
;WIDTH:0.459999
G1 X113.593 Y102.271 E.02032
G1 X113.759 Y102.887 E.02167
;WIDTH:0.427085
G1 X113.861 Y103.451 E.01794
;WIDTH:0.441844
G1 X113.987 Y104.496 E.0342
;WIDTH:0.459999
G1 X114.032 Y105.674 E.04008
;WIDTH:0.451168
G1 X114.042 Y107.039 E.04542
;WIDTH:0.500426
G1 X114.019 Y107.166 E.00479
;WIDTH:0.549684
G1 X113.995 Y107.292 E.0053
;WIDTH:0.598942
G1 X113.971 Y107.418 E.00582
;WIDTH:0.648199
G1 X113.948 Y107.544 E.00633
G1 X113.973 Y107.686 E.0071
;WIDTH:0.598985
G1 X113.999 Y107.827 E.00652
;WIDTH:0.549771
G1 X114.025 Y107.969 E.00594
;WIDTH:0.500557
G1 X114.05 Y108.111 E.00537
;WIDTH:0.451493
G1 X114.061 Y109.54 E.04758
;WIDTH:0.500712
G1 X114.038 Y109.666 E.00479
;WIDTH:0.549931
G1 X114.014 Y109.792 E.0053
;WIDTH:0.59915
G1 X113.991 Y109.918 E.00582
;WIDTH:0.648368
G1 X113.967 Y110.045 E.00633
G1 X113.993 Y110.186 E.0071
;WIDTH:0.599194
G1 X114.018 Y110.328 E.00652
;WIDTH:0.550019
G1 X114.044 Y110.469 E.00595
;WIDTH:0.500844
G1 X114.07 Y110.611 E.00537
;WIDTH:0.453569
G1 X114.131 Y118.655 E.26919
G1 X113.823 Y118.686 E.01035
M73 P9 R4
;WIDTH:0.412141
G1 X113.515 Y118.717 E.00931
;WIDTH:0.370833
G1 X111.943 Y118.729 E.04201
;WIDTH:0.414498
G1 X111.884 Y118.751 E.00193
;WIDTH:0.458162
G1 X111.824 Y118.773 E.00215
;WIDTH:0.501826
G1 X111.764 Y118.796 E.00238
;WIDTH:0.54549
G1 X111.705 Y118.818 E.00261
G1 X111.705 Y118.893 E.00305
;WIDTH:0.521508
G1 X111.694 Y128.336 E.36827
G1 X111.215 Y128.358 E.01869
G1 X111.227 Y118.822 E.37188
G1 X111.166 Y118.8 E.00249
;WIDTH:0.483859
G1 X111.106 Y118.779 E.00229
;WIDTH:0.446209
G1 X111.046 Y118.758 E.0021
;WIDTH:0.40856
G1 X110.986 Y118.736 E.0019
;WIDTH:0.370923
G1 X110.791 Y118.738 E.00521
;WIDTH:0.415461
G1 X110.33 Y118.719 E.01402
;WIDTH:0.459999
G1 X109.868 Y118.7 E.0157
G1 X109.406 Y118.726 E.01575
;WIDTH:0.415528
G1 X108.943 Y118.751 E.01407
;WIDTH:0.414692
G1 X108.884 Y118.774 E.00193
;WIDTH:0.458327
G1 X108.824 Y118.796 E.00216
;WIDTH:0.501962
G1 X108.764 Y118.818 E.00238
;WIDTH:0.545597
G1 X108.705 Y118.84 E.00261
G1 X108.705 Y118.915 E.00306
;WIDTH:0.521514
G1 X108.693 Y128.473 E.37276
G1 X108.214 Y128.495 E.01869
G1 X108.227 Y118.844 E.37638
G1 X108.166 Y118.823 E.00249
;WIDTH:0.483918
G1 X108.106 Y118.801 E.00229
;WIDTH:0.446322
G1 X108.046 Y118.78 E.0021
;WIDTH:0.408726
G1 X107.986 Y118.759 E.0019
;WIDTH:0.371232
G1 X106.566 Y118.769 E.03799
;WIDTH:0.40836
G1 X106.365 Y118.752 E.006
;WIDTH:0.445487
G1 X106.164 Y118.735 E.00661
;WIDTH:0.482614
G1 X105.963 Y118.718 E.00723
G1 X105.946 Y118.281 E.01566
;WIDTH:0.453931
G1 X105.891 Y110.672 E.25487
;WIDTH:0.499979
G1 X105.915 Y110.53 E.00536
;WIDTH:0.549264
G1 X105.938 Y110.388 E.00594
;WIDTH:0.598549
G1 X105.962 Y110.246 E.00651
