; HEADER_BLOCK_START
; generated by OrcaSlicer 2.0.0 on 2024-05-07 at 19:17:54
; total layer number: 34
; filament_density: 1.24,1.24
; filament_diameter: 1.75,1.75
; max_z_height: 6.80
; HEADER_BLOCK_END

; THUMBNAIL_BLOCK_START

;
; THUMBNAIL_BLOCK_END

; THUMBNAIL_BLOCK_START

;
; THUMBNAIL_BLOCK_END

; external perimeters extrusion width = 0.45mm
; perimeters extrusion width = 0.45mm
; infill extrusion width = 0.45mm
; solid infill extrusion width = 0.45mm
; top infill extrusion width = 0.40mm

; EXECUTABLE_BLOCK_START
M73 P0 R56
M73 C33
M201 X5000 Y5000 Z500 E5000
M203 X500 Y500 Z30 E100
M204 P5000 R2500 T5000 ; sets acceleration (P, T) and retract acceleration (R), mm/sec^2
M205 X10.00 Y10.00 Z0.40 E5.00 ; sets the jerk limits, mm/sec
;TYPE:Custom
M220 S100 ;Reset Feedrate 
M221 S100 ;Reset Flowrate 
 
M140 S55 ;Set final bed temp 
G28 ;Home 
M420 S1; Enable mesh leveling 
G92 E0 ;Reset Extruder 
G1 Z2.0 F3000 ;Move Z Axis up 
M104 S220 ;Set final nozzle temp 
G1 X-2.1 Y20 Z0.28 F5000.0 ;Move to start position 
M190 S55 ;Wait for bed temp to stabilize 
M109 S220 ;Wait for nozzle temp to stabilize 
G1 X-2.1 Y145.0 Z0.28 F1500.0 E15 ;Draw the first line 
G1 X-2.4 Y145.0 Z0.28 F5000.0 ;Move to side a little 
G1 X-2.4 Y20 Z0.28 F1500.0 E30 ;Draw the second line 
G92 E0  ;Reset Extruder 
G1 E-1.0000 F1800 ;Retract a bit 
G1 Z2.0 F3000 ;Move Z Axis up 
G1 E0.0000 F1800
G90
G21
M83 ; use relative distances for extrusion
; filament start gcode
; MANUAL_TOOL_CHANGE T0
M106 S0
;LAYER_CHANGE
;Z:0.2
;HEIGHT:0.2
;BEFORE_LAYER_CHANGE
;0.2
G92 E0

G1 E-1.2 F1800
;_SET_FAN_SPEED_CHANGING_LAYER
M204 P300
M204 T300
G1 Z.4 F7200
G1 X72.974 Y91.138
G1 Z.4
G1 Z.2
G1 E1.2 F1800
;TYPE:Skirt
;WIDTH:0.45
G1 F3000
G1 X77.475 Y87.592 E.1901
G1 X78.576 Y86.821 E.04455
G1 X79.755 Y86.122 E.0455
G1 X84.79 Y83.468 E.18881
G1 X87.352 Y82.374 E.09238
G1 X93.122 Y80.394 E.20235
G1 X95.757 Y79.696 E.09043
G1 X103.478 Y78.252 E.26056
G1 X111.311 Y77.702 E.26049
G1 X113.004 Y77.662 E.05618
G1 X120.871 Y78.114 E.26138
G1 X123.645 Y78.472 E.09277
G1 X131.19 Y79.994 E.25534
G1 X132.536 Y80.385 E.04651
G1 X138.415 Y82.402 E.20616
G1 X140.703 Y83.371 E.08243
G1 X146.904 Y86.691 E.23332
G1 X148.097 Y87.506 E.04793
G1 X152.255 Y90.759 E.17512
G1 X153.546 Y91.925 E.05772
G1 X157.337 Y96.421 E.19507
G1 X157.93 Y97.267 E.03426
M73 P0 R55
G1 X158.518 Y98.298 E.03936
G1 X160.452 Y102.397 E.15038
G1 X160.863 Y103.518 E.03959
G1 X161.126 Y104.611 E.03731
G1 X161.761 Y108.749 E.13886
G1 X161.844 Y109.87 E.0373
G1 X161.794 Y110.991 E.03722
G1 X160.942 Y116.208 E.17536
G1 X160.421 Y117.672 E.05154
G1 X158.485 Y121.769 E.15031
G1 X158.048 Y122.546 E.02959
G1 X157.161 Y123.799 E.0509
G1 X154.059 Y127.524 E.16081
G1 X153.104 Y128.506 E.04543
G1 X147.984 Y132.579 E.21703
G1 X145.969 Y133.857 E.07915
G1 X140.816 Y136.572 E.19321
G1 X139.589 Y137.137 E.04482
G1 X132.625 Y139.586 E.24489
G1 X129.883 Y140.313 E.09409
G1 X122.528 Y141.706 E.24831
G1 X120.814 Y141.89 E.05719
G1 X112.812 Y142.339 E.26586
G1 X104.871 Y141.89 E.26386
G1 X102.04 Y141.528 E.09467
G1 X94.376 Y139.975 E.25937
G1 X87.269 Y137.597 E.2486
G1 X84.856 Y136.566 E.08707
G1 X79.174 Y133.549 E.21341
G1 X77.475 Y132.408 E.06786
G1 X73.37 Y129.194 E.17295
G1 X72.414 Y128.347 E.04237
G1 X60.501 Y115.731 E.57561
G1 X59.601 Y114.64 E.0469
G1 X59.068 Y113.749 E.03444
G1 X58.544 Y112.486 E.04536
G1 X58.292 Y111.479 E.03444
G1 X58.158 Y110.118 E.04536
G1 X58.209 Y109.081 E.03444
G1 X58.474 Y107.749 E.04505
G1 X58.826 Y106.763 E.03474
G1 X59.47 Y105.557 E.04536
G1 X60.501 Y104.269 E.05471
G1 X72.008 Y92.058 E.55659
G1 X72.945 Y91.166 E.04291
; printing object vetera.stl id:0 copy 0
G1 E-.84 F1800
;WIPE_START
G1 F3000
G1 X73.73 Y90.546 E-.36
;WIPE_END
G1 Z.6 F7200
G1 X67.326 Y115.121 Z.6
G1 Z.2
G1 E1.2 F1800
;TYPE:Inner wall
;WIDTH:0.449999
G1 X67.072 Y115.079 E.00854
G1 X66.324 Y115.137 E.02489
G1 X65.786 Y115.106 E.01787
G1 X65.288 Y115.028 E.01671
G1 X64.8 Y114.901 E.01673
G1 X64.328 Y114.728 E.01671
G1 X63.874 Y114.508 E.01673
G1 X63.444 Y114.246 E.01671
G1 X63.041 Y113.942 E.01673
G1 X62.671 Y113.601 E.01671
G1 X62.335 Y113.224 E.01673
G1 X62.039 Y112.817 E.01671
G1 X61.783 Y112.382 E.01673
G1 X61.572 Y111.925 E.01671
G1 X61.406 Y111.449 E.01673
G1 X61.288 Y110.96 E.0167
G1 X61.218 Y110.46 E.01673
G1 X61.205 Y109.811 E.02153
G1 X61.285 Y109.06 E.02504
G1 X61.406 Y108.551 E.01736
G1 X61.572 Y108.075 E.01674
G1 X61.783 Y107.618 E.01671
G1 X62.039 Y107.183 E.01673
G1 X62.335 Y106.776 E.01671
G1 X62.671 Y106.399 E.01673
G1 X63.041 Y106.058 E.01671
G1 X63.444 Y105.754 E.01673
G1 X63.892 Y105.481 E.01742
G1 X64.368 Y105.253 E.01749
G1 X64.841 Y105.084 E.01668
G1 X65.35 Y104.961 E.01736
G1 X65.875 Y104.885 E.01761
G1 X66.431 Y104.868 E.01846
G1 X66.959 Y104.906 E.01754
G1 X67.3 Y104.895 E.01133
G1 X67.47 Y104.812 E.00629
G1 X67.608 Y104.677 E.0064
G1 X68.02 Y103.61 E.03795
G1 X69.907 Y99.614 E.14659
G1 X70.191 Y99.121 E.01888
G1 X70.485 Y98.654 E.01827
G1 X70.867 Y98.136 E.02138
G1 X73.895 Y94.498 E.15702
G1 X74.678 Y93.695 E.03718
G1 X75.257 Y93.188 E.02553
G1 X79.177 Y90.119 E.16513
G1 X79.74 Y89.699 E.02332
G1 X80.236 Y89.367 E.01981
G1 X80.754 Y89.047 E.02018
G1 X81.212 Y88.789 E.01743
G1 X86.194 Y86.164 E.1868
G1 X87.209 Y85.692 E.03714
G1 X87.814 Y85.443 E.02171
G1 X88.346 Y85.246 E.0188
G1 X94.034 Y83.293 E.19948
G1 X95.174 Y82.958 E.03943
G1 X96.351 Y82.677 E.04015
G1 X102.525 Y81.473 E.20864
G1 X103.121 Y81.371 E.02006
G1 X103.829 Y81.271 E.02372
G1 X105.075 Y81.142 E.04156
G1 X111.494 Y80.736 E.21336
G1 X112.471 Y80.703 E.03242
G1 X113.573 Y80.71 E.03658
G1 X114.188 Y80.735 E.02041
G1 X120.611 Y81.142 E.21348
G1 X121.61 Y81.24 E.0333
G1 X122.451 Y81.353 E.02815
G1 X123.072 Y81.457 E.0209
G1 X129.246 Y82.659 E.20864
G1 X130.396 Y82.927 E.03917
G1 X131.565 Y83.265 E.04036
G1 X137.415 Y85.272 E.20516
G1 X138.484 Y85.695 E.03814
G1 X139.073 Y85.959 E.0214
G1 X139.557 Y86.198 E.01793
G1 X144.539 Y88.825 E.18682
G1 X145.276 Y89.257 E.02834
G1 X145.868 Y89.645 E.0235
G1 X146.286 Y89.946 E.01708
G1 X150.246 Y93.045 E.16678
G1 X150.738 Y93.45 E.02113
G1 X151.232 Y93.919 E.02262
G1 X151.737 Y94.437 E.024
G1 X154.854 Y98.181 E.16158
G1 X155.212 Y98.682 E.02043
G1 X155.498 Y99.116 E.01725
G1 X155.801 Y99.66 E.02066
G1 X157.541 Y103.347 E.13522
G1 X157.796 Y103.954 E.02186
G1 X157.984 Y104.516 E.01966
G1 X158.125 Y105.092 E.01967
G1 X158.707 Y108.885 E.12727
G1 X158.776 Y109.52 E.02121
G1 X158.768 Y110.7 E.03913
G1 X158.126 Y114.899 E.14092
G1 X157.938 Y115.652 E.02576
G1 X157.662 Y116.398 E.02637
G1 X155.749 Y120.444 E.14845
G1 X155.313 Y121.183 E.02846
G1 X154.812 Y121.87 E.02821
G1 X151.784 Y125.508 E.15701
G1 X151.407 Y125.916 E.01841
G1 X151.013 Y126.3 E.01827
G1 X150.428 Y126.812 E.02579
G1 X146.505 Y129.883 E.16526
G1 X145.945 Y130.301 E.02319
G1 X145.453 Y130.63 E.01964
G1 X144.538 Y131.176 E.03533
G1 X139.415 Y133.875 E.19207
G1 X138.377 Y134.35 E.03788
G1 X137.334 Y134.756 E.03711
G1 X131.648 Y136.708 E.19943
G1 X130.963 Y136.918 E.02377
G1 X130.284 Y137.102 E.02332
G1 X129.247 Y137.341 E.03532
G1 X123.075 Y138.543 E.20858
G1 X122.095 Y138.698 E.03292
G1 X121.25 Y138.8 E.02821
G1 X120.614 Y138.858 E.02119
G1 X114.101 Y139.27 E.21649
G1 X112.842 Y139.3 E.04175
G1 X111.584 Y139.27 E.04175
G1 X105.075 Y138.858 E.21635
G1 X103.832 Y138.73 E.04144
G1 X102.609 Y138.543 E.04106
G1 X96.258 Y137.304 E.21464
G1 X95.175 Y137.043 E.03696
G1 X94.034 Y136.707 E.03946
G1 X88.27 Y134.728 E.20214
G1 X87.205 Y134.306 E.038
G1 X86.194 Y133.837 E.03699
G1 X81.146 Y131.176 E.18928
G1 X80.323 Y130.689 E.03171
G1 X79.595 Y130.198 E.02913
G1 X75.258 Y126.813 E.18249
G1 X74.751 Y126.362 E.02251
G1 X74.294 Y125.929 E.02089
G1 X73.902 Y125.511 E.01901
G1 X70.831 Y121.819 E.1593
G1 X70.474 Y121.319 E.02039
M73 C32
G1 X70.163 Y120.846 E.01879
G1 X69.911 Y120.395 E.01712
G1 X68.024 Y116.401 E.14654
G1 X67.693 Y115.481 E.03242
G1 X67.592 Y115.301 E.00685
G1 X67.364 Y115.13 E.00944
G1 X67.2 Y115.501 F7200
;TYPE:Outer wall
G1 F1800
G1 X66.249 Y115.541 E.03157
G1 X65.726 Y115.509 E.01736
G1 X65.189 Y115.423 E.01803
G1 X64.663 Y115.285 E.01805
G1 X64.153 Y115.096 E.01803
G1 X63.664 Y114.857 E.01805
G1 X63.201 Y114.573 E.01803
G1 X62.768 Y114.244 E.01805
G1 X62.369 Y113.874 E.01803
G1 X62.008 Y113.467 E.01805
G1 X61.69 Y113.026 E.01803
G1 X61.415 Y112.556 E.01805
G1 X61.188 Y112.062 E.01803
G1 X61.011 Y111.548 E.01805
G1 X60.885 Y111.019 E.01803
G1 X60.811 Y110.48 E.01805
G1 X60.791 Y109.937 E.01803
G1 X60.824 Y109.394 E.01805
G1 X60.905 Y108.882 E.01719
G1 X61.049 Y108.328 E.01898
G1 X61.237 Y107.821 E.01793
G1 X61.475 Y107.332 E.01805
G1 X61.76 Y106.869 E.01803
G1 X62.089 Y106.435 E.01805
G1 X62.458 Y106.037 E.01803
G1 X62.866 Y105.676 E.01805
G1 X63.306 Y105.357 E.01803
G1 X63.754 Y105.095 E.01721
G1 X64.273 Y104.855 E.01896
G1 X64.784 Y104.679 E.01796
G1 X65.288 Y104.558 E.01719
G1 X65.855 Y104.479 E.01898
G1 X66.451 Y104.461 E.01978
G1 X67.102 Y104.515 E.02166
G1 X67.266 Y104.453 E.00582
G1 X67.646 Y103.447 E.03569
G1 X69.546 Y99.425 E.14754
G1 X69.839 Y98.917 E.01945
G1 X70.148 Y98.425 E.01927
G1 X70.549 Y97.882 E.02242
G1 X73.593 Y94.225 E.15781
G1 X74.397 Y93.399 E.03825
G1 X74.997 Y92.874 E.02643
G1 X79.095 Y89.666 E.17264
G1 X79.506 Y89.365 E.01691
G1 X80.016 Y89.024 E.02034
G1 X80.547 Y88.696 E.0207
G1 X81.017 Y88.432 E.01789
G1 X86.013 Y85.799 E.18733
G1 X87.046 Y85.319 E.03778
G1 X87.666 Y85.064 E.02225
G1 X88.209 Y84.862 E.01921
G1 X93.91 Y82.905 E.19994
G1 X95.069 Y82.564 E.04009
G1 X96.265 Y82.279 E.04078
G1 X102.451 Y81.073 E.20907
G1 X103.058 Y80.968 E.02041
G1 X103.779 Y80.867 E.02418
G1 X105.041 Y80.736 E.04208
G1 X111.474 Y80.329 E.21382
G1 X112.465 Y80.296 E.03289
G1 X113.583 Y80.302 E.0371
G1 X114.21 Y80.329 E.02079
G1 X120.644 Y80.736 E.21385
G1 X121.657 Y80.836 E.03377
G1 X122.511 Y80.951 E.0286
G1 X123.144 Y81.056 E.02129
G1 X129.331 Y82.261 E.20908
G1 X130.499 Y82.533 E.03977
G1 X131.687 Y82.877 E.04104
G1 X137.556 Y84.89 E.2058
G1 X138.642 Y85.32 E.03875
G1 X139.246 Y85.59 E.02195
G1 X139.742 Y85.835 E.01836
G1 X144.737 Y88.469 E.18731
G1 X145.49 Y88.911 E.02898
G1 X146.099 Y89.31 E.02412
G1 X146.531 Y89.621 E.01765
G1 X150.496 Y92.724 E.16706
G1 X151.009 Y93.146 E.02199
G1 X151.7 Y93.801 E.03161
G1 X152.043 Y94.168 E.01664
G1 X155.177 Y97.932 E.16247
G1 X155.543 Y98.446 E.02094
G1 X155.846 Y98.904 E.01822
G1 X156.165 Y99.478 E.0218
G1 X157.909 Y103.173 E.13552
G1 X158.177 Y103.809 E.02288
G1 X158.374 Y104.401 E.02073
G1 X158.525 Y105.018 E.02105
G1 X159.109 Y108.823 E.1277
G1 X159.182 Y109.492 E.02233
G1 X159.174 Y110.74 E.0414
G1 X158.525 Y114.979 E.14226
G1 X158.327 Y115.773 E.02713
G1 X158.037 Y116.556 E.0277
G1 X156.109 Y120.635 E.14966
G1 X155.653 Y121.406 E.02973
G1 X155.134 Y122.12 E.0293
G1 X152.09 Y125.777 E.15781
G1 X151.699 Y126.2 E.01911
G1 X151.289 Y126.599 E.01898
G1 X150.687 Y127.126 E.02653
G1 X146.59 Y130.334 E.17263
G1 X146.178 Y130.635 E.01691
G1 X145.67 Y130.975 E.02028
G1 X144.737 Y131.531 E.03603
G1 X139.595 Y134.241 E.1928
G1 X138.535 Y134.725 E.03865
G1 X137.474 Y135.138 E.03777
G1 X131.774 Y137.095 E.19992
G1 X131.076 Y137.309 E.02422
G1 X130.383 Y137.497 E.0238
G1 X129.331 Y137.739 E.03581
G1 X123.145 Y138.944 E.20905
G1 X122.151 Y139.101 E.0334
G1 X121.293 Y139.205 E.02866
G1 X120.645 Y139.263 E.02158
G1 X114.118 Y139.676 E.21693
G1 X112.842 Y139.707 E.04234
G1 X111.566 Y139.676 E.04234
G1 X105.041 Y139.264 E.21689
G1 X103.781 Y139.133 E.04204
G1 X102.539 Y138.944 E.04167
G1 X96.171 Y137.702 E.21521
G1 X95.069 Y137.436 E.03759
M73 P1 R55
G1 X93.91 Y137.095 E.0401
G1 X88.129 Y135.11 E.20275
G1 X87.044 Y134.681 E.0387
G1 X86.013 Y134.201 E.03773
G1 X80.947 Y131.531 E.18995
G1 X80.106 Y131.033 E.03244
G1 X79.356 Y130.528 E.03
G1 X74.998 Y127.126 E.18339
G1 X74.481 Y126.667 E.02293
G1 X74.006 Y126.216 E.02171
G1 X73.595 Y125.778 E.01993
G1 X70.508 Y122.068 E.16009
G1 X70.143 Y121.555 E.02089
G1 X69.816 Y121.057 E.01977
G1 X69.547 Y120.578 E.01822
G1 X67.648 Y116.557 E.14753
G1 X67.31 Y115.619 E.03307
G1 X67.227 Y115.53 E.00404
G1 E-.84
;WIPE_START
G1 X66.249 Y115.541 E-.35224
G1 X66.227 Y115.539 E-.00776
;WIPE_END
G1 Z.6 F7200
G1 X66.852 Y113.301 Z.6
G1 Z.2
G1 E1.2 F1800
;TYPE:Inner wall
G1 X66.764 Y113.349 E.00334
G1 X66.273 Y113.379 E.01632
G1 X65.732 Y113.326 E.01802
G1 X65.095 Y113.145 E.02198
G1 X64.505 Y112.843 E.02198
G1 X63.985 Y112.432 E.02198
G1 X63.556 Y111.927 E.02198
G1 X63.233 Y111.348 E.02198
G1 X63.03 Y110.718 E.02198
G1 X62.953 Y110.06 E.02198
G1 X63.006 Y109.399 E.02198
G1 X63.188 Y108.762 E.02198
G1 X63.489 Y108.172 E.02198
G1 X63.901 Y107.653 E.02198
G1 X64.405 Y107.224 E.02198
G1 X64.984 Y106.901 E.02198
G1 X65.614 Y106.697 E.02198
G1 X66.261 Y106.621 E.02159
G1 X66.768 Y106.652 E.01686
G1 X66.979 Y106.754 E.00775
G1 X67.169 Y106.992 E.01014
G1 X67.225 Y107.275 E.00956
G1 X66.968 Y108.965 E.0567
G1 X66.899 Y109.642 E.02256
G1 X66.899 Y110.358 E.02376
G1 X66.968 Y111.035 E.02256
G1 X67.216 Y112.669 E.05485
G1 X67.187 Y112.963 E.00979
G1 X67.028 Y113.205 E.00959
G1 X66.887 Y113.282 E.00534
G1 X66.663 Y112.955 F7200
;TYPE:Outer wall
G1 F1800
G1 X66.312 Y112.974 E.01163
G1 X65.772 Y112.921 E.01802
G1 X65.213 Y112.755 E.01934
G1 X64.697 Y112.484 E.01934
G1 X64.244 Y112.117 E.01934
G1 X63.871 Y111.669 E.01934
G1 X63.592 Y111.157 E.01934
G1 X63.419 Y110.6 E.01934
G1 X63.358 Y110.02 E.01934
G1 X63.412 Y109.439 E.01934
G1 X63.577 Y108.88 E.01934
G1 X63.848 Y108.364 E.01934
G1 X64.215 Y107.911 E.01934
G1 X64.664 Y107.538 E.01934
G1 X65.176 Y107.26 E.01934
G1 X65.733 Y107.087 E.01934
G1 X66.301 Y107.027 E.01897
G1 X66.664 Y107.045 E.01206
G1 X66.798 Y107.159 E.00582
G1 X66.813 Y107.273 E.00381
G1 X66.511 Y109.261 E.06669
G1 X66.492 Y110.379 E.03712
G1 X66.565 Y111.096 E.0239
G1 X66.814 Y112.729 E.0548
G1 X66.789 Y112.859 E.00437
G1 X66.694 Y112.931 E.00394
G1 E-.84
;WIPE_START
G1 X66.312 Y112.974 E-.1384
G1 X65.772 Y112.921 E-.19559
G1 X65.702 Y112.9 E-.02601
;WIPE_END
G1 Z.6 F7200
G1 X149.503 Y92.671
G1 Z.6
G1 Z.2
G1 E1.2 F1800
;TYPE:Bottom surface
;WIDTH:0.451218
G1 F3600
G1 X151.177 Y94.344 E.07874
G1 X151.478 Y94.666 E.01466
G1 X154.244 Y97.989 E.14385
G1 X147.917 Y91.662 E.29769
G1 X146.078 Y90.223 E.0777
G1 X145.487 Y89.81 E.024
G1 X155.49 Y99.812 E.47064
G1 X156.006 Y100.906 E.04025
G1 X144.067 Y88.967 E.56176
G1 X142.846 Y88.323 E.04595
G1 X156.523 Y102 E.64353
G1 X157.039 Y103.094 E.04024
G1 X141.624 Y87.679 E.7253
G1 X140.403 Y87.035 E.04595
G1 X157.49 Y104.122 E.80402
G1 X157.564 Y104.314 E.00681
G1 X157.739 Y104.948 E.02191
G1 X139.196 Y86.405 E.87249
G1 X138.925 Y86.272 E.01004
G1 X138.147 Y85.934 E.02822
G1 X157.86 Y105.646 E.92751
G1 X157.964 Y106.329 E.02296
G1 X137.2 Y85.564 E.977
G1 X136.321 Y85.263 E.03092
G1 X158.069 Y107.011 E1.02329
G1 X158.174 Y107.693 E.02296
G1 X135.442 Y84.961 E1.06958
G1 X134.563 Y84.66 E.03092
G1 X158.278 Y108.375 E1.11587
G1 X158.383 Y109.057 E.02296
G1 X133.684 Y84.358 E1.16215
G1 X132.805 Y84.056 E.03092
G1 X158.441 Y109.692 E1.20625
G1 X158.458 Y109.929 E.00789
G1 X158.442 Y110.27 E.01137
G1 X131.926 Y83.755 E1.24764
G1 X131.461 Y83.595 E.01636
G1 X131.078 Y83.485 E.01324
G1 X158.401 Y110.808 E1.28562
G1 X158.325 Y111.309 E.01686
G1 X130.269 Y83.253 E1.32008
G1 X129.516 Y83.078 E.02572
G1 X158.248 Y111.809 E1.35191
G1 X158.172 Y112.31 E.01686
G1 X128.783 Y82.922 E1.38281
G1 X128.066 Y82.782 E.02431
G1 X158.095 Y112.811 E1.41295
G1 X158.019 Y113.312 E.01686
G1 X127.349 Y82.642 E1.44309
G1 X126.632 Y82.502 E.02431
G1 X157.942 Y113.813 E1.47323
G1 X157.865 Y114.314 E.01686
G1 X125.915 Y82.363 E1.50336
G1 X125.197 Y82.223 E.02431
G1 X157.789 Y114.814 E1.5335
G1 X157.675 Y115.278 E.01587
G1 X124.48 Y82.083 E1.56187
G1 X123.763 Y81.944 E.02431
G1 X157.542 Y115.723 E1.5894
G1 X157.386 Y116.144 E.01495
G1 X123.046 Y81.804 E1.6158
G1 X122.354 Y81.689 E.02334
G1 X157.209 Y116.545 E1.64003
G1 X157.024 Y116.937 E.01443
G1 X121.687 Y81.6 E1.66269
G1 X121.042 Y81.532 E.02158
G1 X156.839 Y117.329 E1.68432
G1 X156.653 Y117.721 E.01443
G1 X120.409 Y81.476 E1.70541
G1 X119.792 Y81.437 E.02055
G1 X156.468 Y118.113 E1.7257
