; HEADER_BLOCK_START
; generated by OrcaSlicer 2.0.0 on 2024-05-16 at 19:59:18
; total layer number: 11
; filament_density: 1.24
; filament_diameter: 1.75
; max_z_height: 2.20
; HEADER_BLOCK_END

; THUMBNAIL_BLOCK_START

;
; THUMBNAIL_BLOCK_END

; THUMBNAIL_BLOCK_START

;
; THUMBNAIL_BLOCK_END

; external perimeters extrusion width = 0.45mm
; perimeters extrusion width = 0.45mm
; infill extrusion width = 0.45mm
; solid infill extrusion width = 0.45mm
; top infill extrusion width = 0.40mm

; external perimeters extrusion width = 0.45mm
; perimeters extrusion width = 0.45mm
; infill extrusion width = 0.45mm
; solid infill extrusion width = 0.45mm
; top infill extrusion width = 0.40mm

; external perimeters extrusion width = 0.45mm
; perimeters extrusion width = 0.45mm
; infill extrusion width = 0.45mm
; solid infill extrusion width = 0.45mm
; top infill extrusion width = 0.40mm

; EXECUTABLE_BLOCK_START
M73 P0 R95
M73 C62
M201 X5000 Y5000 Z500 E5000
M203 X500 Y500 Z30 E100
M204 P5000 R2500 T5000 ; sets acceleration (P, T) and retract acceleration (R), mm/sec^2
M205 X10.00 Y10.00 Z0.40 E5.00 ; sets the jerk limits, mm/sec
;TYPE:Custom
M220 S100 ;Reset Feedrate 
M221 S100 ;Reset Flowrate 
 
M140 S55 ;Set final bed temp 
G28 ;Home 
M420 S1; Enable mesh leveling 
G92 E0 ;Reset Extruder 
G1 Z2.0 F3000 ;Move Z Axis up 
M104 S220 ;Set final nozzle temp 
G1 X-2.1 Y20 Z0.28 F5000.0 ;Move to start position 
M190 S55 ;Wait for bed temp to stabilize 
M109 S220 ;Wait for nozzle temp to stabilize 
G1 X-2.1 Y145.0 Z0.28 F1500.0 E15 ;Draw the first line 
G1 X-2.4 Y145.0 Z0.28 F5000.0 ;Move to side a little 
G1 X-2.4 Y20 Z0.28 F1500.0 E30 ;Draw the second line 
G92 E0  ;Reset Extruder 
G1 E-1.0000 F1800 ;Retract a bit 
G1 Z2.0 F3000 ;Move Z Axis up 
G1 E0.0000 F1800
G90
G21
M83 ; use relative distances for extrusion
; filament start gcode
M106 S0
;LAYER_CHANGE
;Z:0.2
;HEIGHT:0.2
;BEFORE_LAYER_CHANGE
;0.2
G92 E0

G1 E-1.2 F1800
;_SET_FAN_SPEED_CHANGING_LAYER
M204 P300
M204 T300
G1 Z.4 F7200
G1 X55.14 Y48.961
G1 Z.4
G1 Z.2
G1 E1.2 F1800
;TYPE:Skirt
;WIDTH:0.45
G1 F3000
G1 X63.505 Y40.773 E.38831
G1 X64.267 Y40.136 E.03294
G1 X65.351 Y39.504 E.04162
G1 X67 Y39.004 E.05717
G1 X68.016 Y38.915 E.03384
G1 X152.219 Y38.927 E2.79317
G1 X153 Y39.004 E.02601
G1 X154.213 Y39.323 E.04162
G1 X155.341 Y39.874 E.04162
G1 X156.339 Y40.633 E.04162
G1 X164.797 Y48.895 E.39222
G1 X165.464 Y49.652 E.03345
G1 X167.891 Y52.78 E.13132
G1 X168.588 Y53.904 E.04387
G1 X170.412 Y57.36 E.12963
G1 X171.191 Y59.184 E.0658
G1 X172.854 Y64.23 E.17626
G1 X173.994 Y70.212 E.20197
G1 X174.382 Y76.384 E.20514
G1 X174.353 Y148.629 E2.39652
G1 X173.963 Y154.052 E.18035
G1 X172.748 Y160.201 E.20791
G1 X170.803 Y165.83 E.19756
G1 X168.651 Y170.007 E.15588
G1 X168.078 Y170.966 E.03704
G1 X165.465 Y174.373 E.14246
G1 X164.789 Y175.138 E.03383
G1 X161.711 Y177.772 E.13439
G1 X160.989 Y178.298 E.02966
G1 X160.106 Y178.803 E.03374
G1 X157.448 Y180.058 E.09748
G1 X156.662 Y180.358 E.02793
G1 X155.704 Y180.595 E.03273
G1 X152.5 Y181.067 E.10741
G1 X67.876 Y181.083 E2.80714
G1 X64.337 Y180.602 E.11849
G1 X63.338 Y180.358 E.0341
G1 X62.552 Y180.058 E.02793
G1 X59.894 Y178.803 E.09748
G1 X59.011 Y178.298 E.03374
G1 X55.762 Y175.666 E.13871
G1 X54.567 Y174.413 E.05744
G1 X51.824 Y170.814 E.1501
G1 X49.38 Y166.239 E.17207
G1 X48.85 Y164.959 E.04596
G1 X47.519 Y161.084 E.1359
G1 X47.004 Y159.18 E.06544
G1 X46.014 Y153.875 E.17902
G1 X45.647 Y148.629 E.17442
G1 X45.618 Y76.544 E2.3912
G1 X45.915 Y71.156 E.179
M73 P0 R94
G1 X46.105 Y69.502 E.05525
G1 X46.992 Y64.904 E.15531
G1 X47.519 Y62.941 E.06744
G1 X48.85 Y59.066 E.13589
G1 X49.345 Y57.862 E.04318
G1 X51.349 Y54.018 E.14381
G1 X51.965 Y52.994 E.03964
G1 X55.115 Y48.992 E.16893
; printing object vetera_3_join.stl id:0 copy 0
G1 E-.84 F1800
;WIPE_START
G1 F3000
G1 X55.829 Y48.293 E-.36
;WIPE_END
G1 Z.6 F7200
G1 X155.376 Y117.366 Z.6
G1 Z.2
G1 E1.2 F1800
;TYPE:Inner wall
;WIDTH:0.491528
G1 X155.39 Y117.397 E.00127
;WIDTH:0.449999
G1 X155.516 Y117.535 E.0062
G1 X155.681 Y117.629 E.0063
G1 X156.211 Y117.831 E.01884
G1 X158.818 Y119.063 E.09562
G1 X159.3 Y119.354 E.01869
G1 X159.745 Y119.659 E.01789
G1 X162.199 Y121.701 E.1059
G1 X162.634 Y122.118 E.01998
G1 X163.082 Y122.627 E.02251
G1 X165.27 Y125.426 E.11784
G1 X165.624 Y125.949 E.02095
G1 X165.944 Y126.488 E.0208
G1 X167.715 Y129.848 E.12598
G1 X168.112 Y130.723 E.03186
G1 X168.32 Y131.268 E.01938
G1 X169.62 Y135.055 E.13281
G1 X169.902 Y136.039 E.03396
G1 X170.039 Y136.643 E.02052
G1 X170.829 Y140.697 E.13702
G1 X170.974 Y141.648 E.03191
G1 X171.049 Y142.385 E.02458
G1 X171.299 Y146.333 E.13123
G1 X171.328 Y146.864 E.01763
G1 X171.342 Y147.801 E.0311
G1 X171.32 Y148.447 E.02143
G1 X171.053 Y152.665 E.1402
G1 X170.953 Y153.63 E.0322
G1 X170.841 Y154.355 E.02433
G1 X170.04 Y158.467 E.13896
G1 X169.822 Y159.381 E.03118
G1 X169.621 Y160.054 E.02331
G1 X168.321 Y163.841 E.13282
G1 X168.025 Y164.597 E.02693
G1 X167.716 Y165.262 E.02431
G1 X165.97 Y168.575 E.12423
G1 X165.55 Y169.279 E.0272
G1 X165.207 Y169.771 E.0199
G1 X163.083 Y172.486 E.11433
G1 X162.634 Y172.995 E.02252
G1 X162.199 Y173.412 E.01998
G1 X159.784 Y175.421 E.10422
G1 X159.291 Y175.776 E.02014
G1 X158.786 Y176.065 E.01931
G1 X156.077 Y177.344 E.09937
G1 X155.214 Y177.596 E.02983
G1 X152.742 Y177.975 E.08294
G1 X152.18 Y178.03 E.01873
G1 X151.5 Y178.017 E.02257
G1 X148.791 Y177.602 E.09091
G1 X148.269 Y177.474 E.01782
G1 X147.791 Y177.298 E.01689
G1 X145.181 Y176.065 E.09575
G1 X144.676 Y175.776 E.01931
G1 X144.183 Y175.422 E.02014
G1 X141.768 Y173.412 E.10422
G1 X141.332 Y172.994 E.02002
G1 X140.915 Y172.524 E.02085
G1 X138.792 Y169.812 E.11425
G1 X138.341 Y169.161 E.02628
G1 X138.023 Y168.624 E.02069
G1 X136.276 Y165.31 E.12428
G1 X135.942 Y164.596 E.02615
G1 X135.665 Y163.896 E.02498
G1 X134.365 Y160.11 E.13276
G1 X134.104 Y159.225 E.03061
G1 X133.939 Y158.527 E.02379
G1 X133.138 Y154.416 E.13896
G1 X132.993 Y153.465 E.03191
G1 X132.918 Y152.728 E.02457
G1 X132.647 Y148.446 E.14232
G1 X132.625 Y147.312 E.03762
G1 X132.647 Y146.666 E.02144
G1 X132.914 Y142.447 E.14023
G1 X133.003 Y141.565 E.02941
G1 X133.138 Y140.698 E.02911
G1 X133.939 Y136.585 E.13898
G1 X134.104 Y135.887 E.02379
G1 X134.365 Y135.002 E.03061
G1 X135.665 Y131.216 E.13278
G1 X135.912 Y130.585 E.02249
G1 X136.251 Y129.85 E.02684
G1 X138.027 Y126.501 E.12575
G1 X138.339 Y125.961 E.02068
G1 X138.728 Y125.384 E.0231
G1 X140.915 Y122.588 E.11774
G1 X141.332 Y122.118 E.02085
G1 X141.768 Y121.701 E.02002
G1 X143.997 Y119.846 E.09619
G1 X144.573 Y119.414 E.02387
G1 X145.141 Y119.066 E.0221
G1 X147.756 Y117.831 E.09591
G1 X148.335 Y117.609 E.02058
G1 X148.577 Y117.397 E.01067
;WIDTH:0.491641
G1 X148.623 Y117.297 E.00404
;WIDTH:0.533283
G1 X148.669 Y117.196 E.00442
;WIDTH:0.574925
G1 X148.714 Y117.095 E.00479
;WIDTH:0.616566
G1 X148.76 Y116.994 E.00517
G1 X148.74 Y116.832 E.00764
;WIDTH:0.609569
G1 X148.711 Y116.287 E.02522
G1 X148.798 Y115.651 E.02964
G1 X149.007 Y115.044 E.02965
G1 X149.331 Y114.489 E.02964
G1 X149.757 Y114.009 E.02964
G1 X150.268 Y113.62 E.02964
G1 X150.853 Y113.337 E.03004
G1 X151.484 Y113.174 E.03009
G1 X152.107 Y113.137 E.02878
G1 X152.739 Y113.227 E.0295
G1 X153.35 Y113.434 E.02975
G1 X153.904 Y113.757 E.02964
G1 X154.385 Y114.183 E.02964
G1 X154.773 Y114.694 E.02964
G1 X155.054 Y115.271 E.02965
G1 X155.217 Y115.892 E.02964
;WIDTH:0.611914
G1 X155.264 Y116.438 E.02539
;WIDTH:0.616113
G1 X155.208 Y116.991 E.02596
G1 X155.253 Y117.092 E.0052
;WIDTH:0.574585
G1 X155.299 Y117.194 E.00482
;WIDTH:0.533056
G1 X155.344 Y117.296 E.00445
;WIDTH:0.491528
G1 X155.359 Y117.329 E.00134
G1 X155.729 Y117.172 F7200
;TYPE:Outer wall
;WIDTH:0.449999
G1 F1800
G1 X155.826 Y117.249 E.00412
G1 X156.371 Y117.457 E.01936
G1 X159.01 Y118.703 E.09683
G1 X159.511 Y119.005 E.01938
G1 X159.997 Y119.339 E.01956
G1 X162.47 Y121.397 E.10674
G1 X162.928 Y121.836 E.02103
G1 X163.396 Y122.367 E.02348
G1 X165.599 Y125.186 E.1187
G1 X165.968 Y125.731 E.02182
G1 X166.299 Y126.29 E.02154
G1 X168.08 Y129.669 E.12671
G1 X168.488 Y130.566 E.03267
G1 X168.703 Y131.129 E.02002
G1 X170.009 Y134.933 E.13339
G1 X170.296 Y135.938 E.03469
G1 X170.437 Y136.558 E.0211
G1 X171.23 Y140.627 E.1375
G1 X171.378 Y141.597 E.03253
G1 X171.454 Y142.352 E.02518
G1 X171.705 Y146.307 E.13148
G1 X171.734 Y146.848 E.01795
G1 X171.749 Y147.807 E.03183
G1 X171.726 Y148.466 E.02188
G1 X171.459 Y152.698 E.14066
G1 X171.357 Y153.682 E.03281
G1 X171.242 Y154.425 E.02493
G1 X170.438 Y158.553 E.1395
G1 X170.215 Y159.486 E.03183
G1 X170.009 Y160.178 E.02396
G1 X168.703 Y163.982 E.1334
G1 X168.399 Y164.758 E.02764
G1 X168.081 Y165.443 E.02506
G1 X166.325 Y168.774 E.12492
G1 X165.892 Y169.5 E.02804
G1 X165.534 Y170.013 E.02075
G1 X163.396 Y172.746 E.1151
G1 X162.928 Y173.277 E.02348
G1 X162.47 Y173.715 E.02102
G1 X160.034 Y175.743 E.10516
G1 X159.512 Y176.119 E.02132
G1 X158.974 Y176.427 E.02055
G1 X156.334 Y177.673 E.09686
G1 X155.817 Y177.864 E.01827
G1 X155.294 Y177.995 E.01788
G1 X152.804 Y178.377 E.08357
G1 X152.204 Y178.436 E.02001
G1 X151.456 Y178.422 E.02481
G1 X148.712 Y178.001 E.0921
G1 X148.15 Y177.864 E.01919
G1 X147.633 Y177.673 E.01826
G1 X144.993 Y176.427 E.09686
G1 X144.455 Y176.119 E.02055
G1 X143.934 Y175.743 E.02132
G1 X141.497 Y173.715 E.10516
G1 X141.039 Y173.276 E.02104
G1 X140.602 Y172.785 E.02181
G1 X138.464 Y170.054 E.11507
G1 X137.998 Y169.38 E.02716
G1 X137.668 Y168.823 E.0215
G1 X135.911 Y165.491 E.12494
G1 X135.568 Y164.757 E.02688
G1 X135.283 Y164.037 E.02571
G1 X133.977 Y160.234 E.13337
G1 X133.71 Y159.329 E.03128
G1 X133.541 Y158.613 E.02442
G1 X132.737 Y154.485 E.1395
G1 X132.589 Y153.516 E.03254
G1 X132.513 Y152.761 E.02517
G1 X132.241 Y148.466 E.14275
G1 X132.218 Y147.306 E.0385
G1 X132.241 Y146.646 E.02188
G1 X132.508 Y142.414 E.14068
G1 X132.599 Y141.513 E.03003
G1 X132.737 Y140.627 E.02973
G1 X133.541 Y136.5 E.13951
G1 X133.71 Y135.783 E.02442
G1 X133.977 Y134.878 E.03128
G1 X135.283 Y131.076 E.13337
G1 X135.538 Y130.425 E.02317
G1 X135.886 Y129.67 E.0276
G1 X137.82 Y126.022 E.13696
G1 X138.113 Y125.555 E.01828
G1 X138.4 Y125.142 E.01669
G1 X140.602 Y122.328 E.11853
G1 X141.039 Y121.836 E.02181
G1 X141.497 Y121.397 E.02104
G1 X143.737 Y119.533 E.09667
G1 X144.34 Y119.081 E.025
G1 X144.954 Y118.705 E.0239
G1 X147.596 Y117.457 E.09692
G1 X148.196 Y117.217 E.02144
G1 X148.272 Y117.04 E.0064
G1 X148.21 Y116.41 E.021
G1 X148.282 Y115.674 E.02454
G1 X148.497 Y114.966 E.02454
G1 X148.846 Y114.313 E.02454
G1 X149.315 Y113.741 E.02454
G1 X149.887 Y113.272 E.02454
G1 X150.539 Y112.923 E.02454
G1 X151.247 Y112.708 E.02454
G1 X151.984 Y112.636 E.02454
G1 X152.684 Y112.705 E.02335
G1 X153.429 Y112.924 E.02575
G1 X154.08 Y113.272 E.02451
G1 X154.652 Y113.741 E.02454
G1 X155.121 Y114.313 E.02454
G1 X155.47 Y114.966 E.02454
G1 X155.685 Y115.674 E.02454
G1 X155.757 Y116.41 E.02454
G1 X155.695 Y117.039 E.02096
G1 X155.719 Y117.133 E.00321
G1 X154.474 Y117.062 F7200
;TYPE:Inner wall
;WIDTH:0.533056
G1 F1800
G1 X154.41 Y117.126 E.00359
;WIDTH:0.491528
G1 X154.332 Y117.205 E.00407
;WIDTH:0.449999
G1 X153.996 Y117.33 E.01188
G1 X152.685 Y117.129 E.04401
G1 X151.984 Y117.068 E.02335
G1 X151.282 Y117.129 E.02335
G1 X150.084 Y117.313 E.04022
G1 X149.802 Y117.289 E.00938
G1 X149.635 Y117.205 E.0062
;WIDTH:0.491528
G1 X149.557 Y117.126 E.00407
;WIDTH:0.533057
G1 X149.478 Y117.047 E.00445
;WIDTH:0.574586
G1 X149.4 Y116.967 E.00482
;WIDTH:0.616115
G1 X149.321 Y116.888 E.0052
G1 X149.275 Y116.342 E.02561
;WIDTH:0.609569
G1 X149.34 Y115.815 E.02452
G1 X149.507 Y115.311 E.02453
G1 X149.769 Y114.849 E.02453
G1 X150.116 Y114.447 E.02453
G1 X150.535 Y114.12 E.02453
G1 X151.01 Y113.881 E.02453
;WIDTH:0.611399
G1 X151.413 Y113.762 E.01948
G1 X151.916 Y113.701 E.02347
;WIDTH:0.609566
G1 X152.446 Y113.74 E.02453
G1 X152.957 Y113.882 E.02453
G1 X153.432 Y114.12 E.02452
G1 X153.851 Y114.447 E.02453
G1 X154.198 Y114.849 E.02453
G1 X154.46 Y115.311 E.02452
G1 X154.627 Y115.815 E.02453
G1 X154.692 Y116.342 E.02452
;WIDTH:0.616113
G1 X154.646 Y116.888 E.02561
G1 X154.567 Y116.968 E.0052
;WIDTH:0.574585
G1 X154.502 Y117.033 E.00402
G1 X154.172 Y116.763 F7200
;TYPE:Outer wall
;WIDTH:0.449999
G1 F1800
G1 X154.02 Y116.922 E.00728
G1 X152.746 Y116.727 E.04275
G1 X151.984 Y116.66 E.0254
G1 X151.455 Y116.691 E.01755
G1 X150.022 Y116.91 E.0481
G1 X149.873 Y116.874 E.0051
G1 X149.789 Y116.729 E.00556
G1 X149.759 Y116.39 E.01128
G1 X149.806 Y115.956 E.01446
G1 X149.936 Y115.54 E.01446
G1 X150.145 Y115.158 E.01446
G1 X150.425 Y114.823 E.01446
G1 X150.764 Y114.549 E.01446
G1 X151.153 Y114.347 E.01453
G1 X151.55 Y114.23 E.01375
G1 X152.003 Y114.186 E.0151
G1 X152.437 Y114.232 E.01446
G1 X152.853 Y114.363 E.01446
G1 X153.236 Y114.572 E.01446
G1 X153.57 Y114.851 E.01446
G1 X153.844 Y115.191 E.01446
G1 X154.046 Y115.577 E.01446
G1 X154.169 Y115.996 E.01446
G1 X154.208 Y116.43 E.01446
G1 X154.176 Y116.723 E.00978
G1 E-.84
;WIPE_START
G1 X154.02 Y116.922 E-.09091
G1 X153.282 Y116.809 E-.26909
;WIPE_END
G1 Z.6 F7200
G1 X160.643 Y120.618
G1 Z.6
G1 Z.2
G1 E1.2 F1800
;TYPE:Bottom surface
;WIDTH:0.452211
G1 F3600
G1 X162.395 Y122.37 E.08262
G1 X162.816 Y122.848 E.02126
G1 X164.683 Y125.237 E.10114
G1 X159.057 Y119.611 E.26536
G1 X158.654 Y119.368 E.01571
G1 X157.86 Y118.993 E.02928
G1 X165.772 Y126.904 E.37315
G1 X166.417 Y128.129 E.04616
G1 X156.763 Y118.475 E.45534
G1 X156.075 Y118.15 E.02537
G1 X155.724 Y118.014 E.01258
G1 X167.062 Y129.353 E.53482
G1 X167.404 Y130 E.02442
G1 X167.631 Y130.5 E.0183
G1 X154.579 Y117.448 E.61562
G1 X154.53 Y117.489 E.00213
G1 X154.276 Y117.618 E.00951
G1 X154.188 Y117.636 E.00298
G1 X168.025 Y131.473 E.65261
G1 X168.327 Y132.354 E.03108
G1 X153.591 Y117.618 E.69506
G1 X152.908 Y117.513 E.02306
G1 X168.63 Y133.235 E.74157
G1 X168.932 Y134.117 E.03108
G1 X152.245 Y117.43 E.78708
G1 X151.984 Y117.415 E.00874
G1 X151.669 Y117.433 E.01049
G1 X169.235 Y134.998 E.82851
G1 X169.48 Y135.822 E.02866
G1 X151.154 Y117.496 E.86437
G1 X150.649 Y117.57 E.01702
G1 X169.673 Y136.594 E.8973
G1 X169.818 Y137.318 E.02462
G1 X150.144 Y117.644 E.92795
G1 X149.987 Y117.667 E.0053
G1 X149.694 Y117.62 E.00992
G1 X149.437 Y117.489 E.00962
G1 X149.259 Y117.338 E.00777
G1 X169.958 Y138.037 E.9763
G1 X170.098 Y138.756 E.02443
G1 X148.889 Y117.547 E1.00037
G1 X148.863 Y117.594 E.0018
G1 X148.673 Y117.802 E.00941
G1 X148.609 Y117.846 E.00256
G1 X170.238 Y139.475 E1.02018
G1 X170.379 Y140.194 E.02443
G1 X148.208 Y118.023 E1.04571
G1 X147.799 Y118.193 E.01477
G1 X170.511 Y140.905 E1.07123
G1 X170.615 Y141.588 E.02305
G1 X147.406 Y118.379 E1.09469
G1 X147.013 Y118.565 E.0145
G1 X170.686 Y142.237 E1.11657
G1 X170.732 Y142.862 E.0209
G1 X146.62 Y118.75 E1.13729
G1 X146.227 Y118.936 E.0145
G1 X170.771 Y143.48 E1.15768
G1 X170.81 Y144.098 E.02065
G1 X145.834 Y119.122 E1.17807
G1 X145.441 Y119.308 E.0145
M73 C61
G1 X170.85 Y144.716 E1.19845
G1 X170.889 Y145.334 E.02065
G1 X145.063 Y119.508 E1.21814
G1 X144.714 Y119.738 E.01394
G1 X170.928 Y145.952 E1.23644
G1 X170.967 Y146.57 E.02065
G1 X144.377 Y119.98 E1.25417
G1 X144.061 Y120.243 E.01371
G1 X170.983 Y147.166 E1.26985
G1 X170.995 Y147.756 E.01969
G1 X143.745 Y120.506 E1.28528
G1 X143.429 Y120.769 E.01371
G1 X170.978 Y148.318 E1.29939
G1 X170.947 Y148.865 E.01829
G1 X143.113 Y121.032 E1.31281
G1 X142.797 Y121.295 E.01371
G1 X170.912 Y149.41 E1.32609
G1 X170.878 Y149.954 E.01819
M73 P1 R94
G1 X142.481 Y121.558 E1.33937
G1 X142.165 Y121.82 E.01371
G1 X170.843 Y150.498 E1.35265
G1 X170.809 Y151.043 E.01819
G1 X141.859 Y122.093 E1.36547
G1 X141.565 Y122.378 E.01365
G1 X170.774 Y151.587 E1.37771
G1 X170.74 Y152.131 E.01819
G1 X141.293 Y122.684 E1.38893
G1 X141.031 Y123.002 E.01371
G1 X170.704 Y152.674 E1.39958
G1 X170.65 Y153.199 E.01759
G1 X140.777 Y123.326 E1.409
G1 X140.523 Y123.651 E.01375
G1 X170.589 Y153.717 E1.41814
G1 X170.512 Y154.219 E.01691
G1 X140.269 Y123.976 E1.42646
G1 X140.015 Y124.301 E.01375
G1 X170.42 Y154.706 E1.43411
G1 X170.325 Y155.19 E.01646
G1 X139.761 Y124.625 E1.44164
G1 X139.507 Y124.95 E.01375
G1 X170.231 Y155.674 E1.44917
G1 X170.137 Y156.159 E.01646
