; HEADER_BLOCK_START
; generated by OrcaSlicer 2.2.0 on 2025-03-06 at 19:50:13
; total layer number: 35
; filament_density: 1.24
; filament_diameter: 1.75
; max_z_height: 7.00
; HEADER_BLOCK_END

; external perimeters extrusion width = 0.42mm
; perimeters extrusion width = 0.45mm
; infill extrusion width = 0.45mm
; solid infill extrusion width = 0.42mm
; top infill extrusion width = 0.42mm
; first layer extrusion width = 0.46mm

; EXECUTABLE_BLOCK_START
M201 X2500 Y2500 Z500 E5000
M203 X250 Y250 Z5 E40
M204 P2500 R500 T2500 ; sets acceleration (P, T) and retract acceleration (R), mm/sec^2
M205 X10.00 Y10.00 Z0.40 E5.00 ; sets the jerk limits, mm/sec
;TYPE:Custom
M220 S100 ;Reset Feedrate 
M221 S100 ;Reset Flowrate 
 
M104 S220 ;Set final nozzle temp 
M190 S55 ;Set and wait for bed temp to stabilize 
G28 ;Home 
G92 E0 ;Reset Extruder 
G1 Z2.0 F3000 ;Move Z Axis up 
G1 X-2.1 Y20 Z0.28 F5000.0 ;Move to start position 
M109 S220 ;Wait for nozzle temp to stabilize 
G1 X-2.1 Y145.0 Z0.28 F1500.0 E15 ;Draw the first line 
G1 X-2.4 Y145.0 Z0.28 F5000.0 ;Move to side a little 
G1 X-2.4 Y20 Z0.28 F1500.0 E30 ;Draw the second line 
G92 E0  ;Reset Extruder 
G1 E-1.0000 F1800 ;Retract a bit 
M73 P1 R14
G1 Z2.0 F3000 ;Move Z Axis up 
G1 E0.0000 F1800
G90
G21
M83 ; use relative distances for extrusion
; filament start gcode
M106 S0
;LAYER_CHANGE
;Z:0.2
;HEIGHT:0.2
;BEFORE_LAYER_CHANGE
;0.2
G92 E0

G1 E-1.2 F2400
;_SET_FAN_SPEED_CHANGING_LAYER
M204 P500
; printing object wiper_washer_reservoir_cap_suzuki_splash.stl id:2798100372736 copy 0
M204 T500
G1 Z.6 F9000
G1 X107.906 Y114.821
G1 Z.6
G1 Z.2
G1 E1.2 F1800
;TYPE:Inner wall
;WIDTH:0.459999
G1 X107.927 Y114.731 E.00313
G1 X107.926 Y97.041 E.60122
G1 X107.875 Y96.794 E.00859
;WIDTH:0.460777
G1 X107.478 Y96.441 E.01809
G1 X107.344 Y96.418 E.00463
;WIDTH:0.454264
G1 X106.37 Y96.249 E.03311
;WIDTH:0.451433
G1 X105.405 Y96.034 E.03294
G1 X104.459 Y95.771 E.0327
;WIDTH:0.454144
G1 X103.821 Y95.567 E.02242
G1 X102.898 Y95.216 E.0331
;WIDTH:0.45697
G1 X102.304 Y94.967 E.02172
G1 X101.711 Y94.69 E.02207
G1 X101.115 Y94.383 E.02263
;WIDTH:0.451507
G1 X100.529 Y94.057 E.02233
;WIDTH:0.456967
G1 X99.984 Y93.733 E.02139
G1 X99.427 Y93.371 E.0224
G1 X98.88 Y92.984 E.02262
;WIDTH:0.451504
G1 X98.345 Y92.58 E.02233
;WIDTH:0.457001
G1 X97.843 Y92.177 E.02172
G1 X97.349 Y91.747 E.02207
G1 X96.628 Y91.062 E.03359
G1 X96.155 Y90.573 E.02293
;WIDTH:0.454263
G1 X95.505 Y89.837 E.03292
G1 X94.886 Y89.057 E.03337
G1 X94.317 Y88.25 E.03311
;WIDTH:0.451455
G1 X93.79 Y87.421 E.0327
;WIDTH:0.453994
G1 X93.453 Y86.843 E.02241
G1 X93.002 Y85.965 E.03309
;WIDTH:0.457
G1 X92.727 Y85.382 E.02172
G1 X92.472 Y84.78 E.02207
G1 X92.123 Y83.848 E.03358
G1 X91.913 Y83.202 E.02292
;WIDTH:0.454519
G1 X91.654 Y82.267 E.03254
G1 X91.503 Y81.604 E.0228
;WIDTH:0.454119
G1 X91.325 Y80.638 E.03291
;WIDTH:0.456807
G1 X91.201 Y79.691 E.03221
G1 X91.139 Y78.992 E.02368
;WIDTH:0.454105
G1 X91.097 Y78.01 E.03292
;WIDTH:0.456876
G1 X91.108 Y77.035 E.0329
G1 X91.168 Y76.047 E.03338
G1 X91.281 Y75.064 E.03338
G1 X91.444 Y74.086 E.03345
;WIDTH:0.457004
G1 X91.581 Y73.446 E.02208
G1 X91.83 Y72.482 E.03358
G1 X92.029 Y71.832 E.02293
;WIDTH:0.454091
G1 X92.36 Y70.9 E.03316
;WIDTH:0.45427
G1 X92.739 Y69.988 E.0331
G1 X93.156 Y69.124 E.03216
;WIDTH:0.454097
G1 X93.479 Y68.511 E.0232
G1 X93.982 Y67.659 E.03316
G1 X94.529 Y66.834 E.03316
G1 X95.119 Y66.04 E.03315
;WIDTH:0.45425
G1 X95.735 Y65.294 E.03241
G1 X96.42 Y64.553 E.03383
;WIDTH:0.456942
G1 X96.873 Y64.096 E.02172
G1 X97.352 Y63.65 E.02207
G1 X98.107 Y63.005 E.03352
G1 X98.893 Y62.403 E.03339
G1 X99.441 Y62.023 E.0225
;WIDTH:0.451509
G1 X100.004 Y61.659 E.02233
;WIDTH:0.45694
G1 X100.535 Y61.336 E.02096
G1 X101.127 Y61.008 E.02284
G1 X102.016 Y60.565 E.03351
G1 X102.925 Y60.169 E.03345
G1 X103.536 Y59.935 E.02207
G1 X104.478 Y59.62 E.03352
G1 X105.432 Y59.356 E.03339
G1 X106.398 Y59.142 E.03339
G1 X107.056 Y59.029 E.0225
;WIDTH:0.451504
G1 X107.72 Y58.937 E.02233
G1 X108.705 Y58.843 E.03294
G1 X109.693 Y58.801 E.03294
;WIDTH:0.457016
G1 X110.315 Y58.799 E.02097
G1 X110.993 Y58.822 E.02291
G1 X111.675 Y58.869 E.02305
;WIDTH:0.454264
G1 X112.656 Y58.982 E.03311
G1 X113.631 Y59.153 E.03317
;WIDTH:0.45411
G1 X114.593 Y59.361 E.03298
;WIDTH:0.456999
G1 X115.534 Y59.624 E.03298
G1 X116.179 Y59.833 E.02287
;WIDTH:0.454262
G1 X117.102 Y60.184 E.03311
;WIDTH:0.452952
G1 X118.002 Y60.574 E.03276
G1 X118.602 Y60.87 E.02235
;WIDTH:0.451433
G1 X119.471 Y61.346 E.03299
;WIDTH:0.454098
G1 X120.319 Y61.86 E.03322
;WIDTH:0.454254
G1 X121.127 Y62.416 E.03287
G1 X121.662 Y62.821 E.02249
;WIDTH:0.456808
G1 X122.656 Y63.658 E.04384
G1 X123.357 Y64.322 E.03256
G1 X123.844 Y64.825 E.02361
;WIDTH:0.454268
G1 X124.494 Y65.569 E.03311
;WIDTH:0.451432
G1 X125.109 Y66.344 E.03294
;WIDTH:0.457001
G1 X125.49 Y66.863 E.02172
G1 X126.215 Y67.98 E.04494
G1 X126.695 Y68.831 E.03298
G1 X127.004 Y69.437 E.02293
;WIDTH:0.454097
G1 X127.412 Y70.336 E.0331
;WIDTH:0.456934
G1 X127.875 Y71.547 E.04373
G1 X128.175 Y72.496 E.03358
G1 X128.343 Y73.128 E.02207
G1 X128.558 Y74.098 E.03352
G1 X128.721 Y75.074 E.03339
G1 X128.799 Y75.737 E.0225
;WIDTH:0.451503
G1 X128.857 Y76.405 E.02233
;WIDTH:0.456931
G1 X128.899 Y77.386 E.03313
;WIDTH:0.454088
G1 X128.902 Y78.057 E.02248
G1 X128.857 Y79.046 E.03316
G1 X128.761 Y80.031 E.03316
G1 X128.613 Y81.009 E.03316
G1 X128.414 Y81.979 E.03316
G1 X128.165 Y82.937 E.03315
;WIDTH:0.454444
G1 X127.874 Y83.86 E.03248
;WIDTH:0.456877
G1 X127.526 Y84.787 E.03339
G1 X127.131 Y85.694 E.03338
G1 X126.689 Y86.58 E.03339
G1 X126.201 Y87.441 E.03338
G1 X125.857 Y87.987 E.02177
;WIDTH:0.451526
G1 X125.469 Y88.56 E.02305
G1 X124.88 Y89.355 E.03294
G1 X124.258 Y90.108 E.03251
G1 X123.585 Y90.841 E.03315
;WIDTH:0.454099
G1 X123.113 Y91.318 E.02248
G1 X122.382 Y91.986 E.03316
G1 X121.618 Y92.614 E.03316
G1 X120.821 Y93.202 E.03316
G1 X119.995 Y93.747 E.03316
G1 X119.142 Y94.248 E.03316
G1 X118.263 Y94.704 E.03316
G1 X117.362 Y95.113 E.03316
G1 X116.44 Y95.474 E.03316
G1 X115.508 Y95.785 E.03292
;WIDTH:0.456907
G1 X114.568 Y96.044 E.03291
G1 X113.602 Y96.258 E.03339
G1 X112.596 Y96.427 E.03442
;WIDTH:0.461239
G1 X112.381 Y96.502 E.00776
G1 X112.079 Y96.956 E.01858
;WIDTH:0.459999
G1 X112.073 Y114.845 E.60801
G1 X112.201 Y115.11 E.01
M73 P2 R14
G1 X112.355 Y115.254 E.00717
G1 X112.596 Y115.348 E.00878
G1 X113.524 Y115.503 E.03198
G1 X114.485 Y115.712 E.03342
G1 X115.111 Y115.877 E.02201
G1 X116.052 Y116.17 E.03349
G1 X116.669 Y116.392 E.02229
G1 X117.574 Y116.762 E.03321
G1 X118.162 Y117.033 E.02201
G1 X119.036 Y117.483 E.0334
G1 X119.882 Y117.976 E.03331
G1 X120.685 Y118.501 E.03258
G1 X121.231 Y118.892 E.02284
G1 X122.005 Y119.501 E.03348
G1 X122.496 Y119.923 E.02201
G1 X123.215 Y120.597 E.03349
G1 X123.668 Y121.06 E.02201
G1 X124.326 Y121.794 E.03349
G1 X124.736 Y122.295 E.02201
G1 X125.326 Y123.081 E.0334
G1 X125.874 Y123.896 E.03339
G1 X126.219 Y124.462 E.02251
G1 X126.687 Y125.309 E.03291
G1 X127.117 Y126.193 E.03339
G1 X127.38 Y126.801 E.02255
G1 X127.726 Y127.705 E.03287
G1 X128.024 Y128.622 E.03279
G1 X128.202 Y129.264 E.02262
G1 X128.424 Y130.223 E.03348
G1 X128.545 Y130.878 E.02262
G1 X128.679 Y131.833 E.03279
G1 X128.765 Y132.809 E.03331
G1 X128.8 Y133.776 E.03287
G1 X128.767 Y135.094 E.04482
G1 X128.715 Y135.763 E.02279
G1 X128.598 Y136.721 E.03281
G1 X128.364 Y138.001 E.04421
G1 X128.128 Y138.954 E.03339
G1 X127.843 Y139.895 E.03339
G1 X127.39 Y141.114 E.04421
G1 X126.992 Y142.016 E.03349
G1 X126.384 Y143.192 E.04501
G1 X125.891 Y144.018 E.03268
G1 X125.534 Y144.561 E.02211
G1 X125.158 Y145.092 E.02211
G1 X124.554 Y145.871 E.03349
G1 X124.136 Y146.366 E.02201
G1 X123.477 Y147.079 E.03302
G1 X122.525 Y147.991 E.04478
G1 X121.522 Y148.826 E.04439
G1 X120.462 Y149.591 E.0444
G1 X119.35 Y150.281 E.04449
G1 X118.492 Y150.744 E.03312
G1 X117.902 Y151.03 E.02229
G1 X117.307 Y151.293 E.02211
G1 X116.392 Y151.651 E.03339
G1 X115.46 Y151.961 E.03339
G1 X114.808 Y152.146 E.02302
G1 X114.424 Y152.353 E.01485
G1 X113.973 Y152.635 E.01807
G1 X113.405 Y153.146 E.02597
G1 X113.07 Y153.524 E.01718
G1 X112.763 Y153.965 E.01823
G1 X112.495 Y154.474 E.01957
G1 X112.286 Y155.027 E.02008
G1 X112.164 Y155.515 E.0171
G1 X112.073 Y156.422 E.031
G1 X112.073 Y161.203 E.16247
G1 X107.926 Y161.203 E.14094
G1 X107.917 Y156.095 E.17361
G1 X107.833 Y155.489 E.02079
G1 X107.685 Y154.933 E.01955
G1 X107.46 Y154.38 E.02028
G1 X107.175 Y153.876 E.01967
G1 X106.861 Y153.434 E.01842
G1 X106.47 Y153.011 E.01959
G1 X106.022 Y152.632 E.01996
G1 X105.553 Y152.325 E.01905
G1 X105.192 Y152.146 E.0137
G1 X104.54 Y151.961 E.02302
G1 X103.608 Y151.651 E.03339
G1 X102.693 Y151.293 E.0334
G1 X102.098 Y151.03 E.02211
G1 X101.508 Y150.744 E.02229
G1 X100.648 Y150.28 E.03321
G1 X99.808 Y149.769 E.0334
G1 X99.273 Y149.41 E.02191
G1 X98.218 Y148.621 E.04478
G1 X97.722 Y148.208 E.02192
G1 X97.012 Y147.563 E.03259
G1 X96.087 Y146.615 E.04501
G1 X95.238 Y145.612 E.04469
G1 X94.651 Y144.827 E.0333
G1 X94.288 Y144.295 E.02191
G1 X93.6 Y143.162 E.04505
G1 X93.148 Y142.305 E.03294
G1 X92.869 Y141.717 E.0221
G1 X92.607 Y141.109 E.02251
G1 X92.262 Y140.201 E.033
G1 X91.967 Y139.287 E.03266
G1 X91.789 Y138.641 E.02276
G1 X91.573 Y137.701 E.03277
G1 X91.453 Y137.046 E.02263
G1 X91.283 Y135.74 E.04477
G1 X91.233 Y135.097 E.02192
G1 X91.2 Y134.112 E.03349
G1 X91.206 Y133.465 E.02201
G1 X91.258 Y132.483 E.0334
G1 X91.359 Y131.524 E.03279
G1 X91.457 Y130.866 E.02263
G1 X91.642 Y129.915 E.0329
G1 X91.797 Y129.266 E.02269
G1 X91.976 Y128.622 E.02271
G1 X92.274 Y127.705 E.03279
G1 X92.62 Y126.801 E.03287
G1 X92.883 Y126.193 E.02255
G1 X93.313 Y125.309 E.03339
G1 X93.787 Y124.452 E.0333
G1 X94.306 Y123.617 E.0334
G1 X94.674 Y123.081 E.02209
G1 X95.073 Y122.54 E.02283
G1 X95.676 Y121.792 E.03267
G1 X96.332 Y121.06 E.0334
G1 X96.785 Y120.597 E.02202
G1 X97.495 Y119.931 E.0331
G1 X97.995 Y119.501 E.02241
G1 X98.769 Y118.892 E.03347
G1 X99.315 Y118.501 E.02284
G1 X100.118 Y117.976 E.03258
G1 X100.964 Y117.483 E.03331
G1 X101.838 Y117.033 E.0334
G1 X102.426 Y116.762 E.02201
G1 X103.331 Y116.392 E.03321
G1 X103.948 Y116.17 E.02229
G1 X105.259 Y115.78 E.04649
G1 X105.766 Y115.657 E.01773
G1 X106.683 Y115.468 E.03183
G1 X107.42 Y115.346 E.02538
G1 X107.688 Y115.223 E.01004
G1 X107.859 Y115.015 E.00915
G1 X107.896 Y114.86 E.00542
G1 X107.51 Y114.731 F9000
;TYPE:Outer wall
G1 F1800
G1 X107.509 Y97.513 E.58519
G1 X107.496 Y96.969 E.0185
G1 X107.333 Y96.835 E.00716
G1 X106.646 Y96.727 E.02365
G1 X105.654 Y96.525 E.03441
G1 X104.675 Y96.272 E.03438
G1 X103.718 Y95.97 E.03408
G1 X103.077 Y95.737 E.02318
G1 X102.141 Y95.349 E.03444
G1 X101.532 Y95.065 E.02285
G1 X100.634 Y94.598 E.03441
G1 X99.769 Y94.089 E.03408
G1 X99.197 Y93.717 E.02318
G1 X98.373 Y93.13 E.03441
G1 X97.581 Y92.499 E.03441
G1 X97.073 Y92.058 E.02285
G1 X96.338 Y91.361 E.03445
G1 X95.871 Y90.877 E.02285
G1 X95.2 Y90.119 E.03441
G1 X94.57 Y89.326 E.03441
G1 X94.175 Y88.782 E.02285
G1 X93.616 Y87.938 E.03441
G1 X93.113 Y87.085 E.03364
G1 X92.786 Y86.472 E.02362
G1 X92.35 Y85.557 E.03444
G1 X92.087 Y84.938 E.02285
G1 X91.732 Y83.989 E.03444
G1 X91.525 Y83.35 E.02285
G1 X91.254 Y82.373 E.03444
G1 X91.102 Y81.718 E.02285
G1 X90.918 Y80.722 E.03441
G1 X90.788 Y79.741 E.03364
G1 X90.727 Y79.049 E.02362
G1 X90.683 Y78.037 E.03441
G1 X90.692 Y77.026 E.03438
G1 X90.754 Y76.016 E.03438
G1 X90.868 Y75.011 E.03438
G1 X91.035 Y74.013 E.03441
G1 X91.175 Y73.355 E.02285
G1 X91.429 Y72.374 E.03444
G1 X91.625 Y71.731 E.02285
G1 X91.963 Y70.776 E.03441
G1 X92.351 Y69.841 E.03441
G1 X92.635 Y69.232 E.02285
G1 X93.102 Y68.334 E.03441
G1 X93.616 Y67.462 E.03437
G1 X94.174 Y66.619 E.03438
G1 X94.776 Y65.805 E.03437
G1 X95.405 Y65.041 E.03364
G1 X95.87 Y64.525 E.02362
G1 X96.58 Y63.802 E.03444
G1 X97.072 Y63.343 E.02285
G1 X97.842 Y62.686 E.03441
G1 X98.644 Y62.07 E.03438
G1 X99.478 Y61.497 E.03438
G1 X100.321 Y60.979 E.03364
G1 X100.929 Y60.642 E.02362
G1 X101.835 Y60.19 E.03441
G1 X102.764 Y59.786 E.03441
G1 X103.391 Y59.546 E.02285
G1 X104.351 Y59.224 E.03441
G1 X105.326 Y58.954 E.03438
G1 X106.314 Y58.735 E.03438
G1 X107.311 Y58.568 E.03438
G1 X108.316 Y58.454 E.03438
G1 X109.326 Y58.392 E.03438
G1 X110.316 Y58.383 E.03364
G1 X111.011 Y58.407 E.02366
G1 X111.683 Y58.453 E.02288
G1 X112.69 Y58.568 E.03445
G1 X113.353 Y58.673 E.02282
G1 X114.675 Y58.954 E.04594
G1 X115.65 Y59.225 E.03438
G1 X116.923 Y59.663 E.04576
G1 X117.859 Y60.051 E.03445
G1 X118.468 Y60.335 E.02285
G1 X119.366 Y60.802 E.03438
G1 X120.523 Y61.498 E.0459
G1 X121.357 Y62.07 E.03438
G1 X121.893 Y62.474 E.02281
G1 X122.928 Y63.343 E.04594
G1 X123.646 Y64.024 E.03361
G1 X124.13 Y64.524 E.02366
G1 X124.58 Y65.024 E.02288
G1 X125.224 Y65.805 E.03441
G1 X125.827 Y66.619 E.03441
G1 X126.203 Y67.178 E.02289
G1 X126.56 Y67.749 E.02288
G1 X127.059 Y68.631 E.03444
G1 X127.364 Y69.23 E.02285
G1 X127.775 Y70.131 E.03367
G1 X128.037 Y70.776 E.02366
G1 X128.267 Y71.409 E.02288
G1 X128.572 Y72.376 E.03445
G1 X128.746 Y73.025 E.02285
G1 X128.965 Y74.014 E.03441
G1 X129.132 Y75.011 E.03437
G1 X129.209 Y75.69 E.02322
G1 X129.308 Y77.042 E.04607
G1 X129.317 Y78.037 E.03382
G1 X129.273 Y79.048 E.03437
G1 X129.176 Y80.054 E.03438
G1 X129.026 Y81.055 E.03438
G1 X128.825 Y82.046 E.03438
G1 X128.571 Y83.025 E.03438
G1 X128.267 Y83.99 E.03438
G1 X127.913 Y84.937 E.03437
G1 X127.51 Y85.865 E.03438
G1 X127.058 Y86.77 E.03438
G1 X126.56 Y87.65 E.03437
G1 X125.805 Y88.8 E.04675
G1 X125.203 Y89.612 E.03435
G1 X124.568 Y90.381 E.03392
G1 X123.88 Y91.131 E.03458
G1 X123.393 Y91.623 E.02354
G1 X122.646 Y92.305 E.03437
G1 X121.864 Y92.947 E.03437
M73 P3 R14
G1 X121.05 Y93.547 E.03438
G1 X120.205 Y94.103 E.03437
G1 X119.333 Y94.615 E.03438
G1 X118.435 Y95.08 E.03437
G1 X117.514 Y95.498 E.03438
G1 X116.572 Y95.867 E.03437
G1 X115.619 Y96.184 E.03413
G1 X114.658 Y96.45 E.03389
G1 X113.67 Y96.668 E.03437
G1 X112.601 Y96.857 E.03692
G1 X112.49 Y97.042 E.00731
G1 X112.49 Y114.731 E.60121
G1 X112.533 Y114.858 E.00454
G1 X112.664 Y114.937 E.00523
G1 X113.603 Y115.093 E.03234
G1 X114.583 Y115.306 E.03408
G1 X115.227 Y115.476 E.02263
G1 X116.185 Y115.774 E.03411
G1 X116.819 Y116.003 E.02291
G1 X117.74 Y116.38 E.03382
G1 X118.345 Y116.658 E.02263
G1 X119.236 Y117.117 E.03407
G1 X120.102 Y117.621 E.03404
G1 X120.92 Y118.157 E.03325
G1 X121.481 Y118.559 E.02345
G1 X122.27 Y119.179 E.0341
G1 X122.775 Y119.613 E.02263
G1 X123.507 Y120.299 E.03411
G1 X123.972 Y120.775 E.02263
G1 X124.642 Y121.523 E.03411
G1 X125.065 Y122.037 E.02263
G1 X125.666 Y122.839 E.03407
G1 X126.225 Y123.671 E.03407
G1 X126.58 Y124.252 E.02312
G1 X127.057 Y125.117 E.03358
G1 X127.496 Y126.018 E.03407
G1 X127.767 Y126.644 E.02316
G1 X128.119 Y127.566 E.03354
G1 X128.423 Y128.502 E.03346
G1 X128.606 Y129.161 E.02324
G1 X128.832 Y130.139 E.0341
G1 X128.956 Y130.811 E.02323
G1 X129.093 Y131.786 E.03347
G1 X129.181 Y132.784 E.03404
G1 X129.217 Y133.77 E.03354
G1 X129.184 Y135.119 E.04587
G1 X129.13 Y135.804 E.02335
G1 X129.011 Y136.78 E.03342
G1 X128.902 Y137.438 E.02266
G1 X128.771 Y138.092 E.02266
G1 X128.53 Y139.065 E.03407
G1 X128.239 Y140.024 E.03407
G1 X127.776 Y141.275 E.04532
G1 X127.37 Y142.192 E.0341
G1 X127.074 Y142.79 E.02266
G1 X126.746 Y143.398 E.02348
G1 X126.244 Y144.239 E.03329
G1 X125.493 Y145.341 E.04531
G1 X124.878 Y146.134 E.03411
G1 X124.448 Y146.642 E.02263
G1 X123.774 Y147.371 E.03375
G1 X122.803 Y148.302 E.0457
G1 X121.777 Y149.156 E.04538
G1 X120.694 Y149.937 E.04538
G1 X119.559 Y150.642 E.04542
G1 X118.617 Y151.147 E.03632
G1 X118.023 Y151.432 E.02239
G1 X117.398 Y151.705 E.0232
G1 X116.444 Y152.073 E.03473
G1 X114.871 Y152.569 E.05607
G1 X114.24 Y152.956 E.02515
G1 X113.833 Y153.298 E.01808
G1 X113.433 Y153.733 E.02009
G1 X113.13 Y154.163 E.01785
G1 X112.889 Y154.611 E.01732
G1 X112.703 Y155.086 E.01733
G1 X112.579 Y155.558 E.01658
G1 X112.49 Y156.422 E.02953
G1 X112.49 Y161.62 E.17665
G1 X107.51 Y161.62 E.16927
G1 X107.5 Y156.138 E.18631
G1 X107.434 Y155.617 E.01784
G1 X107.305 Y155.11 E.01779
G1 X107.117 Y154.625 E.01769
G1 X106.893 Y154.201 E.01629
G1 X106.553 Y153.715 E.02017
