; HEADER_BLOCK_START
; generated by OrcaSlicer 2.2.0 on 2025-02-24 at 19:53:04
; total layer number: 68
; filament_density: 1.24
; filament_diameter: 1.75
; max_z_height: 10.00
; HEADER_BLOCK_END

; external perimeters extrusion width = 0.42mm
; perimeters extrusion width = 0.45mm
; infill extrusion width = 0.45mm
; solid infill extrusion width = 0.42mm
; top infill extrusion width = 0.42mm
; support material extrusion width = 0.38mm
; first layer extrusion width = 0.46mm

; external perimeters extrusion width = 0.42mm
; perimeters extrusion width = 0.45mm
; infill extrusion width = 0.45mm
; solid infill extrusion width = 0.42mm
; top infill extrusion width = 0.42mm
; support material extrusion width = 0.38mm
; first layer extrusion width = 0.46mm

; external perimeters extrusion width = 0.42mm
; perimeters extrusion width = 0.45mm
; infill extrusion width = 0.45mm
; solid infill extrusion width = 0.42mm
; top infill extrusion width = 0.42mm
; support material extrusion width = 0.38mm
; first layer extrusion width = 0.46mm

; EXECUTABLE_BLOCK_START
M201 X2500 Y2500 Z500 E5000
M203 X250 Y250 Z5 E40
M204 P2500 R500 T2500 ; sets acceleration (P, T) and retract acceleration (R), mm/sec^2
M205 X10.00 Y10.00 Z0.40 E5.00 ; sets the jerk limits, mm/sec
;TYPE:Custom
M220 S100 ;Reset Feedrate 
M221 S100 ;Reset Flowrate 
 
M104 S220 ;Set final nozzle temp 
M190 S55 ;Set and wait for bed temp to stabilize 
G28 ;Home 
G92 E0 ;Reset Extruder 
G1 Z2.0 F3000 ;Move Z Axis up 
G1 X-2.1 Y20 Z0.28 F5000.0 ;Move to start position 
M109 S220 ;Wait for nozzle temp to stabilize 
G1 X-2.1 Y145.0 Z0.28 F1500.0 E15 ;Draw the first line 
G1 X-2.4 Y145.0 Z0.28 F5000.0 ;Move to side a little 
G1 X-2.4 Y20 Z0.28 F1500.0 E30 ;Draw the second line 
G92 E0  ;Reset Extruder 
G1 E-1.0000 F1800 ;Retract a bit 
G1 Z2.0 F3000 ;Move Z Axis up 
G1 E0.0000 F1800
G90
G21
M83 ; use relative distances for extrusion
; filament start gcode
M106 S0
;LAYER_CHANGE
;Z:0.2
;HEIGHT:0.2
;BEFORE_LAYER_CHANGE
;0.2
G92 E0

G1 E-1.2 F2400
;_SET_FAN_SPEED_CHANGING_LAYER
M204 P500
; printing object Suzuki_Swift_Base.stl id:7814437356007681900 copy 0
M204 T500
G1 Z.6 F9000
G1 X130.755 Y88.334
G1 Z.6
G1 Z.2
G1 E1.2 F1800
;TYPE:Support
;WIDTH:0.46
G1 X130.976 Y88.033 E.0127
G1 X131.284 Y87.661 E.01642
G1 X131.7 Y87.287 E.01901
G1 X132.173 Y86.993 E.01892
G1 X132.687 Y86.791 E.01878
G1 X133.224 Y86.688 E.01861
G1 X133.767 Y86.687 E.01843
G1 X134.121 Y86.745 E.0122
G1 X134.463 Y86.847 E.01214
G1 X134.941 Y87.083 E.01812
G1 X135.362 Y87.408 E.01808
G1 X135.71 Y87.812 E.01811
G1 X135.972 Y88.279 E.0182
G1 X136.14 Y88.792 E.01834
G1 X136.207 Y89.333 E.01851
G1 X136.195 Y89.699 E.01245
G1 X136.138 Y90.063 E.01253
G1 X135.971 Y90.593 E.0189
G1 X135.807 Y90.928 E.01267
G1 X135.605 Y91.242 E.01269
G1 X135.305 Y91.621 E.01643
G1 X135.051 Y91.894 E.0127
G1 X134.614 Y92.243 E.01898
G1 X134.293 Y92.429 E.01261
G1 X133.954 Y92.575 E.01255
G1 X133.422 Y92.712 E.01866
G1 X132.879 Y92.747 E.01849
G1 X132.345 Y92.678 E.01832
G1 X131.838 Y92.507 E.01818
G1 X131.377 Y92.24 E.0181
G1 X130.979 Y91.887 E.01808
G1 X130.659 Y91.461 E.01813
G1 X130.427 Y90.976 E.01824
G1 X130.293 Y90.452 E.0184
G1 X130.259 Y89.907 E.01857
G1 X130.328 Y89.359 E.01875
G1 X130.495 Y88.829 E.0189
G1 X130.736 Y88.37 E.01764
G1 X131.104 Y88.563 F9000
G1 F1800
G1 X131.106 Y88.56 E.00011
G1 X131.59 Y87.945 E.02661
G1 X131.95 Y87.62 E.0165
G1 X132.36 Y87.366 E.01638
G1 X132.803 Y87.192 E.01619
G1 X133.264 Y87.103 E.01596
G1 X133.727 Y87.103 E.01571
G1 X134.174 Y87.19 E.01549
G1 X134.591 Y87.362 E.01532
G1 X134.845 Y87.52 E.01017
G1 X135.075 Y87.711 E.01016
G1 X135.368 Y88.052 E.01527
G1 X135.524 Y88.31 E.01026
G1 X135.646 Y88.588 E.01033
G1 X135.761 Y89.035 E.01567
G1 X135.79 Y89.502 E.01592
G1 X135.731 Y89.974 E.01615
G1 X135.644 Y90.282 E.01089
G1 X135.519 Y90.58 E.01096
G1 X135.268 Y90.996 E.01651
G1 X134.876 Y91.477 E.02111
G1 X134.642 Y91.701 E.01102
G1 X134.384 Y91.895 E.01097
G1 X133.961 Y92.124 E.01632
G1 X133.51 Y92.27 E.01612
G1 X133.047 Y92.329 E.01588
G1 X132.739 Y92.32 E.01046
G1 X132.438 Y92.271 E.01036
G1 X132.01 Y92.127 E.01537
G1 X131.621 Y91.902 E.01525
G1 X131.286 Y91.604 E.01523
G1 X131.016 Y91.244 E.0153
G1 X130.82 Y90.834 E.01546
G1 X130.705 Y90.387 E.01567
G1 X130.676 Y89.92 E.01592
G1 X130.735 Y89.448 E.01615
G1 X130.88 Y88.99 E.01635
G1 X131.086 Y88.599 E.01502
G1 X131.447 Y88.817 F9000
G1 F1800
G1 X131.534 Y88.673 E.00572
G1 X131.895 Y88.229 E.01944
G1 X132.201 Y87.954 E.01399
G1 X132.547 Y87.739 E.01384
G1 X132.92 Y87.592 E.0136
G1 X133.304 Y87.518 E.01331
G1 X133.687 Y87.518 E.013
G1 X134.054 Y87.59 E.01272
G1 X134.284 Y87.676 E.00836
G1 X134.5 Y87.791 E.00829
G1 X134.697 Y87.933 E.00826
G1 X134.873 Y88.101 E.00826
G1 X135.093 Y88.394 E.01247
G1 X135.208 Y88.614 E.00843
G1 X135.293 Y88.85 E.00854
G1 X135.365 Y89.228 E.01305
G1 X135.364 Y89.621 E.01336
G1 X135.29 Y90.015 E.01365
G1 X135.144 Y90.397 E.01387
G1 X134.932 Y90.749 E.014
G1 X134.571 Y91.193 E.01944
G1 X134.372 Y91.383 E.00935
G1 X134.153 Y91.547 E.00929
G1 X133.797 Y91.74 E.01377
G1 X133.546 Y91.83 E.00905
G1 X133.29 Y91.888 E.00892
G1 X132.906 Y91.912 E.0131
G1 X132.655 Y91.888 E.00858
G1 X132.412 Y91.833 E.00846
G1 X132.072 Y91.692 E.0125
G1 X131.769 Y91.489 E.01239
G1 X131.513 Y91.229 E.0124
G1 X131.312 Y90.92 E.01253
G1 X131.173 Y90.572 E.01276
G1 X131.101 Y90.195 E.01305
G1 X131.102 Y89.801 E.01336
G1 X131.176 Y89.407 E.01365
G1 X131.322 Y89.026 E.01387
G1 X131.427 Y88.851 E.00692
G1 X131.772 Y89.074 F9000
G1 F1800
G1 X131.871 Y88.919 E.00624
G1 X132.201 Y88.513 E.01777
G1 X132.452 Y88.287 E.01148
G1 X132.734 Y88.112 E.0113
G1 X133.036 Y87.993 E.01102
G1 X133.344 Y87.934 E.01066
G1 X133.647 Y87.933 E.01029
G1 X133.934 Y87.989 E.00994
G1 X134.113 Y88.056 E.00648
G1 X134.279 Y88.145 E.0064
G1 X134.43 Y88.254 E.00636
G1 X134.566 Y88.383 E.00636
G1 X134.736 Y88.61 E.00964
G1 X134.825 Y88.782 E.00656
G1 X134.893 Y88.967 E.0067
G1 X134.949 Y89.266 E.01035
G1 X134.956 Y89.475 E.00711
G1 X134.935 Y89.689 E.00728
G1 X134.856 Y90.007 E.01117
G1 X134.77 Y90.214 E.00759
G1 X134.659 Y90.41 E.00766
G1 X134.34 Y90.824 E.01777
G1 X134.102 Y91.065 E.01151
G1 X133.829 Y91.258 E.01137
G1 X133.532 Y91.396 E.01112
G1 X133.224 Y91.475 E.01079
G1 X132.919 Y91.495 E.01041
G1 X132.721 Y91.476 E.00674
G1 X132.532 Y91.433 E.0066
G1 X132.269 Y91.324 E.00968
G1 X132.11 Y91.225 E.00637
G1 X131.966 Y91.106 E.00636
G1 X131.782 Y90.892 E.00959
G1 X131.641 Y90.641 E.00979
G1 X131.548 Y90.358 E.01011
G1 X131.51 Y90.052 E.01047
G1 X131.53 Y89.734 E.01084
G1 X131.61 Y89.415 E.01117
G1 X131.749 Y89.109 E.01141
G1 X131.75 Y89.107 E.00008
G1 X132.124 Y89.304 F9000
G1 F1800
G1 X132.158 Y89.239 E.0025
G1 X132.263 Y89.095 E.00603
G1 X132.507 Y88.797 E.01309
G1 X132.703 Y88.621 E.00897
G1 X132.922 Y88.485 E.00876
G1 X133.152 Y88.394 E.00843
G1 X133.384 Y88.349 E.00802
G1 X133.607 Y88.349 E.00757
G1 X133.814 Y88.389 E.00717
G1 X134.058 Y88.499 E.00909
G1 X134.259 Y88.666 E.0089
G1 X134.413 Y88.886 E.00913
G1 X134.51 Y89.155 E.00971
G1 X134.539 Y89.383 E.00779
G1 X134.508 Y89.706 E.01105
G1 X134.431 Y89.951 E.00871
G1 X134.308 Y90.184 E.00895
G1 X134.018 Y90.558 E.0161
G1 X133.832 Y90.747 E.00901
G1 X133.619 Y90.897 E.00885
G1 X133.391 Y91.003 E.00855
G1 X133.082 Y91.073 E.01077
G1 X132.859 Y91.074 E.00757
G1 X132.587 Y91.011 E.00947
G1 X132.408 Y90.923 E.00678
G1 X132.207 Y90.756 E.0089
G1 X132.086 Y90.596 E.00682
G1 X131.996 Y90.407 E.0071
G1 X131.942 Y90.193 E.0075
G1 X131.928 Y89.96 E.00794
G1 X131.958 Y89.716 E.00837
G1 X132.035 Y89.471 E.00871
G1 X132.105 Y89.339 E.00509
G1 X132.46 Y89.553 F9000
G1 F1800
G1 X132.545 Y89.412 E.00561
G1 X132.77 Y89.13 E.01226
G1 X132.953 Y88.954 E.00863
G1 X133.109 Y88.857 E.00622
G1 X133.269 Y88.794 E.00585
G1 X133.424 Y88.764 E.00537
G1 X133.567 Y88.764 E.00486
G1 X133.732 Y88.802 E.00576
G1 X133.868 Y88.874 E.00522
G1 X133.977 Y88.978 E.00513
G1 X134.061 Y89.117 E.00551
G1 X134.112 Y89.294 E.00625
G1 X134.121 Y89.449 E.00528
G1 X134.086 Y89.675 E.00778
G1 X134.02 Y89.847 E.00627
G1 X133.921 Y90.011 E.00648
G1 X133.654 Y90.341 E.01444
G1 X133.41 Y90.536 E.01062
G1 X133.25 Y90.611 E.00598
G1 X133.042 Y90.658 E.00726
G1 X132.855 Y90.652 E.00637
G1 X132.697 Y90.605 E.00559
G1 X132.598 Y90.548 E.00389
G1 X132.489 Y90.444 E.00513
G1 X132.405 Y90.305 E.00551
G1 X132.363 Y90.176 E.00462
G1 X132.345 Y90.027 E.00511
G1 X132.355 Y89.862 E.00561
G1 X132.442 Y89.589 E.00975
G1 X132.819 Y89.773 F9000
G1 F1800
G1 X132.859 Y89.691 E.00314
G1 X133.092 Y89.395 E.01276
G1 X133.204 Y89.288 E.0053
G1 X133.356 Y89.204 E.0059
G1 X133.527 Y89.18 E.00586
G1 X133.642 Y89.206 E.00399
G1 X133.7 Y89.358 E.00553
G1 X133.693 Y89.528 E.00577
G1 X133.607 Y89.732 E.00751
G1 X133.348 Y90.057 E.01411
G1 X133.201 Y90.175 E.00644
G1 X133.002 Y90.242 E.00712
G1 X132.824 Y90.216 E.0061
G1 X132.77 Y90.086 E.0048
G1 X132.763 Y89.957 E.00436
G1 X132.792 Y89.827 E.00454
G1 X132.801 Y89.809 E.00067
G1 E-.84 F2400
;WIPE_START
G1 F1800
G1 X132.859 Y89.691 E-.04764
G1 X133.092 Y89.395 E-.13521
G1 X133.204 Y89.288 E-.0561
G1 X133.356 Y89.204 E-.06248
G1 X133.517 Y89.181 E-.05858
;WIPE_END
G1 Z.6 F9000
G1 X139.223 Y84.494 Z.6
G1 Z.2
G1 E1.2 F1800
G1 X139.158 Y84.375 E.0046
G1 X139.141 Y84.241 E.0046
G1 X139.175 Y84.11 E.00459
G1 X139.271 Y83.986 E.00535
G1 X139.39 Y83.921 E.0046
G1 X139.524 Y83.904 E.0046
G1 X139.948 Y84.018 E.01493
G1 X139.844 Y84.375 E.01264
G1 X139.793 Y84.476 E.00384
G1 X139.655 Y84.59 E.0061
G1 X139.478 Y84.624 E.0061
G1 X139.347 Y84.59 E.00459
G1 X139.255 Y84.518 E.00399
G1 X138.957 Y84.816 F9000
G1 F1800
G1 X138.902 Y84.76 E.00268
G1 X138.819 Y84.639 E.00498
G1 X138.761 Y84.504 E.00498
G1 X138.729 Y84.361 E.00498
G1 X138.725 Y84.215 E.00498
G1 X138.761 Y84.023 E.00663
G1 X138.819 Y83.889 E.00498
G1 X138.902 Y83.768 E.00498
G1 X139.005 Y83.664 E.00497
G1 X139.126 Y83.582 E.00498
G1 X139.261 Y83.524 E.00498
G1 X139.404 Y83.492 E.00498
G1 X139.55 Y83.487 E.00498
G1 X139.695 Y83.51 E.00497
G1 X140.465 Y83.734 E.02726
G1 X140.241 Y84.504 E.02726
G1 X140.13 Y84.721 E.00827
G1 X139.997 Y84.863 E.00663
G1 X139.832 Y84.968 E.00663
G1 X139.647 Y85.028 E.00663
G1 X139.452 Y85.04 E.00663
G1 X139.261 Y85.004 E.00663
G1 X139.126 Y84.946 E.00498
G1 X139.005 Y84.863 E.00498
G1 X138.986 Y84.844 E.00093
G1 X138.692 Y85.138 F9000
G1 F1800
G1 X138.58 Y85.026 E.00538
G1 X138.454 Y84.84 E.00765
G1 X138.364 Y84.633 E.00765
G1 X138.315 Y84.414 E.00765
G1 X138.308 Y84.189 E.00765
G1 X138.364 Y83.895 E.01018
G1 X138.454 Y83.688 E.00765
G1 X138.58 Y83.502 E.00765
G1 X138.739 Y83.343 E.00764
G1 X138.925 Y83.216 E.00765
G1 X139.132 Y83.127 E.00765
G1 X139.351 Y83.078 E.00765
G1 X139.576 Y83.071 E.00765
G1 X139.798 Y83.106 E.00764
G1 X140.982 Y83.45 E.04188
G1 X140.638 Y84.633 E.04188
G1 X140.583 Y84.773 E.0051
G1 X140.468 Y84.966 E.00765
G1 X140.263 Y85.185 E.01018
G1 X140.01 Y85.345 E.01018
G1 X139.725 Y85.438 E.01018
G1 X139.426 Y85.457 E.01018
G1 X139.132 Y85.401 E.01018
G1 X138.925 Y85.311 E.00765
G1 X138.739 Y85.185 E.00765
G1 X138.72 Y85.166 E.00091
G1 X137.703 Y86.478 F9000
G1 F1800
G1 X137.54 Y86.352 E.00698
G1 X137.184 Y85.948 E.01832
G1 X136.991 Y85.644 E.01223
G1 X136.838 Y85.318 E.01223
G1 X136.687 Y84.801 E.01832
G1 X136.637 Y84.264 E.01832
G1 X136.687 Y83.727 E.01832
G1 X136.838 Y83.209 E.01832
G1 X137.083 Y82.729 E.01832
G1 X137.413 Y82.303 E.01832
G1 X137.817 Y81.947 E.01832
G1 X138.281 Y81.672 E.01832
G1 X138.789 Y81.489 E.01832
G1 X139.321 Y81.405 E.01832
G1 X139.86 Y81.422 E.01832
G1 X140.213 Y81.489 E.01223
G1 X140.446 Y81.557 E.00823
G1 X140.595 Y81.228 E.01229
G1 X140.204 Y80.964 E.01604
G1 X139.932 Y80.721 E.01239
G1 X139.809 Y80.587 E.00618
G1 X139.593 Y80.296 E.01232
G1 X139.499 Y80.141 E.00616
G1 X139.417 Y79.98 E.00615
G1 X139.285 Y79.643 E.0123
G1 X139.199 Y79.291 E.01232
G1 X139.174 Y79.111 E.00618
G1 X139.159 Y78.747 E.01238
G1 X139.192 Y78.382 E.01244
G1 X139.33 Y77.847 E.01878
G1 X139.478 Y77.507 E.01262
G1 X139.778 Y77.033 E.01906
G1 X140.162 Y76.618 E.01921
G1 X140.616 Y76.276 E.01931
G1 X141.124 Y76.018 E.01936
G1 X141.854 Y75.784 E.02608
G1 X142.404 Y75.688 E.01897
G1 X142.774 Y75.678 E.01259
G1 X143.141 Y75.714 E.01252
G1 X143.499 Y75.793 E.01245
G1 X143.841 Y75.916 E.01237
G1 X144.163 Y76.08 E.01229
G1 X144.46 Y76.283 E.01222
G1 X144.726 Y76.522 E.01215
G1 X145.06 Y76.938 E.01813
G1 X145.232 Y77.248 E.01207
G1 X145.361 Y77.579 E.01206
G1 X145.446 Y77.924 E.01208
G1 X145.483 Y78.279 E.01212
G1 X145.474 Y78.637 E.01218
G1 X145.418 Y78.993 E.01224
G1 X145.317 Y79.341 E.01232
G1 X145.15 Y79.721 E.0141
G1 X145.205 Y79.881 E.00575
G1 X145.565 Y80.093 E.01423
G1 X145.735 Y80.061 E.00587
G1 X145.87 Y79.863 E.00814
G1 X146.099 Y79.586 E.01222
G1 X146.361 Y79.34 E.01223
G1 X146.652 Y79.128 E.01223
G1 X147.133 Y78.883 E.01832
G1 X147.65 Y78.733 E.01832
G1 X148.007 Y78.688 E.01223
G1 X148.367 Y78.688 E.01223
G1 X148.899 Y78.772 E.01832
G1 X149.407 Y78.955 E.01832
G1 X149.722 Y79.128 E.01223
G1 X150.013 Y79.34 E.01223
G1 X150.394 Y79.721 E.01832
G1 X150.606 Y80.012 E.01223
G1 X150.779 Y80.327 E.01223
G1 X150.962 Y80.834 E.01832
G1 X151.046 Y81.367 E.01832
G1 X151.046 Y81.727 E.01223
G1 X150.962 Y82.259 E.01832
G1 X150.85 Y82.601 E.01223
G1 X150.697 Y82.927 E.01223
G1 X150.504 Y83.23 E.01223
G1 X150.148 Y83.635 E.01832
G1 X149.722 Y83.965 E.01832
G1 X149.407 Y84.139 E.01223
G1 X149.072 Y84.271 E.01223
G1 X148.546 Y84.389 E.01832
G1 X148.187 Y84.411 E.01223
M73 P0 R41
G1 X147.828 Y84.389 E.01223
G1 X147.475 Y84.321 E.01223
G1 X147.133 Y84.21 E.01223
G1 X146.807 Y84.057 E.01223
G1 X146.512 Y83.87 E.01186
G1 X146.343 Y83.903 E.00587
G1 X146.014 Y84.327 E.01826
G1 X145.756 Y84.569 E.012
G1 X145.471 Y84.777 E.012
G1 X144.999 Y85.017 E.01798
G1 X144.663 Y85.126 E.012
G1 X144.141 Y85.209 E.01798
G1 X143.612 Y85.192 E.01798
G1 X143.095 Y85.077 E.01798
G1 X142.767 Y84.947 E.012
G1 X142.495 Y84.799 E.01052
G1 X142.305 Y84.874 E.00694
G1 X142.225 Y85.149 E.00973
G1 X142.093 Y85.484 E.01223
G1 X141.92 Y85.799 E.01223
G1 X141.708 Y86.09 E.01223
G1 X141.327 Y86.471 E.01832
G1 X140.881 Y86.774 E.01832
G1 X140.556 Y86.927 E.01223
G1 X140.213 Y87.038 E.01223
G1 X139.681 Y87.123 E.01832
G1 X139.321 Y87.123 E.01223
G1 X138.964 Y87.078 E.01223
G1 X138.447 Y86.927 E.01832
G1 X137.966 Y86.682 E.01832
G1 X137.734 Y86.502 E.00998
G1 X137.989 Y86.174 F9000
G1 F1800
G1 X137.826 Y86.048 E.00701
G1 X137.521 Y85.702 E.01565
G1 X137.287 Y85.306 E.01565
G1 X137.131 Y84.872 E.01565
G1 X137.059 Y84.418 E.01565
G1 X137.073 Y83.957 E.01565
G1 X137.131 Y83.655 E.01045
G1 X137.226 Y83.363 E.01044
G1 X137.435 Y82.953 E.01565
G1 X137.717 Y82.589 E.01565
G1 X138.063 Y82.284 E.01565
G1 X138.322 Y82.119 E.01044
G1 X138.6 Y81.989 E.01044
G1 X138.892 Y81.894 E.01044
G1 X139.194 Y81.836 E.01045
G1 X139.655 Y81.822 E.01565
G1 X140.11 Y81.894 E.01565
G1 X140.677 Y82.058 E.02007
G1 X141.124 Y81.07 E.03687
G1 X140.587 Y80.728 E.02166
G1 X140.342 Y80.536 E.01056
G1 X140.031 Y80.195 E.01569
G1 X139.794 Y79.802 E.0156
G1 X139.641 Y79.369 E.01559
G1 X139.577 Y78.913 E.01568
G1 X139.605 Y78.447 E.01585
G1 X139.722 Y77.989 E.01607
G1 X139.927 Y77.555 E.01631
G1 X140.212 Y77.161 E.01653
G1 X140.567 Y76.821 E.01671
G1 X140.836 Y76.63 E.01122
G1 X141.279 Y76.406 E.01686
G1 X141.963 Y76.187 E.02441
G1 X142.279 Y76.122 E.01098
G1 X142.759 Y76.095 E.01634
G1 X143.076 Y76.126 E.0108
G1 X143.383 Y76.194 E.01069
G1 X143.676 Y76.299 E.01058
G1 X143.951 Y76.439 E.01048
G1 X144.203 Y76.611 E.01037
G1 X144.428 Y76.813 E.01029
G1 X144.624 Y77.042 E.01022
G1 X144.786 Y77.293 E.01018
G1 X144.914 Y77.564 E.01016
G1 X145.004 Y77.849 E.01017
G1 X145.066 Y78.296 E.01533
G1 X145.04 Y78.751 E.0155
G1 X144.973 Y79.051 E.01047
G1 X144.867 Y79.344 E.01057
G1 X144.701 Y79.696 E.01322
G1 X144.865 Y80.176 E.01724
G1 X145.118 Y80.305 E.00965
G1 X145.474 Y80.535 E.01443
G1 X145.983 Y80.438 E.01761
G1 X146.302 Y79.987 E.01878
G1 X146.512 Y79.763 E.01045
G1 X146.876 Y79.481 E.01565
G1 X147.286 Y79.271 E.01565
G1 X147.729 Y79.143 E.01565
G1 X148.187 Y79.1 E.01565
G1 X148.646 Y79.143 E.01565
G1 X149.088 Y79.271 E.01565
