; HEADER_BLOCK_START
; generated by OrcaSlicer 2.2.0 on 2024-12-22 at 15:33:04
; total layer number: 25
; filament_density: 1.24
; filament_diameter: 1.75
; max_z_height: 5.00
; HEADER_BLOCK_END

; external perimeters extrusion width = 0.42mm
; perimeters extrusion width = 0.45mm
; infill extrusion width = 0.45mm
; solid infill extrusion width = 0.42mm
; top infill extrusion width = 0.42mm
; first layer extrusion width = 0.46mm

; EXECUTABLE_BLOCK_START
M201 X2500 Y2500 Z500 E5000
M203 X250 Y250 Z5 E40
M204 P2500 R500 T2500 ; sets acceleration (P, T) and retract acceleration (R), mm/sec^2
M205 X10.00 Y10.00 Z0.40 E5.00 ; sets the jerk limits, mm/sec
;TYPE:Custom
M220 S100 ;Reset Feedrate 
M221 S100 ;Reset Flowrate 
 
M104 S220 ;Set final nozzle temp 
M190 S55 ;Set and wait for bed temp to stabilize 
G28 ;Home 
G92 E0 ;Reset Extruder 
G1 Z2.0 F3000 ;Move Z Axis up 
G1 X-2.1 Y20 Z0.28 F5000.0 ;Move to start position 
M109 S220 ;Wait for nozzle temp to stabilize 
G1 X-2.1 Y145.0 Z0.28 F1500.0 E15 ;Draw the first line 
G1 X-2.4 Y145.0 Z0.28 F5000.0 ;Move to side a little 
G1 X-2.4 Y20 Z0.28 F1500.0 E30 ;Draw the second line 
G92 E0  ;Reset Extruder 
G1 E-1.0000 F1800 ;Retract a bit 
G1 Z2.0 F3000 ;Move Z Axis up 
G1 E0.0000 F1800
G90
G21
M83 ; use relative distances for extrusion
; filament start gcode
M106 S0
;LAYER_CHANGE
;Z:0.2
;HEIGHT:0.2
;BEFORE_LAYER_CHANGE
;0.2
G92 E0

G1 E-1.2 F2400
;_SET_FAN_SPEED_CHANGING_LAYER
M204 P500
; printing object Gantries-prod.stl_1 id:2383444165888 copy 0
M204 T500
G1 Z.6 F9000
G1 X139.833 Y139.833
G1 Z.6
G1 Z.2
G1 E1.2 F1800
;TYPE:Inner wall
;WIDTH:0.459999
G1 X80.167 Y139.833 E2.02784
G1 X80.167 Y80.167 E2.02784
G1 X139.833 Y80.167 E2.02784
G1 X139.833 Y139.793 E2.02648
G1 X140.25 Y140.25 F9000
M73 P1 R34
;TYPE:Outer wall
G1 F1800
G1 X79.75 Y140.25 E2.05619
G1 X79.75 Y79.75 E2.05619
G1 X140.25 Y79.75 E2.05619
G1 X140.25 Y140.21 E2.05483
G1 E-.84 F2400
;WIPE_START
G1 F1800
G1 X139.25 Y140.211 E-.36
;WIPE_END
G1 Z.6 F9000
G1 X110.311 Y122.303 Z.6
G1 Z.2
G1 E1.2 F1800
;TYPE:Inner wall
G1 X110.404 Y122.31 E.00317
G1 X111.431 Y122.544 E.03583
G1 X111.605 Y122.612 E.00634
G1 X112.518 Y123.14 E.03583
G1 X112.664 Y123.256 E.00634
G1 X113.381 Y124.029 E.03583
G1 X113.486 Y124.183 E.00634
G1 X113.984 Y125.218 E.03903
G1 X114.155 Y126.353 E.03904
G1 X114.155 Y126.54 E.00634
G1 X113.984 Y127.675 E.03903
G1 X113.445 Y128.795 E.04224
G1 X112.6 Y129.706 E.04224
G1 X111.523 Y130.328 E.04224
G1 X110.312 Y130.604 E.04224
G1 X109.072 Y130.511 E.04224
G1 X107.915 Y130.057 E.04224
G1 X106.944 Y129.282 E.04224
G1 X106.297 Y128.333 E.03904
G1 X106.227 Y128.203 E.00502
G1 X105.877 Y127.068 E.04038
G1 X105.877 Y125.919 E.03904
G1 X105.905 Y125.735 E.00634
G1 X106.244 Y124.637 E.03903
G1 X106.891 Y123.689 E.03904
G1 X107.503 Y123.164 E.0274
G1 X107.935 Y122.828 E.01859
G1 X108.984 Y122.416 E.03833
G1 X109.166 Y122.375 E.00634
G1 X110.218 Y122.296 E.03583
G1 X110.271 Y122.3 E.00181
G1 X110.278 Y122.71 F9000
;TYPE:Outer wall
G1 F1800
G1 X110.28 Y122.709 E.00007
G1 X111.369 Y122.958 E.03797
G1 X112.337 Y123.517 E.03797
G1 X113.096 Y124.335 E.03797
G1 X113.581 Y125.342 E.03797
G1 X113.748 Y126.446 E.03797
G1 X113.581 Y127.551 E.03797
G1 X113.096 Y128.558 E.03797
G1 X112.337 Y129.376 E.03797
G1 X111.369 Y129.935 E.03797
G1 X110.28 Y130.184 E.03797
G1 X109.166 Y130.1 E.03797
G1 X108.126 Y129.692 E.03797
G1 X107.253 Y128.996 E.03797
G1 X106.624 Y128.073 E.03797
G1 X106.294 Y127.005 E.03797
G1 X106.294 Y125.888 E.03797
G1 X106.624 Y124.82 E.03797
G1 X107.235 Y123.923 E.0369
G1 X108.155 Y123.189 E.04001
G1 X109.166 Y122.793 E.0369
G1 X110.238 Y122.713 E.03654
G1 E-.84 F2400
;WIPE_START
G1 F1800
G1 X110.28 Y122.709 E-.01516
G1 X111.214 Y122.923 E-.34484
;WIPE_END
G1 Z.6 F9000
G1 X106.28 Y91.691 Z.6
G1 Z.2
G1 E1.2 F1800
;TYPE:Inner wall
G1 X106.944 Y90.718 E.04003
G1 X107.915 Y89.943 E.04224
G1 X109.072 Y89.489 E.04224
G1 X110.312 Y89.396 E.04224
G1 X111.523 Y89.672 E.04224
G1 X112.6 Y90.294 E.04224
G1 X113.445 Y91.205 E.04224
G1 X113.984 Y92.325 E.04224
G1 X114.155 Y93.46 E.03904
G1 X114.155 Y93.647 E.00634
G1 X113.998 Y94.689 E.03583
G1 X113.943 Y94.867 E.00634
G1 X113.486 Y95.817 E.03583
G1 X113.381 Y95.971 E.00634
G1 X112.664 Y96.744 E.03583
G1 X112.518 Y96.86 E.00634
G1 X111.605 Y97.388 E.03583
G1 X111.431 Y97.456 E.00634
G1 X110.404 Y97.69 E.03583
G1 X110.218 Y97.704 E.00634
G1 X109.166 Y97.625 E.03583
G1 X108.984 Y97.584 E.00634
G1 X108.003 Y97.199 E.03583
G1 X107.503 Y96.836 E.021
G1 X107.017 Y96.448 E.02112
G1 X106.891 Y96.311 E.00634
G1 X106.244 Y95.363 E.03904
G1 X105.905 Y94.265 E.03903
G1 X105.877 Y94.081 E.00634
G1 X105.877 Y92.932 E.03903
G1 X106.244 Y91.744 E.04224
G1 X106.258 Y91.724 E.00085
G1 X106.625 Y91.926 F9000
;TYPE:Outer wall
G1 F1800
G1 X107.253 Y91.004 E.0379
G1 X108.126 Y90.308 E.03797
G1 X109.166 Y89.9 E.03797
G1 X110.28 Y89.816 E.03797
G1 X111.369 Y90.065 E.03797
G1 X112.337 Y90.624 E.03797
G1 X113.096 Y91.442 E.03797
G1 X113.581 Y92.449 E.03797
G1 X113.748 Y93.553 E.03797
G1 X113.581 Y94.658 E.03797
G1 X113.096 Y95.665 E.03797
G1 X112.337 Y96.483 E.03797
G1 X111.369 Y97.042 E.03797
G1 X110.28 Y97.291 E.03797
G1 X109.166 Y97.207 E.03797
G1 X108.155 Y96.811 E.0369
G1 X107.253 Y96.103 E.03896
G1 X106.624 Y95.18 E.038
G1 X106.294 Y94.112 E.03797
G1 X106.294 Y92.995 E.03797
G1 X106.612 Y91.964 E.03668
G1 E-.84 F2400
;WIPE_START
G1 F1800
G1 X107.168 Y91.132 E-.36
;WIPE_END
G1 Z.6 F9000
G1 X139.708 Y81.138
G1 Z.6
G1 Z.2
G1 E1.2 F1800
;TYPE:Bottom surface
;WIDTH:0.461254
G1 F4800
G1 X139.05 Y80.48 E.03173
G1 X138.458 Y80.48 E.02017
G1 X139.52 Y81.542 E.0512
G1 X139.52 Y82.134 E.02017
G1 X137.866 Y80.48 E.07972
G1 X137.275 Y80.48 E.02017
G1 X139.52 Y82.725 E.10824
G1 X139.52 Y83.317 E.02017
G1 X136.683 Y80.48 E.13676
G1 X136.092 Y80.48 E.02017
G1 X139.52 Y83.908 E.16528
G1 X139.52 Y84.5 E.02017
G1 X135.5 Y80.48 E.1938
G1 X134.908 Y80.48 E.02017
G1 X139.52 Y85.092 E.22233
G1 X139.52 Y85.683 E.02017
G1 X134.317 Y80.48 E.25085
G1 X133.725 Y80.48 E.02017
G1 X139.52 Y86.275 E.27937
G1 X139.52 Y86.866 E.02017
G1 X133.134 Y80.48 E.30789
G1 X132.542 Y80.48 E.02017
G1 X139.52 Y87.458 E.33641
G1 X139.52 Y88.05 E.02017
G1 X131.95 Y80.48 E.36493
G1 X131.359 Y80.48 E.02017
G1 X139.52 Y88.641 E.39345
G1 X139.52 Y89.233 E.02017
G1 X130.767 Y80.48 E.42197
G1 X130.176 Y80.48 E.02017
G1 X139.52 Y89.825 E.45049
G1 X139.52 Y90.416 E.02017
G1 X129.584 Y80.48 E.47902
G1 X128.992 Y80.48 E.02017
G1 X139.52 Y91.008 E.50754
G1 X139.52 Y91.599 E.02017
G1 X128.401 Y80.48 E.53606
G1 X127.809 Y80.48 E.02017
G1 X139.52 Y92.191 E.56458
G1 X139.52 Y92.783 E.02017
G1 X127.217 Y80.48 E.5931
G1 X126.626 Y80.48 E.02017
G1 X139.52 Y93.374 E.62162
G1 X139.52 Y93.966 E.02017
G1 X126.034 Y80.48 E.65014
G1 X125.443 Y80.48 E.02017
M73 P2 R34
G1 X139.52 Y94.557 E.67866
G1 X139.52 Y95.149 E.02017
G1 X124.851 Y80.48 E.70718
G1 X124.259 Y80.48 E.02017
G1 X139.52 Y95.741 E.73571
G1 X139.52 Y96.332 E.02017
M73 P2 R33
G1 X123.668 Y80.48 E.76423
G1 X123.076 Y80.48 E.02017
G1 X139.52 Y96.924 E.79275
G1 X139.52 Y97.515 E.02017
G1 X122.485 Y80.48 E.82127
G1 X121.893 Y80.48 E.02017
G1 X139.52 Y98.107 E.84979
G1 X139.52 Y98.699 E.02017
G1 X121.301 Y80.48 E.87831
G1 X120.71 Y80.48 E.02017
G1 X139.52 Y99.29 E.90683
G1 X139.52 Y99.882 E.02017
G1 X120.118 Y80.48 E.93535
G1 X119.526 Y80.48 E.02017
G1 X139.52 Y100.474 E.96387
G1 X139.52 Y101.065 E.02017
G1 X118.935 Y80.48 E.9924
G1 X118.343 Y80.48 E.02017
G1 X139.52 Y101.657 E1.02092
G1 X139.52 Y102.248 E.02017
G1 X117.752 Y80.48 E1.04944
G1 X117.16 Y80.48 E.02017
G1 X139.52 Y102.84 E1.07796
G1 X139.52 Y103.432 E.02017
G1 X116.568 Y80.48 E1.10648
G1 X115.977 Y80.48 E.02017
G1 X139.52 Y104.023 E1.135
G1 X139.52 Y104.615 E.02017
G1 X115.385 Y80.48 E1.16352
G1 X114.794 Y80.48 E.02017
G1 X139.52 Y105.206 E1.19204
G1 X139.52 Y105.798 E.02017
G1 X114.202 Y80.48 E1.22056
G1 X113.61 Y80.48 E.02017
G1 X139.52 Y106.39 E1.24909
G1 X139.52 Y106.981 E.02017
G1 X113.019 Y80.48 E1.27761
G1 X112.427 Y80.48 E.02017
G1 X139.52 Y107.573 E1.30613
G1 X139.52 Y108.165 E.02017
G1 X111.835 Y80.48 E1.33465
G1 X111.244 Y80.48 E.02017
G1 X139.52 Y108.756 E1.36317
G1 X139.52 Y109.348 E.02017
G1 X110.652 Y80.48 E1.39169
G1 X110.061 Y80.48 E.02017
G1 X139.52 Y109.939 E1.42021
G1 X139.52 Y110.531 E.02017
G1 X109.469 Y80.48 E1.44873
G1 X108.877 Y80.48 E.02017
G1 X139.52 Y111.123 E1.47725
G1 X139.52 Y111.714 E.02017
G1 X108.286 Y80.48 E1.50578
G1 X107.694 Y80.48 E.02017
G1 X139.52 Y112.306 E1.5343
G1 X139.52 Y112.897 E.02017
G1 X107.103 Y80.48 E1.56282
G1 X106.511 Y80.48 E.02017
G1 X139.52 Y113.489 E1.59134
G1 X139.52 Y114.081 E.02017
G1 X105.919 Y80.48 E1.61986
G1 X105.328 Y80.48 E.02017
G1 X139.52 Y114.672 E1.64838
G1 X139.52 Y115.264 E.02017
G1 X104.736 Y80.48 E1.6769
G1 X104.145 Y80.48 E.02017
M73 P3 R33
G1 X139.52 Y115.856 E1.70542
G1 X139.52 Y116.447 E.02017
G1 X103.553 Y80.48 E1.73394
G1 X102.961 Y80.48 E.02017
G1 X139.52 Y117.039 E1.76247
G1 X139.52 Y117.63 E.02017
G1 X114.315 Y92.425 E1.2151
G1 X114.414 Y93.116 E.02376
G1 X139.52 Y118.222 E1.21036
G1 X139.52 Y118.814 E.02017
G1 X114.449 Y93.743 E1.20865
G1 X114.375 Y94.26 E.01782
G1 X139.52 Y119.405 E1.21221
G1 X139.52 Y119.997 E.02017
G1 X114.299 Y94.776 E1.21588
G1 X114.228 Y94.997 E.00792
G1 X114.129 Y95.198 E.00762
G1 X139.52 Y120.588 E1.22406
G1 X139.52 Y121.18 E.02017
G1 X113.934 Y95.594 E1.23346
G1 X113.739 Y95.991 E.01507
G1 X139.52 Y121.772 E1.24287
G1 X139.52 Y122.363 E.02017
G1 X113.476 Y96.319 E1.25556
G1 X113.193 Y96.628 E.01427
G1 X139.52 Y122.955 E1.26918
G1 X139.52 Y123.546 E.02017
G1 X112.911 Y96.937 E1.2828
G1 X112.71 Y97.11 E.00905
G1 X112.571 Y97.189 E.00543
G1 X139.52 Y124.138 E1.29919
G1 X139.52 Y124.73 E.02017
G1 X112.194 Y97.404 E1.31736
G1 X111.817 Y97.618 E.01479
G1 X139.52 Y125.321 E1.33554
G1 X139.52 Y125.913 E.02017
G1 X111.386 Y97.778 E1.35634
G1 X110.908 Y97.892 E.01675
G1 X139.52 Y126.505 E1.37938
G1 X139.52 Y127.096 E.02017
G1 X110.426 Y98.002 E1.40261
G1 X110.289 Y98.019 E.0047
G1 X109.818 Y97.985 E.0161
G1 X139.52 Y127.688 E1.43192
G1 X139.52 Y128.279 E.02017
G1 X108.941 Y97.7 E1.47421
G1 E-.84 F2400
;WIPE_START
G1 F4800
G1 X109.648 Y98.407 E-.36
;WIPE_END
G1 Z.6 F9000
G1 X111.418 Y89.528 Z.6
G1 Z.2
G1 E1.2 F1800
G1 F4800
G1 X102.37 Y80.48 E.43622
G1 X101.778 Y80.48 E.02017
G1 X110.404 Y89.105 E.41583
G1 X110.202 Y89.09 E.00691
G1 X109.828 Y89.121 E.01278
G1 X101.186 Y80.48 E.41659
G1 X100.595 Y80.48 E.02017
G1 X109.282 Y89.167 E.41878
G1 X109.003 Y89.19 E.00953
G1 X108.793 Y89.27 E.00765
G1 X100.003 Y80.48 E.42377
G1 X99.412 Y80.48 E.02017
G1 X108.366 Y89.434 E.43167
G1 X107.938 Y89.598 E.01561
G1 X98.82 Y80.48 E.43958
G1 X98.228 Y80.48 E.02017
G1 X107.568 Y89.82 E.45027
G1 X107.24 Y90.083 E.01434
G1 X97.637 Y80.48 E.46298
G1 X97.045 Y80.48 E.02017
G1 X106.912 Y90.347 E.47569
G1 X106.749 Y90.479 E.00715
G1 X106.616 Y90.643 E.00719
G1 X96.454 Y80.48 E.48993
G1 X95.862 Y80.48 E.02017
G1 X106.376 Y90.994 E.50689
G1 X106.137 Y91.346 E.01451
G1 X95.27 Y80.48 E.52385
G1 X94.679 Y80.48 E.02017
G1 X105.924 Y91.725 E.54212
G1 X105.786 Y92.179 E.01617
G1 X94.087 Y80.48 E.56401
G1 X93.495 Y80.48 E.02017
G1 X105.65 Y92.635 E.58597
G1 X105.573 Y92.894 E.00924
G1 X105.571 Y93.147 E.00861
G1 X92.904 Y80.48 E.61067
G1 X92.312 Y80.48 E.02017
M73 P4 R33
G1 X105.567 Y93.734 E.63899
G1 X105.564 Y94.088 E.01206
G1 X105.61 Y94.369 E.0097
G1 X91.721 Y80.48 E.66958
G1 X91.129 Y80.48 E.02017
G1 X105.881 Y95.232 E.71118
G1 X105.957 Y95.475 E.00867
G1 X106.636 Y96.494 E.04174
G1 X106.816 Y96.688 E.00904
G1 X107.752 Y97.424 E.04059
G1 X108.29 Y97.641 E.01978
G1 X139.52 Y128.871 E1.50555
G1 X139.52 Y129.463 E.02017
G1 X90.537 Y80.48 E2.36141
G1 X89.946 Y80.48 E.02017
G1 X139.52 Y130.054 E2.38993
G1 X139.52 Y130.646 E.02017
G1 X89.354 Y80.48 E2.41845
G1 X88.763 Y80.48 E.02017
G1 X139.52 Y131.237 E2.44697
G1 X139.52 Y131.829 E.02017
G1 X88.171 Y80.48 E2.47549
G1 X87.579 Y80.48 E.02017
G1 X139.52 Y132.421 E2.50401
G1 X139.52 Y133.012 E.02017
G1 X86.988 Y80.48 E2.53254
G1 X86.396 Y80.48 E.02017
G1 X139.52 Y133.604 E2.56106
G1 X139.52 Y134.196 E.02017
G1 X85.804 Y80.48 E2.58958
G1 X85.213 Y80.48 E.02017
G1 X139.52 Y134.787 E2.6181
G1 X139.52 Y135.379 E.02017
G1 X84.621 Y80.48 E2.64662
G1 X84.03 Y80.48 E.02017
G1 X139.52 Y135.97 E2.67514
G1 X139.52 Y136.562 E.02017
G1 X83.438 Y80.48 E2.70366
G1 X82.846 Y80.48 E.02017
G1 X139.52 Y137.154 E2.73218
G1 X139.52 Y137.745 E.02017
G1 X82.255 Y80.48 E2.7607
G1 X81.663 Y80.48 E.02017
G1 X139.52 Y138.337 E2.78923
G1 X139.52 Y138.928 E.02017
M73 P4 R32
G1 X81.072 Y80.48 E2.81775
G1 X80.48 Y80.48 E.02017
G1 X139.52 Y139.52 E2.84627
G1 X138.929 Y139.52 E.02017
M73 P5 R32
G1 X80.48 Y81.071 E2.81775
G1 X80.48 Y81.663 E.02017
G1 X138.337 Y139.52 E2.78923
G1 X137.745 Y139.52 E.02017
G1 X80.48 Y82.255 E2.76071
G1 X80.48 Y82.846 E.02017
G1 X137.154 Y139.52 E2.73219
G1 X136.562 Y139.52 E.02017
G1 X80.48 Y83.438 E2.70367
G1 X80.48 Y84.029 E.02017
G1 X135.971 Y139.52 E2.67515
G1 X135.379 Y139.52 E.02017
G1 X80.48 Y84.621 E2.64663
G1 X80.48 Y85.213 E.02017
G1 X134.787 Y139.52 E2.61811
G1 X134.196 Y139.52 E.02017
G1 X80.48 Y85.804 E2.58959
G1 X80.48 Y86.396 E.02017
G1 X133.604 Y139.52 E2.56106
G1 X133.012 Y139.52 E.02017
G1 X80.48 Y86.988 E2.53254
G1 X80.48 Y87.579 E.02017
G1 X132.421 Y139.52 E2.50402
G1 X131.829 Y139.52 E.02017
G1 X80.48 Y88.171 E2.4755
G1 X80.48 Y88.762 E.02017
G1 X131.238 Y139.52 E2.44698
G1 X130.646 Y139.52 E.02017
G1 X80.48 Y89.354 E2.41846
G1 X80.48 Y89.946 E.02017
G1 X130.054 Y139.52 E2.38994
G1 X129.463 Y139.52 E.02017
G1 X80.48 Y90.537 E2.36142
G1 X80.48 Y91.129 E.02017
G1 X111.631 Y122.28 E1.50176
G1 X112.71 Y122.89 E.04225
G1 X112.889 Y123.038 E.00794
G1 X113.697 Y123.923 E.04083
G1 X114.106 Y124.755 E.03163
G1 X128.871 Y139.52 E.7118
G1 X128.28 Y139.52 E.02017
M73 P6 R32
G1 X114.355 Y125.595 E.6713
G1 X114.453 Y126.285 E.02376
G1 X127.688 Y139.52 E.63803
G1 X127.096 Y139.52 E.02017
G1 X114.42 Y126.843 E.61113
G1 X114.346 Y127.361 E.01783
G1 X126.505 Y139.52 E.58617
G1 X125.913 Y139.52 E.02017
G1 X114.241 Y127.848 E.56269
G1 X114.054 Y128.252 E.01519
G1 X125.321 Y139.52 E.54321
G1 X124.73 Y139.52 E.02017
G1 X113.861 Y128.652 E.52396
G1 X113.765 Y128.851 E.00753
G1 X113.648 Y129.03 E.00731
G1 X124.138 Y139.52 E.50573
G1 X123.547 Y139.52 E.02017
G1 X113.364 Y129.338 E.49088
G1 X113.081 Y129.646 E.01427
G1 X122.955 Y139.52 E.47603
G1 X122.363 Y139.52 E.02017
G1 X112.783 Y129.939 E.46188
G1 X112.681 Y130.021 E.00444
G1 X112.42 Y130.168 E.01021
G1 X121.772 Y139.52 E.45083
G1 X121.18 Y139.52 E.02017
G1 X112.043 Y130.383 E.44051
G1 X111.665 Y130.597 E.01479
G1 X120.589 Y139.52 E.43019
G1 X119.997 Y139.52 E.02017
G1 X111.194 Y130.717 E.42437
G1 X110.716 Y130.831 E.01676
G1 X119.405 Y139.52 E.41891
G1 X118.814 Y139.52 E.02017
G1 X110.201 Y130.907 E.41521
G1 X109.563 Y130.861 E.02181
G1 X118.222 Y139.52 E.41745
G1 X117.63 Y139.52 E.02017
G1 X108.546 Y130.435 E.43796
G1 E-.84 F2400
;WIPE_START
G1 F4800
G1 X109.253 Y131.143 E-.36
;WIPE_END
G1 Z.6 F9000
G1 X111.108 Y122.348 Z.6
G1 Z.2
G1 E1.2 F1800
G1 F4800
G1 X80.48 Y91.72 E1.47655
G1 X80.48 Y92.312 E.02017
G1 X110.155 Y121.987 E1.43061
G1 X109.609 Y122.033 E.01868
G1 X80.48 Y92.904 E1.40428
G1 X80.48 Y93.495 E.02017
G1 X109.063 Y122.078 E1.37796
G1 X109 Y122.084 E.00216
G1 X108.622 Y122.229 E.0138
G1 X80.48 Y94.087 E1.35669
G1 X80.48 Y94.679 E.02017
G1 X108.194 Y122.393 E1.33608
G1 X107.883 Y122.512 E.01138
G1 X107.78 Y122.57 E.00402
G1 X80.48 Y95.27 E1.31609
G1 X80.48 Y95.862 E.02017
G1 X107.438 Y122.82 E1.29961
G1 X107.111 Y123.084 E.01434
G1 X80.48 Y96.453 E1.28384
G1 X80.48 Y97.045 E.02017
G1 X106.784 Y123.349 E1.26808
G1 X106.721 Y123.399 E.00273
G1 X106.525 Y123.682 E.01173
G1 X80.48 Y97.637 E1.25561
G1 X80.48 Y98.228 E.02017
G1 X106.283 Y124.031 E1.24393
G1 X106.04 Y124.38 E.01449
G1 X80.48 Y98.82 E1.23224
G1 X80.48 Y99.411 E.02017
G1 X105.867 Y124.799 E1.22391
G1 X105.73 Y125.253 E.01618
G1 X80.48 Y100.003 E1.21729
G1 X80.48 Y100.595 E.02017
G1 X105.593 Y125.708 E1.21067
G1 X105.577 Y125.759 E.00184
G1 X105.572 Y126.278 E.01768
