; HEADER_BLOCK_START
; generated by OrcaSlicer 2.2.0 on 2024-12-22 at 15:28:52
; total layer number: 25
; filament_density: 1.24
; filament_diameter: 1.75
; max_z_height: 5.00
; HEADER_BLOCK_END

; external perimeters extrusion width = 0.42mm
; perimeters extrusion width = 0.45mm
; infill extrusion width = 0.45mm
; solid infill extrusion width = 0.42mm
; top infill extrusion width = 0.42mm
; first layer extrusion width = 0.46mm

; EXECUTABLE_BLOCK_START
M201 X2500 Y2500 Z500 E5000
M203 X250 Y250 Z5 E40
M204 P2500 R500 T2500 ; sets acceleration (P, T) and retract acceleration (R), mm/sec^2
M205 X10.00 Y10.00 Z0.40 E5.00 ; sets the jerk limits, mm/sec
;TYPE:Custom
M220 S100 ;Reset Feedrate 
M221 S100 ;Reset Flowrate 
 
M104 S220 ;Set final nozzle temp 
M190 S55 ;Set and wait for bed temp to stabilize 
G28 ;Home 
G92 E0 ;Reset Extruder 
G1 Z2.0 F3000 ;Move Z Axis up 
G1 X-2.1 Y20 Z0.28 F5000.0 ;Move to start position 
M109 S220 ;Wait for nozzle temp to stabilize 
G1 X-2.1 Y145.0 Z0.28 F1500.0 E15 ;Draw the first line 
G1 X-2.4 Y145.0 Z0.28 F5000.0 ;Move to side a little 
G1 X-2.4 Y20 Z0.28 F1500.0 E30 ;Draw the second line 
G92 E0  ;Reset Extruder 
G1 E-1.0000 F1800 ;Retract a bit 
G1 Z2.0 F3000 ;Move Z Axis up 
G1 E0.0000 F1800
G90
G21
M83 ; use relative distances for extrusion
; filament start gcode
M106 S0
;LAYER_CHANGE
;Z:0.2
;HEIGHT:0.2
;BEFORE_LAYER_CHANGE
;0.2
G92 E0

G1 E-1.2 F2400
;_SET_FAN_SPEED_CHANGING_LAYER
M204 P500
; printing object Gantries-prod.stl_3 id:7811887588677804288 copy 0
M204 T500
G1 Z.6 F9000
G1 X199.758 Y179.376
G1 Z.6
G1 Z.2
G1 E1.2 F1800
;TYPE:Inner wall
;WIDTH:0.459999
G1 X199.618 Y179.423 E.00502
G1 X197.724 Y179.423 E.06437
G1 X197.454 Y179.364 E.0094
G1 X195.826 Y178.424 E.0639
G1 X195.615 Y178.226 E.00982
G1 X194.681 Y176.609 E.06346
G1 X194.597 Y176.315 E.0104
G1 X194.597 Y174.465 E.06286
G1 X194.671 Y174.17 E.01033
G1 X195.597 Y172.567 E.06293
G1 X195.791 Y172.358 E.0097
G1 X197.411 Y171.422 E.06359
G1 X197.664 Y171.339 E.00904
G1 X199.555 Y171.339 E.06428
G1 X199.809 Y171.388 E.00878
G1 X201.454 Y172.338 E.06456
G1 X201.659 Y172.526 E.00946
G1 X202.598 Y174.153 E.06384
G1 X202.682 Y174.413 E.00931
G1 X202.682 Y176.296 E.064
G1 X202.632 Y176.55 E.00878
G1 X201.683 Y178.195 E.06456
G1 X201.495 Y178.4 E.00946
G1 X199.868 Y179.339 E.06384
G1 X199.796 Y179.363 E.00258
G1 X199.627 Y178.987 F9000
;TYPE:Outer wall
G1 F1800
G1 X199.555 Y179.006 E.00254
G1 X197.724 Y179.006 E.06223
G1 X197.62 Y178.978 E.00367
G1 X196.034 Y178.063 E.06223
G1 X195.958 Y177.986 E.00367
G1 X195.042 Y176.401 E.06223
G1 X195.014 Y176.296 E.00367
G1 X195.014 Y174.465 E.06223
G1 X195.042 Y174.361 E.00367
G1 X195.958 Y172.775 E.06223
G1 X196.034 Y172.699 E.00367
G1 X197.62 Y171.784 E.06223
G1 X197.724 Y171.756 E.00367
G1 X199.555 Y171.756 E.06223
G1 X199.659 Y171.784 E.00367
G1 X201.245 Y172.699 E.06223
G1 X201.322 Y172.775 E.00367
G1 X202.237 Y174.361 E.06223
G1 X202.265 Y174.448 E.0031
G1 X202.265 Y176.296 E.06282
G1 X202.237 Y176.401 E.00367
G1 X201.322 Y177.986 E.06223
G1 X201.245 Y178.063 E.00367
G1 X199.665 Y178.975 E.062
G1 E-.84 F2400
;WIPE_START
G1 F1800
G1 X199.555 Y179.006 E-.04123
G1 X198.67 Y179.006 E-.31877
;WIPE_END
G1 Z.6 F9000
G1 X179.394 Y199.707 Z.6
G1 Z.2
G1 E1.2 F1800
;TYPE:Inner wall
G1 X179.374 Y199.809 E.00353
G1 X178.424 Y201.454 E.06456
G1 X178.236 Y201.659 E.00946
G1 X176.609 Y202.598 E.06384
G1 X176.359 Y202.682 E.00896
G1 X174.658 Y202.682 E.05782
G1 X174.258 Y202.659 E.0136
G1 X172.567 Y201.683 E.06638
G1 X172.362 Y201.495 E.00946
G1 X171.422 Y199.868 E.06384
G1 X171.339 Y199.618 E.00896
G1 X171.339 Y197.724 E.06437
G1 X171.398 Y197.454 E.0094
G1 X172.338 Y195.826 E.0639
G1 X172.536 Y195.615 E.00984
G1 X174.153 Y194.681 E.06344
G1 X174.437 Y194.597 E.01009
G1 X176.296 Y194.597 E.06317
G1 X176.582 Y194.665 E.00997
G1 X178.195 Y195.597 E.06331
G1 X178.405 Y195.792 E.00975
G1 X179.339 Y197.411 E.06354
G1 X179.423 Y197.664 E.00904
G1 X179.423 Y199.555 E.06428
G1 X179.401 Y199.667 E.00389
G1 X178.987 Y199.627 F9000
;TYPE:Outer wall
G1 F1800
G1 X178.978 Y199.659 E.00113
G1 X178.063 Y201.245 E.06223
G1 X177.986 Y201.322 E.00367
G1 X176.401 Y202.237 E.06223
G1 X176.296 Y202.265 E.00367
G1 X174.465 Y202.265 E.06223
G1 X174.361 Y202.237 E.00367
G1 X172.775 Y201.322 E.06223
G1 X172.699 Y201.245 E.00367
G1 X171.784 Y199.659 E.06223
G1 X171.756 Y199.555 E.00367
G1 X171.756 Y197.724 E.06223
G1 X171.784 Y197.62 E.00367
G1 X172.699 Y196.034 E.06223
G1 X172.765 Y195.964 E.00328
G1 X174.361 Y195.042 E.06263
G1 X174.465 Y195.014 E.00367
G1 X176.296 Y195.014 E.06223
G1 X176.401 Y195.042 E.00367
G1 X177.986 Y195.958 E.06223
G1 X178.063 Y196.034 E.00367
G1 X178.978 Y197.62 E.06223
G1 X179.006 Y197.724 E.00367
G1 X179.006 Y199.555 E.06223
G1 X178.997 Y199.589 E.00118
G1 E-.84 F2400
;WIPE_START
G1 F1800
G1 X178.978 Y199.659 E-.02635
G1 X178.515 Y200.462 E-.33365
;WIPE_END
G1 Z.6 F9000
G1 X99.448 Y125.638 Z.6
G1 Z.2
G1 E1.2 F1800
;TYPE:Inner wall
G1 X99.346 Y125.672 E.00365
G1 X97.455 Y125.672 E.06428
G1 X97.192 Y125.617 E.00914
G1 X95.557 Y124.672 E.06417
G1 X95.351 Y124.484 E.00946
G1 X94.412 Y122.858 E.06384
G1 X94.328 Y122.608 E.00896
G1 X94.328 Y120.714 E.06437
G1 X94.388 Y120.444 E.0094
G1 X95.328 Y118.815 E.0639
G1 X95.534 Y118.6 E.01015
G1 X97.142 Y117.671 E.06312
G1 X97.427 Y117.587 E.01009
G1 X99.286 Y117.587 E.06318
G1 X99.571 Y117.655 E.00997
G1 X101.185 Y118.586 E.06331
G1 X101.399 Y118.79 E.01006
G1 X102.329 Y120.401 E.06321
G1 X102.413 Y120.695 E.0104
G1 X102.413 Y122.545 E.06286
G1 X102.339 Y122.84 E.01033
G1 X101.414 Y124.443 E.06293
G1 X101.219 Y124.652 E.0097
G1 X99.599 Y125.588 E.06359
G1 X99.486 Y125.625 E.00403
G1 X99.318 Y125.246 F9000
;TYPE:Outer wall
G1 F1800
G1 X99.286 Y125.255 E.00113
G1 X97.455 Y125.255 E.06223
G1 X97.367 Y125.236 E.00305
G1 X95.765 Y124.311 E.06288
G1 X95.689 Y124.235 E.00367
G1 X94.773 Y122.649 E.06223
G1 X94.745 Y122.545 E.00367
G1 X94.745 Y120.714 E.06223
G1 X94.773 Y120.61 E.00367
G1 X95.689 Y119.024 E.06223
G1 X95.765 Y118.948 E.00367
G1 X97.351 Y118.032 E.06223
G1 X97.455 Y118.004 E.00367
G1 X99.286 Y118.004 E.06223
G1 X99.39 Y118.032 E.00367
G1 X100.976 Y118.948 E.06223
G1 X101.052 Y119.024 E.00367
G1 X101.968 Y120.61 E.06223
G1 X101.996 Y120.714 E.00367
G1 X101.996 Y122.545 E.06223
G1 X101.968 Y122.649 E.00367
G1 X101.052 Y124.235 E.06223
G1 X100.976 Y124.311 E.00367
M73 P0 R121
G1 X99.39 Y125.227 E.06223
G1 X99.357 Y125.236 E.00118
G1 E-.84 F2400
;WIPE_START
G1 F1800
G1 X99.286 Y125.255 E-.02635
G1 X98.359 Y125.255 E-.33365
;WIPE_END
G1 Z.6 F9000
G1 X118.701 Y95.434 Z.6
G1 Z.2
G1 E1.2 F1800
;TYPE:Inner wall
G1 X118.781 Y95.348 E.00399
G1 X120.401 Y94.412 E.06359
G1 X120.654 Y94.328 E.00904
G1 X122.545 Y94.328 E.06428
G1 X122.798 Y94.378 E.00878
G1 X124.443 Y95.328 E.06456
G1 X124.649 Y95.516 E.00946
G1 X125.588 Y97.142 E.06384
G1 X125.672 Y97.392 E.00896
G1 X125.672 Y99.286 E.06437
G1 X125.612 Y99.556 E.0094
G1 X124.672 Y101.185 E.0639
G1 X124.466 Y101.4 E.01015
G1 X122.858 Y102.329 E.06312
G1 X122.573 Y102.413 E.01009
G1 X120.714 Y102.413 E.06318
G1 X120.429 Y102.345 E.00997
G1 X118.815 Y101.414 E.06331
G1 X118.601 Y101.21 E.01006
G1 X117.671 Y99.599 E.06321
G1 X117.587 Y99.305 E.0104
G1 X117.587 Y97.455 E.06286
G1 X117.661 Y97.16 E.01033
G1 X118.586 Y95.557 E.06293
G1 X118.673 Y95.463 E.00434
G1 X119 Y95.712 F9000
;TYPE:Outer wall
G1 F1800
G1 X119.024 Y95.689 E.00113
G1 X120.61 Y94.773 E.06223
G1 X120.714 Y94.745 E.00367
G1 X122.545 Y94.745 E.06223
G1 X122.649 Y94.773 E.00367
G1 X124.235 Y95.689 E.06223
G1 X124.311 Y95.765 E.00367
G1 X125.227 Y97.351 E.06223
G1 X125.255 Y97.455 E.00367
G1 X125.255 Y99.286 E.06223
G1 X125.227 Y99.39 E.00367
G1 X124.311 Y100.976 E.06223
G1 X124.235 Y101.052 E.00367
G1 X122.649 Y101.968 E.06223
G1 X122.545 Y101.996 E.00367
G1 X120.714 Y101.996 E.06223
G1 X120.61 Y101.968 E.00367
G1 X119.024 Y101.052 E.06223
G1 X118.948 Y100.976 E.00367
G1 X118.032 Y99.39 E.06223
G1 X118.004 Y99.286 E.00367
G1 X118.004 Y97.455 E.06223
G1 X118.032 Y97.351 E.00367
G1 X118.948 Y95.765 E.06223
G1 X118.972 Y95.741 E.00118
G1 E-.84 F2400
;WIPE_START
G1 F1800
G1 X119.024 Y95.689 E-.02635
G1 X119.827 Y95.225 E-.33365
;WIPE_END
G1 Z.6 F9000
G1 X40.624 Y22.478 Z.6
G1 Z.2
G1 E1.2 F1800
;TYPE:Inner wall
G1 X40.577 Y22.336 E.00506
G1 X40.577 Y20.445 E.06428
G1 X40.626 Y20.191 E.00878
G1 X41.576 Y18.546 E.06456
G1 X41.764 Y18.341 E.00946
G1 X43.391 Y17.402 E.06384
G1 X43.641 Y17.318 E.00896
G1 X45.342 Y17.318 E.05783
G1 X45.742 Y17.341 E.0136
G1 X47.433 Y18.317 E.06638
G1 X47.638 Y18.505 E.00946
G1 X48.578 Y20.132 E.06384
G1 X48.661 Y20.382 E.00896
G1 X48.661 Y22.276 E.06437
G1 X48.602 Y22.546 E.0094
G1 X47.662 Y24.174 E.0639
G1 X47.456 Y24.39 E.01015
G1 X45.847 Y25.319 E.06312
G1 X45.535 Y25.403 E.01101
G1 X43.704 Y25.403 E.06223
G1 X43.418 Y25.335 E.00997
G1 X41.805 Y24.403 E.06331
G1 X41.595 Y24.208 E.00975
G1 X40.661 Y22.589 E.06354
G1 X40.636 Y22.515 E.00262
G1 X41.013 Y22.348 F9000
;TYPE:Outer wall
G1 F1800
G1 X40.994 Y22.276 E.00254
G1 X40.994 Y20.445 E.06223
G1 X41.022 Y20.341 E.00367
G1 X41.937 Y18.755 E.06223
G1 X42.014 Y18.678 E.00367
G1 X43.599 Y17.763 E.06223
G1 X43.704 Y17.735 E.00367
G1 X45.535 Y17.735 E.06223
G1 X45.639 Y17.763 E.00367
G1 X47.225 Y18.678 E.06223
G1 X47.301 Y18.755 E.00367
G1 X48.216 Y20.34 E.06223
G1 X48.244 Y20.445 E.00367
G1 X48.244 Y22.276 E.06223
G1 X48.216 Y22.38 E.00367
G1 X47.301 Y23.966 E.06223
G1 X47.225 Y24.042 E.00367
G1 X45.585 Y24.986 E.0643
G1 X43.704 Y24.986 E.06393
G1 X43.599 Y24.958 E.00367
G1 X42.014 Y24.042 E.06223
G1 X41.937 Y23.966 E.00367
G1 X41.025 Y22.386 E.062
G1 E-.84 F2400
;WIPE_START
G1 F1800
G1 X40.994 Y22.276 E-.04123
G1 X40.994 Y21.39 E-.31877
;WIPE_END
G1 Z.6 F9000
G1 X20.334 Y48.64 Z.6
G1 Z.2
G1 E1.2 F1800
;TYPE:Inner wall
G1 X20.191 Y48.612 E.00494
G1 X18.546 Y47.662 E.06456
G1 X18.341 Y47.474 E.00946
G1 X17.402 Y45.847 E.06384
G1 X17.318 Y45.631 E.00789
G1 X17.318 Y43.704 E.0655
G1 X17.368 Y43.45 E.00878
G1 X18.317 Y41.805 E.06456
G1 X18.505 Y41.6 E.00946
G1 X20.132 Y40.661 E.06384
G1 X20.382 Y40.577 E.00896
G1 X22.276 Y40.577 E.06437
G1 X22.546 Y40.636 E.0094
G1 X24.174 Y41.576 E.0639
G1 X24.385 Y41.774 E.00982
G1 X25.319 Y43.391 E.06346
G1 X25.403 Y43.685 E.0104
G1 X25.403 Y45.535 E.06286
G1 X25.329 Y45.83 E.01033
G1 X24.403 Y47.433 E.06293
G1 X24.209 Y47.642 E.0097
G1 X22.589 Y48.578 E.06359
G1 X22.336 Y48.661 E.00904
G1 X20.445 Y48.661 E.06428
G1 X20.373 Y48.647 E.00248
G1 X20.413 Y48.236 F9000
;TYPE:Outer wall
G1 F1800
G1 X20.341 Y48.216 E.00254
G1 X18.755 Y47.301 E.06223
G1 X18.678 Y47.225 E.00367
G1 X17.735 Y45.567 E.06483
G1 X17.735 Y43.704 E.06332
G1 X17.763 Y43.599 E.00367
G1 X18.678 Y42.014 E.06223
G1 X18.755 Y41.937 E.00367
G1 X20.341 Y41.022 E.06223
G1 X20.445 Y40.994 E.00367
G1 X22.276 Y40.994 E.06223
G1 X22.38 Y41.022 E.00367
G1 X23.966 Y41.937 E.06223
G1 X24.042 Y42.014 E.00367
G1 X24.958 Y43.599 E.06223
G1 X24.986 Y43.704 E.00367
G1 X24.986 Y45.535 E.06223
G1 X24.958 Y45.639 E.00367
G1 X24.042 Y47.225 E.06223
G1 X23.966 Y47.301 E.00367
G1 X22.38 Y48.216 E.06223
G1 X22.276 Y48.244 E.00367
G1 X20.452 Y48.244 E.062
G1 E-.84 F2400
;WIPE_START
G1 F1800
G1 X20.341 Y48.216 E-.04123
G1 X19.574 Y47.774 E-.31877
;WIPE_END
G1 Z.6 F9000
G1 X3.152 Y45.342 Z.6
G1 Z.2
G1 E1.2 F1800
;TYPE:Inner wall
G1 X45.342 Y3.152 E2.02784
G1 X216.848 Y174.658 E8.24332
G1 X174.658 Y216.848 E2.02784
G1 X3.18 Y45.37 E8.24196
G1 X2.562 Y45.342 F9000
;TYPE:Outer wall
G1 F1800
G1 X45.342 Y2.562 E2.05619
G1 X217.438 Y174.658 E8.27167
G1 X174.658 Y217.438 E2.05619
G1 X2.59 Y45.37 E8.27031
G1 E-.84 F2400
;WIPE_START
G1 F1800
G1 X3.297 Y44.663 E-.36
;WIPE_END
G1 Z.6 F9000
G1 X216.538 Y174.791
G1 Z.6
M73 P1 R121
G1 Z.2
G1 E1.2 F1800
;TYPE:Bottom surface
;WIDTH:0.461633
G1 F4800
G1 X45.342 Y3.595 E8.26067
G1 X45.045 Y3.891 E.01429
G1 X216.109 Y174.955 E8.25427
G1 X215.813 Y175.251 E.01429
G1 X44.749 Y4.187 E8.25427
G1 X44.453 Y4.483 E.01429
M73 P1 R120
G1 X215.517 Y175.547 E8.25427
G1 X215.221 Y175.843 E.01429
G1 X44.157 Y4.779 E8.25427
G1 X43.861 Y5.075 E.01429
G1 X214.925 Y176.139 E8.25427
G1 X214.629 Y176.435 E.01429
G1 X43.565 Y5.371 E8.25427
G1 X43.269 Y5.668 E.01429
G1 X214.332 Y176.731 E8.25427
G1 X214.036 Y177.027 E.01429
G1 X42.973 Y5.964 E8.25427
G1 X42.677 Y6.26 E.01429
G1 X213.74 Y177.323 E8.25427
G1 X213.444 Y177.619 E.01429
G1 X42.381 Y6.556 E8.25427
G1 X42.085 Y6.852 E.01429
G1 X213.148 Y177.915 E8.25427
G1 X212.852 Y178.211 E.01429
G1 X41.789 Y7.148 E8.25427
G1 X41.493 Y7.444 E.01429
G1 X212.556 Y178.507 E8.25427
G1 X212.26 Y178.804 E.01429
G1 X41.196 Y7.74 E8.25427
G1 X40.9 Y8.036 E.01429
G1 X211.964 Y179.1 E8.25427
G1 X211.668 Y179.396 E.01429
G1 X40.604 Y8.332 E8.25427
G1 X40.308 Y8.628 E.01429
G1 X211.372 Y179.692 E8.25427
G1 X211.076 Y179.988 E.01429
G1 X40.012 Y8.924 E8.25427
G1 X39.716 Y9.22 E.01429
G1 X210.78 Y180.284 E8.25427
G1 X210.483 Y180.58 E.01429
G1 X39.42 Y9.517 E8.25427
G1 X39.124 Y9.813 E.01429
G1 X47.041 Y17.73 E.38202
G1 X47.725 Y18.141 E.02724
M73 P1 R119
G1 X47.888 Y18.318 E.00819
G1 X48.244 Y18.933 E.02424
G1 X124.051 Y94.74 E3.65791
G1 X124.606 Y95.06 E.02184
G1 X124.795 Y95.205 E.00813
G1 X124.94 Y95.394 E.00813
G1 X125.26 Y95.949 E.02184
G1 X201.062 Y171.75 E3.65764
G1 X201.616 Y172.07 E.02184
G1 X201.805 Y172.215 E.00813
G1 X201.95 Y172.405 E.00813
G1 X202.27 Y172.959 E.02184
G1 X210.187 Y180.876 E.38202
G1 X209.891 Y181.172 E.01429
G1 X202.968 Y174.249 E.33406
G1 X202.995 Y174.459 E.00721
G1 X202.995 Y174.868 E.01395
G1 X209.595 Y181.468 E.31849
G1 X209.299 Y181.764 E.01429
G1 X202.995 Y175.46 E.3042
G1 X202.995 Y176.052 E.0202
G1 X209.003 Y182.06 E.28992
G1 X208.707 Y182.356 E.01429
G1 X202.942 Y176.591 E.2782
G1 X202.873 Y176.759 E.00621
G1 X202.743 Y176.984 E.00886
G1 X208.411 Y182.652 E.2735
G1 X208.115 Y182.949 E.01429
M73 P2 R119
G1 X202.526 Y177.36 E.26968
G1 X202.309 Y177.735 E.01479
G1 X207.819 Y183.245 E.26585
G1 X207.523 Y183.541 E.01429
G1 X202.093 Y178.111 E.26202
G1 X201.95 Y178.357 E.00972
G1 X201.862 Y178.472 E.00494
G1 X207.227 Y183.837 E.25886
G1 X206.931 Y184.133 E.01429
G1 X201.536 Y178.738 E.26033
G1 X201.16 Y178.955 E.01479
G1 X206.635 Y184.429 E.26415
G1 X206.338 Y184.725 E.01429
G1 X200.785 Y179.171 E.26798
G1 X200.409 Y179.388 E.01479
G1 X206.042 Y185.021 E.27181
G1 X205.746 Y185.317 E.01429
G1 X200.034 Y179.605 E.27564
G1 X199.79 Y179.707 E.00901
G1 X199.572 Y179.735 E.00752
G1 X205.45 Y185.613 E.28365
G1 X205.154 Y185.909 E.01429
G1 X198.981 Y179.736 E.29788
G1 X198.389 Y179.736 E.0202
G1 X204.858 Y186.205 E.31217
G1 X204.562 Y186.501 E.01429
G1 X197.593 Y179.533 E.33626
G1 E-.84 F2400
;WIPE_START
G1 F4800
G1 X198.3 Y180.24 E-.36
;WIPE_END
G1 Z.6 F9000
G1 X200.173 Y171.454 Z.6
G1 Z.2
G1 E1.2 F1800
G1 F4800
G1 X125.958 Y97.239 E3.5811
G1 X125.985 Y97.448 E.00721
G1 X125.985 Y97.857 E.01395
G1 X199.153 Y171.026 E3.53057
G1 X198.561 Y171.026 E.0202
G1 X125.985 Y98.45 E3.50199
G1 X125.985 Y99.042 E.0202
G1 X197.969 Y171.026 E3.47342
G1 X197.718 Y171.026 E.00854
G1 X197.51 Y171.05 E.00717
G1 X197.431 Y171.081 E.00287
G1 X125.93 Y99.579 E3.45015
G1 X125.863 Y99.749 E.00622
G1 X125.733 Y99.974 E.00888
G1 X197.036 Y171.278 E3.44061
G1 X196.661 Y171.495 E.01479
G1 X125.516 Y100.349 E3.43297
G1 X125.299 Y100.725 E.01479
G1 X196.286 Y171.712 E3.42533
G1 X195.911 Y171.929 E.01479
G1 X125.082 Y101.1 E3.41769
G1 X124.94 Y101.347 E.00972
G1 X124.851 Y101.462 E.00494
G1 X195.546 Y172.157 E3.41123
G1 X195.471 Y172.22 E.00337
G1 X195.283 Y172.486 E.0111
G1 X124.525 Y101.727 E3.4143
G1 X124.149 Y101.944 E.01479
G1 X195.066 Y172.861 E3.42194
G1 X194.85 Y173.236 E.01479
G1 X123.774 Y102.161 E3.42958
G1 X123.399 Y102.378 E.01479
G1 X194.633 Y173.611 E3.43722
G1 X194.416 Y173.987 E.01479
G1 X123.024 Y102.594 E3.44486
G1 X122.761 Y102.701 E.00967
G1 X122.561 Y102.724 E.00686
G1 X194.286 Y174.449 E3.4609
G1 X194.285 Y175.04 E.02016
G1 X121.971 Y102.726 E3.48935
G1 X121.378 Y102.726 E.0202
G1 X194.285 Y175.632 E3.51792
G1 X194.285 Y176.224 E.0202
G1 X120.58 Y102.519 E3.55645
G1 E-.84 F2400
;WIPE_START
G1 F4800
G1 X121.287 Y103.226 E-.36
