; HEADER_BLOCK_START
; generated by OrcaSlicer 2.2.0 on 2024-12-22 at 15:32:19
; total layer number: 25
; filament_density: 1.24
; filament_diameter: 1.75
; max_z_height: 5.00
; HEADER_BLOCK_END

; external perimeters extrusion width = 0.42mm
; perimeters extrusion width = 0.45mm
; infill extrusion width = 0.45mm
; solid infill extrusion width = 0.42mm
; top infill extrusion width = 0.42mm
; first layer extrusion width = 0.46mm

; EXECUTABLE_BLOCK_START
M201 X2500 Y2500 Z500 E5000
M203 X250 Y250 Z5 E40
M204 P2500 R500 T2500 ; sets acceleration (P, T) and retract acceleration (R), mm/sec^2
M205 X10.00 Y10.00 Z0.40 E5.00 ; sets the jerk limits, mm/sec
;TYPE:Custom
M220 S100 ;Reset Feedrate 
M221 S100 ;Reset Flowrate 
 
M104 S220 ;Set final nozzle temp 
M190 S55 ;Set and wait for bed temp to stabilize 
G28 ;Home 
G92 E0 ;Reset Extruder 
G1 Z2.0 F3000 ;Move Z Axis up 
G1 X-2.1 Y20 Z0.28 F5000.0 ;Move to start position 
M109 S220 ;Wait for nozzle temp to stabilize 
G1 X-2.1 Y145.0 Z0.28 F1500.0 E15 ;Draw the first line 
G1 X-2.4 Y145.0 Z0.28 F5000.0 ;Move to side a little 
G1 X-2.4 Y20 Z0.28 F1500.0 E30 ;Draw the second line 
G92 E0  ;Reset Extruder 
G1 E-1.0000 F1800 ;Retract a bit 
G1 Z2.0 F3000 ;Move Z Axis up 
G1 E0.0000 F1800
G90
G21
M83 ; use relative distances for extrusion
; filament start gcode
M106 S0
;LAYER_CHANGE
;Z:0.2
;HEIGHT:0.2
;BEFORE_LAYER_CHANGE
;0.2
G92 E0

G1 E-1.2 F2400
;_SET_FAN_SPEED_CHANGING_LAYER
M204 P500
; printing object Gantries-prod.stl_2 id:2383648938240 copy 0
M204 T500
G1 Z.6 F9000
G1 X170.313 Y80.167
G1 Z.6
G1 Z.2
G1 E1.2 F1800
;TYPE:Inner wall
;WIDTH:0.459999
G1 X170.313 Y139.833 E2.02784
G1 X49.687 Y139.833 E4.09967
G1 X49.687 Y80.167 E2.02784
G1 X170.273 Y80.167 E4.09831
G1 X170.73 Y79.75 F9000
;TYPE:Outer wall
G1 F1800
G1 X170.73 Y140.25 E2.05619
G1 X49.27 Y140.25 E4.12802
G1 X49.27 Y79.75 E2.05619
G1 X170.69 Y79.75 E4.12666
G1 E-.84 F2400
;WIPE_START
G1 F1800
M73 P0 R64
G1 X170.691 Y80.75 E-.36
;WIPE_END
G1 Z.6 F9000
G1 X157.949 Y122.296 Z.6
G1 Z.2
G1 E1.2 F1800
;TYPE:Inner wall
G1 X158.071 Y122.296 E.00415
G1 X159.425 Y122.565 E.0469
G1 X159.65 Y122.659 E.0083
G1 X160.798 Y123.425 E.0469
G1 X160.97 Y123.598 E.0083
G1 X161.737 Y124.745 E.0469
G1 X161.83 Y124.971 E.0083
G1 X162.099 Y126.324 E.0469
G1 X162.099 Y126.569 E.0083
G1 X161.83 Y127.922 E.0469
G1 X161.737 Y128.148 E.0083
G1 X160.97 Y129.295 E.0469
G1 X160.798 Y129.468 E.0083
G1 X159.65 Y130.234 E.0469
G1 X159.425 Y130.328 E.0083
G1 X158.071 Y130.597 E.0469
G1 X157.827 Y130.597 E.0083
G1 X156.473 Y130.328 E.0469
G1 X156.248 Y130.234 E.0083
G1 X155.1 Y129.468 E.0469
G1 X154.928 Y129.295 E.0083
G1 X154.161 Y128.148 E.0469
G1 X154.068 Y127.922 E.0083
G1 X153.799 Y126.569 E.0469
G1 X153.799 Y126.324 E.0083
M73 P1 R64
G1 X154.068 Y124.971 E.0469
G1 X154.161 Y124.745 E.0083
G1 X154.928 Y123.598 E.0469
G1 X155.1 Y123.425 E.0083
G1 X156.248 Y122.659 E.0469
G1 X156.473 Y122.565 E.0083
G1 X157.827 Y122.296 E.0469
G1 X157.909 Y122.296 E.00279
G1 X157.952 Y122.698 F9000
;TYPE:Outer wall
G1 F1800
G1 X159.384 Y122.982 E.04963
G1 X160.6 Y123.795 E.04972
G1 X161.413 Y125.012 E.04972
G1 X161.699 Y126.446 E.04972
G1 X161.413 Y127.881 E.04972
G1 X160.6 Y129.098 E.04972
G1 X159.384 Y129.911 E.04972
G1 X157.949 Y130.196 E.04972
G1 X156.514 Y129.911 E.04972
G1 X155.298 Y129.098 E.04972
G1 X154.485 Y127.881 E.04972
G1 X154.199 Y126.446 E.04972
G1 X154.485 Y125.012 E.04972
G1 X155.298 Y123.795 E.04972
G1 X156.514 Y122.982 E.04972
G1 X157.912 Y122.704 E.04845
G1 E-.84 F2400
;WIPE_START
G1 F1800
G1 X158.895 Y122.89 E-.36
;WIPE_END
G1 Z.6 F9000
G1 X157.949 Y97.704 Z.6
G1 Z.2
G1 E1.2 F1800
;TYPE:Inner wall
G1 X157.827 Y97.704 E.00415
G1 X156.473 Y97.435 E.0469
G1 X156.248 Y97.341 E.0083
G1 X155.1 Y96.575 E.0469
G1 X154.928 Y96.402 E.0083
G1 X154.161 Y95.255 E.0469
G1 X154.068 Y95.029 E.0083
G1 X153.799 Y93.676 E.0469
G1 X153.799 Y93.431 E.0083
G1 X154.068 Y92.078 E.0469
G1 X154.161 Y91.852 E.0083
G1 X154.928 Y90.705 E.0469
G1 X155.1 Y90.532 E.0083
G1 X156.248 Y89.766 E.0469
G1 X156.473 Y89.672 E.0083
G1 X157.827 Y89.403 E.0469
G1 X158.071 Y89.403 E.0083
G1 X159.425 Y89.672 E.0469
G1 X159.65 Y89.766 E.0083
G1 X160.798 Y90.532 E.0469
G1 X160.97 Y90.705 E.0083
G1 X161.737 Y91.852 E.0469
G1 X161.83 Y92.078 E.0083
G1 X162.099 Y93.431 E.0469
G1 X162.099 Y93.676 E.0083
G1 X161.83 Y95.029 E.0469
G1 X161.737 Y95.255 E.0083
G1 X160.97 Y96.402 E.0469
G1 X160.798 Y96.575 E.0083
G1 X159.65 Y97.341 E.0469
G1 X159.425 Y97.435 E.0083
G1 X158.071 Y97.704 E.0469
G1 X157.989 Y97.704 E.00279
G1 X157.946 Y97.302 F9000
;TYPE:Outer wall
G1 F1800
G1 X156.514 Y97.018 E.04963
G1 X155.298 Y96.205 E.04972
G1 X154.485 Y94.988 E.04972
G1 X154.199 Y93.554 E.04972
G1 X154.485 Y92.119 E.04972
G1 X155.298 Y90.902 E.04972
G1 X156.514 Y90.089 E.04972
G1 X157.949 Y89.804 E.04972
G1 X159.384 Y90.089 E.04972
G1 X160.6 Y90.902 E.04972
G1 X161.413 Y92.119 E.04972
G1 X161.699 Y93.553 E.04972
G1 X161.413 Y94.988 E.04972
G1 X160.6 Y96.205 E.04972
G1 X159.384 Y97.018 E.04972
G1 X157.986 Y97.296 E.04845
G1 E-.84 F2400
;WIPE_START
G1 F1800
G1 X157.003 Y97.11 E-.36
;WIPE_END
G1 Z.6 F9000
G1 X58.216 Y91.965 Z.6
G1 Z.2
G1 E1.2 F1800
;TYPE:Inner wall
G1 X58.263 Y91.852 E.00415
G1 X59.03 Y90.705 E.0469
G1 X59.202 Y90.532 E.0083
G1 X60.35 Y89.766 E.0469
G1 X60.575 Y89.672 E.0083
G1 X61.929 Y89.403 E.0469
G1 X62.173 Y89.403 E.0083
G1 X63.527 Y89.672 E.0469
G1 X63.752 Y89.766 E.0083
G1 X64.9 Y90.532 E.0469
G1 X65.072 Y90.705 E.0083
G1 X65.839 Y91.852 E.0469
G1 X65.932 Y92.078 E.0083
G1 X66.201 Y93.431 E.0469
G1 X66.201 Y93.676 E.0083
G1 X65.932 Y95.029 E.0469
G1 X65.839 Y95.255 E.0083
G1 X65.072 Y96.402 E.0469
G1 X64.899 Y96.575 E.0083
G1 X63.752 Y97.341 E.0469
G1 X63.527 Y97.435 E.0083
G1 X62.173 Y97.704 E.0469
G1 X61.929 Y97.704 E.0083
G1 X60.575 Y97.435 E.0469
G1 X60.35 Y97.341 E.0083
G1 X59.202 Y96.575 E.0469
G1 X59.03 Y96.402 E.0083
G1 X58.263 Y95.255 E.0469
G1 X58.17 Y95.029 E.0083
G1 X57.901 Y93.676 E.0469
G1 X57.901 Y93.431 E.0083
G1 X58.17 Y92.078 E.0469
G1 X58.201 Y92.002 E.00279
G1 X58.586 Y92.121 F9000
;TYPE:Outer wall
G1 F1800
G1 X58.587 Y92.119 E.00009
G1 X59.4 Y90.902 E.04972
G1 X60.616 Y90.089 E.04972
G1 X62.051 Y89.804 E.04972
G1 X63.486 Y90.089 E.04972
G1 X64.702 Y90.902 E.04972
G1 X65.515 Y92.119 E.04972
G1 X65.801 Y93.554 E.04972
G1 X65.515 Y94.988 E.04972
G1 X64.702 Y96.205 E.04972
G1 X63.486 Y97.018 E.04972
G1 X62.051 Y97.303 E.04972
G1 X60.616 Y97.018 E.04972
G1 X59.4 Y96.205 E.04972
G1 X58.587 Y94.988 E.04972
G1 X58.301 Y93.554 E.04972
G1 X58.579 Y92.16 E.04827
G1 E-.84 F2400
;WIPE_START
G1 F1800
G1 X58.587 Y92.119 E-.01536
G1 X59.119 Y91.323 E-.34464
;WIPE_END
G1 Z.6 F9000
G1 X59.116 Y129.381 Z.6
G1 Z.2
G1 E1.2 F1800
;TYPE:Inner wall
G1 X59.03 Y129.295 E.00415
G1 X58.263 Y128.148 E.0469
G1 X58.17 Y127.922 E.0083
G1 X57.901 Y126.569 E.0469
G1 X57.901 Y126.324 E.0083
G1 X58.17 Y124.971 E.0469
G1 X58.263 Y124.745 E.0083
G1 X59.03 Y123.598 E.0469
G1 X59.202 Y123.425 E.0083
G1 X60.35 Y122.659 E.0469
G1 X60.575 Y122.565 E.0083
G1 X61.929 Y122.296 E.0469
G1 X62.173 Y122.296 E.0083
G1 X63.527 Y122.565 E.0469
G1 X63.752 Y122.659 E.0083
G1 X64.9 Y123.425 E.0469
G1 X65.072 Y123.598 E.0083
G1 X65.839 Y124.745 E.0469
G1 X65.932 Y124.971 E.0083
G1 X66.201 Y126.324 E.0469
G1 X66.201 Y126.569 E.0083
G1 X65.932 Y127.922 E.0469
G1 X65.839 Y128.148 E.0083
G1 X65.072 Y129.295 E.0469
G1 X64.9 Y129.468 E.0083
G1 X63.752 Y130.234 E.0469
G1 X63.527 Y130.328 E.0083
G1 X62.173 Y130.597 E.0469
G1 X61.998 Y130.611 E.00596
G1 X60.575 Y130.328 E.0493
G1 X60.35 Y130.234 E.0083
G1 X59.202 Y129.468 E.0469
G1 X59.144 Y129.41 E.00279
G1 X59.402 Y129.099 F9000
;TYPE:Outer wall
G1 F1800
G1 X59.4 Y129.098 E.00009
G1 X58.587 Y127.881 E.04972
G1 X58.301 Y126.446 E.04972
G1 X58.587 Y125.012 E.04972
G1 X59.4 Y123.795 E.04972
G1 X60.616 Y122.982 E.04972
G1 X62.051 Y122.697 E.04972
G1 X63.486 Y122.982 E.04972
G1 X64.702 Y123.795 E.04972
G1 X65.515 Y125.012 E.04972
G1 X65.801 Y126.447 E.04972
G1 X65.515 Y127.881 E.04972
G1 X64.702 Y129.098 E.04972
G1 X63.486 Y129.911 E.04972
G1 X62.051 Y130.196 E.04972
G1 X60.616 Y129.911 E.04972
G1 X59.435 Y129.122 E.04827
G1 E-.84 F2400
;WIPE_START
G1 F1800
G1 X59.4 Y129.098 E-.01536
G1 X58.868 Y128.302 E-.34464
;WIPE_END
G1 Z.6 F9000
G1 X169.342 Y80.292
G1 Z.6
G1 Z.2
G1 E1.2 F1800
;TYPE:Bottom surface
;WIDTH:0.46131
G1 F4800
G1 X170 Y80.95 E.03174
G1 X170 Y81.542 E.02017
G1 X168.938 Y80.48 E.05122
G1 X168.346 Y80.48 E.02017
G1 X170 Y82.134 E.07974
G1 X170 Y82.725 E.02017
G1 X167.755 Y80.48 E.10827
G1 X167.163 Y80.48 E.02017
G1 X170 Y83.317 E.1368
G1 X170 Y83.909 E.02017
G1 X166.571 Y80.48 E.16533
G1 X165.979 Y80.48 E.02017
G1 X170 Y84.501 E.19386
G1 X170 Y85.092 E.02017
G1 X165.388 Y80.48 E.22239
G1 X164.796 Y80.48 E.02017
G1 X170 Y85.684 E.25092
G1 X170 Y86.276 E.02017
G1 X164.204 Y80.48 E.27945
G1 X163.613 Y80.48 E.02017
G1 X170 Y86.867 E.30797
G1 X170 Y87.459 E.02017
G1 X163.021 Y80.48 E.3365
G1 X162.429 Y80.48 E.02017
G1 X170 Y88.051 E.36503
G1 X170 Y88.642 E.02017
G1 X161.838 Y80.48 E.39356
G1 X161.246 Y80.48 E.02017
G1 X170 Y89.234 E.42209
G1 X170 Y89.826 E.02017
G1 X160.654 Y80.48 E.45062
G1 X160.063 Y80.48 E.02017
G1 X170 Y90.418 E.47915
G1 X170 Y91.009 E.02017
G1 X159.471 Y80.48 E.50768
G1 X158.879 Y80.48 E.02017
G1 X170 Y91.601 E.5362
G1 X170 Y92.193 E.02017
G1 X158.287 Y80.48 E.56473
G1 X157.696 Y80.48 E.02017
G1 X170 Y92.784 E.59326
G1 X170 Y93.376 E.02017
G1 X157.104 Y80.48 E.62179
G1 X156.512 Y80.48 E.02017
G1 X170 Y93.968 E.65032
G1 X170 Y94.559 E.02017
G1 X155.921 Y80.48 E.67885
G1 X155.329 Y80.48 E.02017
G1 X170 Y95.151 E.70738
G1 X170 Y95.743 E.02017
G1 X154.737 Y80.48 E.73591
G1 X154.146 Y80.48 E.02017
G1 X170 Y96.334 E.76443
G1 X170 Y96.926 E.02017
G1 X153.554 Y80.48 E.79296
G1 X152.962 Y80.48 E.02017
G1 X170 Y97.518 E.82149
G1 X170 Y98.11 E.02017
G1 X152.37 Y80.48 E.85002
G1 X151.779 Y80.48 E.02017
G1 X170 Y98.701 E.87855
G1 X170 Y99.293 E.02017
G1 X151.187 Y80.48 E.90708
G1 X150.595 Y80.48 E.02017
G1 X159.489 Y89.373 E.4288
G1 X158.745 Y89.222 E.02586
G1 X150.004 Y80.48 E.42149
G1 X149.412 Y80.48 E.02017
G1 X158.019 Y89.087 E.41498
G1 X157.887 Y89.079 E.0045
G1 X157.497 Y89.157 E.01354
G1 X148.82 Y80.48 E.41837
G1 X148.229 Y80.48 E.02017
G1 X157.004 Y89.255 E.42311
G1 X156.511 Y89.354 E.01715
G1 X147.637 Y80.48 E.42785
G1 X147.045 Y80.48 E.02017
G1 X156.072 Y89.507 E.43524
G1 X155.719 Y89.745 E.01453
G1 X146.454 Y80.48 E.44675
G1 X145.862 Y80.48 E.02017
G1 X155.366 Y89.984 E.45825
G1 X155.013 Y90.223 E.01453
G1 X145.27 Y80.48 E.46976
G1 X144.678 Y80.48 E.02017
G1 X154.696 Y90.497 E.483
G1 X154.458 Y90.851 E.01453
G1 X144.087 Y80.48 E.50004
G1 X143.495 Y80.48 E.02017
G1 X154.223 Y91.208 E.51726
G1 X153.989 Y91.565 E.01457
G1 X142.903 Y80.48 E.53448
G1 X142.312 Y80.48 E.02017
G1 X153.782 Y91.95 E.55303
G1 X153.677 Y92.437 E.01699
G1 X141.72 Y80.48 E.57653
G1 X141.128 Y80.48 E.02017
G1 X153.579 Y92.931 E.60032
G1 X153.485 Y93.429 E.01727
G1 X140.537 Y80.48 E.62432
G1 X139.945 Y80.48 E.02017
G1 X153.564 Y94.099 E.65664
G1 X153.711 Y94.837 E.02568
G1 X139.166 Y80.292 E.7013
G1 E-.84 F2400
;WIPE_START
G1 F4800
G1 X139.873 Y80.999 E-.36
;WIPE_END
G1 Z.6 F9000
G1 X161.72 Y91.604 Z.6
G1 Z.2
G1 E1.2 F1800
G1 F4800
G1 X170 Y99.885 E.39925
G1 X170 Y100.476 E.02017
G1 X162.285 Y92.761 E.37198
G1 X162.418 Y93.486 E.02512
G1 X170 Y101.068 E.36557
G1 X170 Y101.66 E.02017
G1 X162.352 Y94.011 E.36877
G1 X162.253 Y94.505 E.01716
G1 X170 Y102.251 E.37351
G1 X170 Y102.843 E.02017
G1 X162.155 Y94.998 E.37824
G1 X162.083 Y95.269 E.00957
G1 X161.996 Y95.43 E.00624
G1 X170 Y103.435 E.38594
G1 X170 Y104.026 E.02017
G1 X161.757 Y95.783 E.39745
G1 X161.518 Y96.136 E.01453
G1 X170 Y104.618 E.40895
G1 X170 Y105.21 E.02017
G1 X161.28 Y96.489 E.42046
G1 X161.152 Y96.679 E.00778
G1 X161.005 Y96.806 E.00664
G1 X170 Y105.802 E.4337
G1 X170 Y106.393 E.02017
G1 X160.654 Y97.047 E.45064
G1 X160.299 Y97.284 E.01454
G1 X170 Y106.985 E.46774
G1 X170 Y107.577 E.02017
G1 X159.944 Y97.521 E.48484
G1 X159.651 Y97.693 E.01159
G1 X159.554 Y97.722 E.00347
G1 X170 Y108.168 E.50368
G1 X170 Y108.76 E.02017
G1 X159.065 Y97.825 E.52723
G1 X158.572 Y97.923 E.01716
G1 X170 Y109.352 E.55102
G1 X170 Y109.943 E.02017
G1 X158.074 Y98.017 E.57503
G1 X157.954 Y98.029 E.00409
G1 X157.771 Y98.012 E.00628
G1 X157.404 Y97.939 E.01277
G1 X170 Y110.535 E.60734
G1 X170 Y111.127 E.02017
G1 X156.422 Y97.548 E.65468
G1 E-.84 F2400
;WIPE_START
G1 F4800
G1 X157.129 Y98.256 E-.36
;WIPE_END
G1 Z.6 F9000
G1 X170.188 Y111.906 Z.6
G1 Z.2
G1 E1.2 F1800
G1 F4800
G1 X138.762 Y80.48 E1.51523
G1 X138.17 Y80.48 E.02017
G1 X170 Y112.31 E1.53471
G1 X170 Y112.902 E.02017
G1 X137.578 Y80.48 E1.56324
G1 X136.986 Y80.48 E.02017
G1 X170 Y113.494 E1.59177
G1 X170 Y114.085 E.02017
G1 X136.395 Y80.48 E1.6203
G1 X135.803 Y80.48 E.02017
G1 X170 Y114.677 E1.64883
G1 X170 Y115.269 E.02017
M73 P2 R64
G1 X135.211 Y80.48 E1.67735
G1 X134.62 Y80.48 E.02017
G1 X170 Y115.86 E1.70588
G1 X170 Y116.452 E.02017
G1 X134.028 Y80.48 E1.73441
G1 X133.436 Y80.48 E.02017
G1 X170 Y117.044 E1.76294
G1 X170 Y117.635 E.02017
G1 X132.845 Y80.48 E1.79147
G1 X132.253 Y80.48 E.02017
G1 X170 Y118.227 E1.82
G1 X170 Y118.819 E.02017
G1 X131.661 Y80.48 E1.84853
G1 X131.07 Y80.48 E.02017
G1 X170 Y119.41 E1.87706
G1 X170 Y120.002 E.02017
G1 X130.478 Y80.48 E1.90558
G1 X129.886 Y80.48 E.02017
G1 X170 Y120.594 E1.93411
G1 X170 Y121.186 E.02017
G1 X129.294 Y80.48 E1.96264
G1 X128.703 Y80.48 E.02017
G1 X170 Y121.777 E1.99117
G1 X170 Y122.369 E.02017
G1 X128.111 Y80.48 E2.0197
G1 X127.519 Y80.48 E.02017
G1 X170 Y122.961 E2.04823
G1 X170 Y123.552 E.02017
G1 X126.928 Y80.48 E2.07676
G1 X126.336 Y80.48 E.02017
G1 X170 Y124.144 E2.10529
G1 X170 Y124.736 E.02017
G1 X125.744 Y80.48 E2.13381
G1 X125.153 Y80.48 E.02017
G1 X170 Y125.327 E2.16234
G1 X170 Y125.919 E.02017
G1 X124.561 Y80.48 E2.19087
G1 X123.969 Y80.48 E.02017
G1 X170 Y126.511 E2.2194
G1 X170 Y127.102 E.02017
G1 X123.378 Y80.48 E2.24793
G1 X122.786 Y80.48 E.02017
G1 X170 Y127.694 E2.27646
G1 X170 Y128.286 E.02017
M73 P2 R63
G1 X122.194 Y80.48 E2.30499
G1 X121.602 Y80.48 E.02017
G1 X170 Y128.878 E2.33352
G1 X170 Y129.469 E.02017
G1 X121.011 Y80.48 E2.36204
G1 X120.419 Y80.48 E.02017
G1 X170 Y130.061 E2.39057
G1 X170 Y130.653 E.02017
G1 X119.827 Y80.48 E2.4191
G1 X119.236 Y80.48 E.02017
G1 X170 Y131.244 E2.44763
G1 X170 Y131.836 E.02017
G1 X118.644 Y80.48 E2.47616
G1 X118.052 Y80.48 E.02017
G1 X170 Y132.428 E2.50469
G1 X170 Y133.019 E.02017
G1 X162.198 Y125.217 E.37617
G1 X162.345 Y125.956 E.02568
G1 X170 Y133.611 E.36909
G1 X170 Y134.203 E.02017
G1 X162.409 Y126.611 E.36603
G1 X162.312 Y127.106 E.01719
G1 X170 Y134.794 E.37071
G1 X170 Y135.386 E.02017
G1 X162.213 Y127.599 E.37544
G1 X162.107 Y128.084 E.01693
G1 X170 Y135.978 E.38059
G1 X170 Y136.57 E.02017
G1 X161.898 Y128.467 E.39065
G1 X161.659 Y128.82 E.01452
G1 X170 Y137.161 E.40218
G1 X170 Y137.753 E.02017
G1 X161.42 Y129.172 E.41371
G1 X161.181 Y129.525 E.01452
G1 X170 Y138.345 E.42524
G1 X170 Y138.936 E.02017
G1 X160.863 Y129.799 E.44054
G1 X160.507 Y130.035 E.01456
G1 X169.992 Y139.52 E.45733
G1 X169.401 Y139.52 E.02017
G1 X160.151 Y130.271 E.44597
G1 X159.795 Y130.506 E.01456
G1 X168.809 Y139.52 E.43461
G1 X168.217 Y139.52 E.02017
G1 X159.357 Y130.66 E.42719
G1 X158.864 Y130.758 E.01716
G1 X167.625 Y139.52 E.42246
G1 X167.034 Y139.52 E.02017
G1 X158.37 Y130.856 E.41772
G1 X158.127 Y130.905 E.00845
G1 X157.949 Y130.922 E.0061
G1 X157.833 Y130.911 E.00398
G1 X166.442 Y139.52 E.4151
G1 X165.85 Y139.52 E.02017
G1 X156.857 Y130.527 E.43362
G1 E-.84 F2400
;WIPE_START
G1 F4800
G1 X157.564 Y131.234 E-.36
;WIPE_END
G1 Z.6 F9000
G1 X159.417 Y122.436 Z.6
G1 Z.2
G1 E1.2 F1800
G1 F4800
G1 X117.461 Y80.48 E2.02294
G1 X116.869 Y80.48 E.02017
G1 X158.439 Y122.05 E2.00434
G1 X158.126 Y121.988 E.0109
G1 X157.905 Y121.971 E.00754
G1 X157.791 Y121.993 E.00398
G1 X116.277 Y80.48 E2.00159
G1 X115.686 Y80.48 E.02017
G1 X157.294 Y122.089 E2.00619
G1 X156.798 Y122.184 E.01723
G1 X115.094 Y80.48 E2.0108
G1 X114.502 Y80.48 E.02017
G1 X156.312 Y122.289 E2.01586
