; HEADER_BLOCK_START
; generated by OrcaSlicer 2.2.0 on 2024-12-10 at 20:25:55
; total layer number: 317
; filament_density: 1.24
; filament_diameter: 1.75
; max_z_height: 63.40
; HEADER_BLOCK_END

; external perimeters extrusion width = 0.42mm
; perimeters extrusion width = 0.45mm
; infill extrusion width = 0.45mm
; solid infill extrusion width = 0.42mm
; top infill extrusion width = 0.42mm
; first layer extrusion width = 0.46mm

; EXECUTABLE_BLOCK_START
M201 X2500 Y2500 Z500 E5000
M203 X250 Y250 Z5 E40
M204 P2500 R500 T2500 ; sets acceleration (P, T) and retract acceleration (R), mm/sec^2
M205 X10.00 Y10.00 Z0.40 E5.00 ; sets the jerk limits, mm/sec
;TYPE:Custom
M220 S100 ;Reset Feedrate 
M221 S100 ;Reset Flowrate 
 
M104 S220 ;Set final nozzle temp 
M190 S55 ;Set and wait for bed temp to stabilize 
G28 ;Home 
G92 E0 ;Reset Extruder 
G1 Z2.0 F3000 ;Move Z Axis up 
G1 X-2.1 Y20 Z0.28 F5000.0 ;Move to start position 
M109 S220 ;Wait for nozzle temp to stabilize 
G1 X-2.1 Y145.0 Z0.28 F1500.0 E15 ;Draw the first line 
G1 X-2.4 Y145.0 Z0.28 F5000.0 ;Move to side a little 
G1 X-2.4 Y20 Z0.28 F1500.0 E30 ;Draw the second line 
G92 E0  ;Reset Extruder 
G1 E-1.0000 F1800 ;Retract a bit 
G1 Z2.0 F3000 ;Move Z Axis up 
G1 E0.0000 F1800
G90
G21
M83 ; use relative distances for extrusion
; filament start gcode
M106 S0
;LAYER_CHANGE
;Z:0.2
;HEIGHT:0.2
;BEFORE_LAYER_CHANGE
;0.2
G92 E0

G1 E-1.2 F2400
;_SET_FAN_SPEED_CHANGING_LAYER
M204 P500
; printing object Point.stl id:7811887588677804288 copy 0
M204 T500
G1 Z.6 F9000
G1 X99.792 Y93.187
G1 Z.6
G1 Z.2
G1 E1.2 F1800
;TYPE:Inner wall
;WIDTH:0.459999
G1 X99.817 Y93.17 E.00103
G1 X102.038 Y92.012 E.08513
G1 X104.394 Y91.144 E.08533
G1 X106.96 Y90.569 E.08938
G1 X109.344 Y90.339 E.08139
G1 X111.855 Y90.416 E.08539
G1 X114.336 Y90.812 E.08538
G1 X116.745 Y91.521 E.08534
G1 X119.149 Y92.586 E.08937
G1 X121.238 Y93.853 E.08305
G1 X123.213 Y95.421 E.08569
G1 X124.962 Y97.227 E.08545
G1 X126.53 Y99.339 E.08939
G1 X127.705 Y101.426 E.08139
G1 X128.653 Y103.752 E.08536
G1 X129.319 Y106.294 E.08934
G1 X129.634 Y108.786 E.08535
G1 X129.629 Y111.298 E.08539
G1 X129.31 Y113.775 E.08486
G1 X128.656 Y116.242 E.08674
G1 X127.742 Y118.496 E.08267
G1 X126.514 Y120.688 E.0854
G1 X125.017 Y122.704 E.08535
G1 X123.19 Y124.594 E.08934
G1 X121.223 Y126.156 E.08536
G1 X119.175 Y127.397 E.08139
G1 X116.773 Y128.468 E.08938
G1 X114.365 Y129.181 E.08534
G1 X111.865 Y129.585 E.08607
G1 X109.369 Y129.665 E.08489
G1 X106.814 Y129.41 E.08726
G1 X104.366 Y128.846 E.08538
G1 X102.01 Y127.974 E.08539
G1 X99.886 Y126.866 E.08139
G1 X97.724 Y125.369 E.08938
G1 X95.866 Y123.681 E.08533
G1 X94.234 Y121.764 E.08556
G1 X92.867 Y119.663 E.0852
G1 X91.783 Y117.418 E.08472
G1 X90.987 Y115.04 E.08523
G1 X90.488 Y112.491 E.08827
G1 X90.33 Y109.984 E.08536
G1 X90.492 Y107.477 E.08538
G1 X90.973 Y105.008 E.08551
G1 X91.763 Y102.627 E.08526
G1 X92.852 Y100.363 E.08538
G1 X94.22 Y98.256 E.08538
G1 X95.845 Y96.341 E.08536
G1 X97.758 Y94.602 E.08787
G1 X99.759 Y93.21 E.08284
G1 X99.553 Y92.845 F9000
;TYPE:Outer wall
G1 F1800
G1 X99.6 Y92.812 E.00193
G1 X101.868 Y91.63 E.08694
G1 X104.275 Y90.743 E.08718
G1 X106.894 Y90.157 E.09121
G1 X109.33 Y89.922 E.08318
G1 X111.894 Y90 E.0872
G1 X114.428 Y90.405 E.08719
G1 X116.889 Y91.129 E.08718
G1 X119.342 Y92.215 E.09121
G1 X121.477 Y93.51 E.08486
G1 X123.494 Y95.111 E.08751
G1 X125.281 Y96.957 E.08731
G1 X126.881 Y99.112 E.09121
G1 X128.081 Y101.244 E.08317
G1 X129.049 Y103.619 E.08719
G1 X129.73 Y106.215 E.0912
G1 X130.051 Y108.76 E.08718
G1 X130.046 Y111.326 E.0872
G1 X129.72 Y113.855 E.08669
G1 X129.052 Y116.374 E.08856
G1 X128.119 Y118.677 E.08445
G1 X126.865 Y120.915 E.0872
G1 X125.336 Y122.975 E.08718
G1 X123.47 Y124.903 E.0912
G1 X121.462 Y126.499 E.08719
G1 X119.369 Y127.767 E.08317
G1 X116.918 Y128.86 E.09121
G1 X114.458 Y129.588 E.08718
G1 X111.905 Y130.001 E.08789
G1 X109.355 Y130.083 E.08673
G1 X106.746 Y129.822 E.08909
G1 X104.246 Y129.246 E.08719
G1 X101.84 Y128.356 E.0872
M73 P1 R32
G1 X99.67 Y127.224 E.08317
G1 X97.464 Y125.697 E.09121
G1 X95.566 Y123.971 E.08718
G1 X93.899 Y122.013 E.08738
G1 X92.503 Y119.868 E.08701
G1 X91.395 Y117.575 E.08652
G1 X90.583 Y115.146 E.08706
G1 X90.074 Y112.544 E.09012
G1 X89.912 Y109.984 E.08719
G1 X90.078 Y107.424 E.08719
G1 X90.569 Y104.902 E.08732
G1 X91.376 Y102.471 E.08707
G1 X92.488 Y100.158 E.08719
G1 X93.885 Y98.007 E.08719
G1 X95.545 Y96.051 E.08719
G1 X97.498 Y94.275 E.0897
G1 X99.521 Y92.867 E.08376
G1 E-.84 F2400
;WIPE_START
G1 F1800
G1 X99.6 Y92.812 E-.03485
G1 X100.401 Y92.395 E-.32515
;WIPE_END
G1 Z.6 F9000
G1 X125.482 Y98.137
G1 Z.6
G1 Z.2
G1 E1.2 F1800
;TYPE:Bottom surface
;WIDTH:0.463447
G1 F4800
G1 X122.924 Y95.591 E.12366
G1 X121.059 Y94.111 E.08161
G1 X120.554 Y93.804 E.02025
G1 X126.277 Y99.527 E.27734
G1 X127.044 Y100.888 E.05355
G1 X119.042 Y92.887 E.38776
G1 X117.964 Y92.403 E.04051
G1 X127.629 Y102.069 E.46843
G1 X128.038 Y103.073 E.03714
G1 X116.896 Y91.931 E.53997
G1 X116.637 Y91.816 E.00973
G1 X115.999 Y91.628 E.02278
G1 X128.403 Y104.032 E.60112
G1 X128.614 Y104.838 E.02855
G1 X115.156 Y91.38 E.65219
G1 X114.313 Y91.132 E.0301
G1 X128.825 Y105.644 E.70327
G1 X129.022 Y106.435 E.02793
G1 X113.598 Y91.011 E.74745
G1 X112.89 Y90.898 E.02456
G1 X129.108 Y107.116 E.78592
G1 X129.194 Y107.796 E.02352
G1 X112.183 Y90.785 E.8244
G1 X111.825 Y90.728 E.01239
G1 X111.522 Y90.719 E.01042
G1 X129.28 Y108.477 E.86061
G1 X129.321 Y108.805 E.01133
G1 X129.321 Y109.113 E.01054
G1 X110.908 Y90.7 E.89232
G1 X110.295 Y90.681 E.02103
G1 X129.32 Y109.706 E.92199
G1 X129.318 Y110.3 E.02034
G1 X109.681 Y90.662 E.95166
G1 X109.354 Y90.652 E.01121
G1 X109.101 Y90.677 E.00872
G1 X129.317 Y110.893 E.97973
G1 X129.316 Y111.278 E.01318
G1 X129.293 Y111.463 E.00641
G1 X108.558 Y90.729 E1.00481
G1 X108.016 Y90.782 E.01867
G1 X129.225 Y111.99 E1.02781
G1 X129.157 Y112.517 E.0182
G1 X107.474 Y90.834 E1.0508
G1 X106.939 Y90.894 E.01842
G1 X129.089 Y113.044 E1.0734
G1 X129.021 Y113.571 E.0182
G1 X106.453 Y91.003 E1.09365
G1 X105.968 Y91.112 E.01706
G1 X128.912 Y114.056 E1.11191
G1 X128.787 Y114.526 E.01666
G1 X105.482 Y91.221 E1.12941
G1 X104.996 Y91.33 E.01706
G1 X128.662 Y114.996 E1.14692
G1 X128.538 Y115.466 E.01666
G1 X104.51 Y91.439 E1.16442
G1 X104.073 Y91.596 E.01593
G1 X128.413 Y115.936 E1.17958
G1 X128.358 Y116.142 E.0073
G1 X128.262 Y116.38 E.00879
G1 X103.638 Y91.756 E1.19333
G1 X103.203 Y91.916 E.01587
G1 X128.091 Y116.803 E1.20609
G1 X127.919 Y117.227 E.01565
G1 X102.769 Y92.076 E1.21884
G1 X102.334 Y92.236 E.01587
G1 X127.748 Y117.65 E1.23159
G1 X127.576 Y118.073 E.01565
G1 X101.926 Y92.423 E1.24306
G1 X101.535 Y92.627 E.01511
G1 X127.391 Y118.483 E1.25303
G1 X127.178 Y118.864 E.01497
G1 X101.144 Y92.83 E1.26163
G1 X100.753 Y93.034 E.01511
G1 X126.964 Y119.245 E1.27023
G1 X126.751 Y119.626 E.01497
G1 X100.362 Y93.238 E1.27882
G1 X99.972 Y93.443 E.0151
G1 X126.537 Y120.007 E1.28738
G1 X126.323 Y120.389 E.01497
M73 P2 R32
G1 X99.621 Y93.687 E1.29402
G1 X99.271 Y93.931 E.01464
G1 X126.083 Y120.743 E1.29939
G1 X125.83 Y121.085 E.01457
G1 X98.92 Y94.175 E1.3041
G1 X98.569 Y94.419 E.01464
G1 X125.577 Y121.426 E1.30882
G1 X125.323 Y121.767 E.01457
G1 X98.219 Y94.663 E1.31353
G1 X97.954 Y94.847 E.01107
G1 X97.878 Y94.916 E.00352
G1 X125.07 Y122.109 E1.31779
G1 X124.817 Y122.45 E.01457
G1 X97.566 Y95.2 E1.3206
G1 X97.255 Y95.483 E.01443
G1 X124.53 Y122.758 E1.32182
G1 X124.238 Y123.061 E.01441
G1 X96.943 Y95.766 E1.32274
G1 X96.632 Y96.049 E.01443
G1 X123.945 Y123.363 E1.32367
G1 X123.653 Y123.665 E.01441
G1 X96.32 Y96.332 E1.32459
G1 X96.016 Y96.623 E.01441
G1 X123.36 Y123.967 E1.32515
G1 X123.068 Y124.27 E.01441
G1 X95.743 Y96.945 E1.32421
G1 X95.47 Y97.267 E.01446
G1 X122.748 Y124.545 E1.32195
G1 X122.417 Y124.808 E.01451
G1 X95.197 Y97.588 E1.31912
G1 X94.924 Y97.91 E.01446
G1 X122.085 Y125.071 E1.31628
G1 X121.754 Y125.334 E.01451
G1 X94.651 Y98.232 E1.31345
G1 X94.471 Y98.443 E.00951
G1 X94.391 Y98.567 E.00504
G1 X121.422 Y125.598 E1.30997
G1 X121.091 Y125.861 E.01451
G1 X94.157 Y98.927 E1.30525
G1 X93.923 Y99.288 E.01473
G1 X120.726 Y126.091 E1.29893
G1 X120.356 Y126.315 E.01484
G1 X93.689 Y99.648 E1.29233
G1 X93.455 Y100.009 E.01473
G1 X119.986 Y126.54 E1.28573
G1 X119.615 Y126.764 E.01484
G1 X93.221 Y100.37 E1.27914
G1 X93.125 Y100.517 E.00601
G1 X93.011 Y100.754 E.00904
G1 X119.245 Y126.989 E1.27136
G1 X119.03 Y127.119 E.00863
M73 P2 R31
G1 X118.858 Y127.196 E.00645
G1 X92.818 Y101.156 E1.26194
G1 X92.625 Y101.558 E.01527
G1 X118.446 Y127.379 E1.25137
G1 X118.035 Y127.563 E.01543
G1 X92.432 Y101.959 E1.2408
G1 X92.238 Y102.361 E.01527
G1 X117.624 Y127.746 E1.23022
G1 X117.213 Y127.93 E.01543
G1 X92.047 Y102.765 E1.21955
G1 X91.901 Y103.213 E.01616
G1 X116.801 Y128.113 E1.20672
G1 X116.665 Y128.174 E.00513
G1 X116.358 Y128.265 E.01095
G1 X91.755 Y103.661 E1.19234
G1 X91.608 Y104.109 E.01616
M73 P3 R31
G1 X115.899 Y128.401 E1.1772
G1 X115.44 Y128.536 E.0164
G1 X91.462 Y104.558 E1.16206
G1 X91.315 Y105.006 E.01616
G1 X114.982 Y128.672 E1.14692
G1 X114.523 Y128.808 E.0164
G1 X91.199 Y105.484 E1.13031
G1 X91.102 Y105.982 E.01738
G1 X114.036 Y128.916 E1.11142
G1 X113.522 Y128.997 E.01782
G1 X91.005 Y106.48 E1.09122
G1 X90.908 Y106.978 E.01738
G1 X113.008 Y129.078 E1.07102
G1 X112.495 Y129.159 E.01782
G1 X90.811 Y107.475 E1.05082
G1 X90.77 Y108.029 E.01902
G1 X111.981 Y129.24 E1.02793
G1 X111.756 Y129.276 E.00782
G1 X111.432 Y129.286 E.01109
G1 X90.734 Y108.587 E1.00308
G1 X90.698 Y109.146 E.01918
G1 X110.856 Y129.304 E.97691
G1 X110.28 Y129.323 E.01976
G1 X90.661 Y109.705 E.95074
G1 X90.643 Y109.984 E.00961
G1 X90.663 Y110.301 E.01088
G1 X109.703 Y129.341 E.92272
G1 X109.475 Y129.349 E.00785
G1 X109.078 Y129.311 E.01364
G1 X90.703 Y110.936 E.89048
G1 X90.744 Y111.571 E.0218
G1 X108.421 Y129.249 E.85669
G1 X107.764 Y129.186 E.02262
G1 X90.784 Y112.206 E.82289
G1 X90.799 Y112.451 E.0084
G1 X90.888 Y112.905 E.01587
G1 X107.107 Y129.124 E.78599
G1 X106.865 Y129.101 E.00833
G1 X106.377 Y128.988 E.01717
G1 X91.033 Y113.644 E.74359
G1 X91.177 Y114.384 E.02582
G1 X105.604 Y128.81 E.69913
G1 X104.831 Y128.632 E.02718
G1 X91.356 Y115.157 E.65302
G1 X91.655 Y116.051 E.03229
G1 X103.97 Y128.366 E.59682
G1 X103.026 Y128.017 E.03449
G1 X91.954 Y116.944 E.53659
G1 X92.073 Y117.3 E.01285
G1 X92.407 Y117.992 E.02636
G1 X102.065 Y127.65 E.46804
G1 X100.822 Y127.002 E.04806
G1 X92.963 Y119.143 E.38085
G1 X93.14 Y119.509 E.01392
G1 X93.896 Y120.67 E.04751
G1 X99.318 Y126.092 E.26275
G1 X97.919 Y125.124 E.05829
G1 X96.112 Y123.481 E.08368
G1 X94.508 Y121.878 E.07772
; stop printing object Point.stl id:7811887588677804288 copy 0
M106 S255
;LAYER_CHANGE
;Z:0.4
;HEIGHT:0.2
;BEFORE_LAYER_CHANGE
;0.4
G92 E0

G1 E-.84 F2400
;WIPE_START
G1 F4800
G1 X95.215 Y122.585 E-.36
;WIPE_END
;_SET_FAN_SPEED_CHANGING_LAYER
M204 P2500
; printing object Point.stl id:7811887588677804288 copy 0
M204 T2500
G1 Z.8 F9000
G1 X99.799 Y93.128 Z.8
G1 Z.4
G1 E1.2 F1800
M204 P2000
;TYPE:Inner wall
;WIDTH:0.449999
G1 F5400
G1 X99.809 Y93.121 E.0004
G1 X102.017 Y91.971 E.0826
G1 X104.364 Y91.106 E.08296
G1 X106.553 Y90.602 E.0745
G1 X107.122 Y90.506 E.01914
G1 X109.288 Y90.297 E.0722
G1 X111.581 Y90.36 E.07608
G1 X112.114 Y90.404 E.01774
G1 X114.079 Y90.721 E.06603
G1 X114.579 Y90.828 E.01698
G1 X116.972 Y91.561 E.083
G1 X118.726 Y92.337 E.06364
G1 X119.391 Y92.668 E.02463
G1 X120.946 Y93.611 E.06035
G1 X121.503 Y93.99 E.02233
G1 X123.217 Y95.368 E.07297
G1 X124.964 Y97.16 E.08301
G1 X126.341 Y98.99 E.07596
G1 X126.64 Y99.436 E.01781
G1 X127.616 Y101.168 E.06595
G1 X127.846 Y101.628 E.01706
G1 X128.764 Y103.955 E.083
G1 X129.041 Y105.011 E.03619
G1 X129.38 Y106.381 E.04682
G1 X129.659 Y108.548 E.07248
G1 X129.683 Y109.052 E.01674
G1 X129.669 Y111.367 E.07681
G1 X129.392 Y113.521 E.07204
G1 X129.234 Y114.265 E.02523
G1 X128.674 Y116.329 E.07094
G1 X127.888 Y118.265 E.06932
G1 X127.671 Y118.734 E.01713
G1 X127.149 Y119.662 E.03533
G1 X126.424 Y120.903 E.04767
G1 X124.911 Y122.896 E.083
G1 X123.158 Y124.682 E.08301
G1 X122.262 Y125.396 E.03804
G1 X121.193 Y126.231 E.04498
G1 X119.048 Y127.518 E.08298
G1 X116.749 Y128.525 E.08326
G1 X114.35 Y129.23 E.08295
G1 X111.879 Y129.627 E.08301
G1 X109.714 Y129.707 E.07186
G1 X109.042 Y129.686 E.02231
G1 X107.231 Y129.512 E.06035
G1 X106.72 Y129.439 E.01712
G1 X104.288 Y128.869 E.08287
G1 X101.933 Y127.989 E.08338
G1 X99.728 Y126.828 E.08267
G1 X97.675 Y125.388 E.08319
G1 X95.826 Y123.704 E.08295
G1 X94.205 Y121.799 E.08295
G1 X92.839 Y119.704 E.08297
G1 X91.845 Y117.661 E.07538
G1 X91.649 Y117.2 E.0166
G1 X90.887 Y114.831 E.08254
G1 X90.438 Y112.45 E.08038
G1 X90.285 Y109.954 E.08297
G1 X90.449 Y107.458 E.08295
G1 X90.928 Y105.004 E.08296
G1 X91.714 Y102.63 E.08295
G1 X92.794 Y100.374 E.08295
G1 X94.151 Y98.274 E.08295
G1 X95.769 Y96.356 E.08324
G1 X96.164 Y95.971 E.0183
G1 X97.764 Y94.54 E.0712
G1 X98.67 Y93.903 E.03676
G1 X99.766 Y93.15 E.04409
G1 X99.577 Y92.805 F9000
M204 P1000
;TYPE:Outer wall
;WIDTH:0.419999
G1 F3600
G1 X99.612 Y92.781 E.00131
G1 X101.859 Y91.612 E.0778
G1 X104.252 Y90.73 E.07838
G1 X106.465 Y90.22 E.06978
G1 X107.079 Y90.116 E.01916
G1 X109.275 Y89.904 E.06777
G1 X111.592 Y89.968 E.07122
G1 X112.168 Y90.015 E.01778
G1 X114.141 Y90.334 E.06141
G1 X114.682 Y90.449 E.01697
G1 X116.62 Y91.024 E.06214
G1 X117.12 Y91.197 E.01624
G1 X119.138 Y92.091 E.06782
G1 X119.584 Y92.327 E.0155
G1 X121.158 Y93.281 E.05657
G1 X121.736 Y93.675 E.02148
G1 X123.481 Y95.077 E.0688
G1 X125.262 Y96.905 E.07839
G1 X126.654 Y98.754 E.07113
G1 X126.978 Y99.236 E.01786
G1 X127.957 Y100.976 E.06133
G1 X128.206 Y101.472 E.01705
G1 X128.964 Y103.344 E.06206
G1 X129.14 Y103.845 E.01633
G1 X129.659 Y105.822 E.06279
G1 X129.767 Y106.318 E.0156
G1 X130.049 Y108.508 E.06786
G1 X130.075 Y109.052 E.01673
G1 X130.06 Y111.401 E.07218
G1 X129.778 Y113.587 E.06772
G1 X129.616 Y114.355 E.02414
G1 X129.043 Y116.463 E.06713
G1 X128.252 Y118.413 E.06464
G1 X128.017 Y118.918 E.01711
G1 X127.028 Y120.675 E.06198
G1 X126.744 Y121.128 E.0164
G1 X125.524 Y122.764 E.06271
G1 X125.202 Y123.159 E.01568
G1 X123.414 Y124.979 E.07838
G1 X122.506 Y125.703 E.03568
G1 X121.41 Y126.557 E.04271
G1 X119.222 Y127.869 E.07838
G1 X116.883 Y128.894 E.07847
G1 X114.436 Y129.614 E.07837
G1 X111.917 Y130.018 E.07839
G1 X109.715 Y130.099 E.0677
G1 X109.017 Y130.078 E.02147
G1 X107.184 Y129.901 E.05657
G1 X106.649 Y129.825 E.01663
G1 X104.167 Y129.242 E.07834
G1 X101.773 Y128.347 E.07851
G1 X99.519 Y127.16 E.07828
G1 X97.429 Y125.694 E.07845
G1 X95.543 Y123.977 E.07837
G1 X93.89 Y122.034 E.07837
G1 X92.497 Y119.898 E.07838
G1 X91.493 Y117.832 E.07058
G1 X91.28 Y117.334 E.01665
G1 X90.644 Y115.41 E.06226
G1 X90.504 Y114.917 E.01575
G1 X90.048 Y112.499 E.07561
G1 X89.892 Y109.953 E.07838
G1 X90.059 Y107.408 E.07837
G1 X90.548 Y104.904 E.07838
G1 X91.349 Y102.483 E.07837
G1 X92.451 Y100.183 E.07837
G1 X93.836 Y98.04 E.07837
G1 X95.482 Y96.088 E.07846
G1 X95.896 Y95.686 E.01775
G1 X97.526 Y94.228 E.0672
G1 X98.445 Y93.582 E.03451
G1 X99.544 Y92.828 E.04096
G1 E-.84 F2400
;WIPE_START
G1 F3600
G1 X99.612 Y92.781 E-.02977
G1 X100.426 Y92.358 E-.33023
;WIPE_END
G1 Z.8 F9000
G1 X125.453 Y121.933
G1 Z.8
G1 Z.4
G1 E1.2 F1800
M204 P2500
;TYPE:Internal solid infill
;WIDTH:0.422754
G1 F10800
G1 X122.942 Y124.43 E.1096
G1 X121.007 Y125.956 E.07627
G1 X120.722 Y126.127 E.01029
G1 X126.183 Y120.666 E.23905
G1 X126.316 Y120.465 E.00746
G1 X126.921 Y119.391 E.03815
G1 X119.379 Y126.933 E.33016
G1 X118.898 Y127.222 E.01733
G1 X118.284 Y127.491 E.02076
G1 X127.546 Y118.229 E.40543
G1 X127.913 Y117.325 E.03019
G1 X117.328 Y127.91 E.46334
G1 X116.635 Y128.213 E.02341
G1 X116.425 Y128.275 E.00676
G1 X128.28 Y116.421 E.51889
G1 X128.455 Y115.934 E.01602
G1 X128.535 Y115.629 E.00976
G1 X115.665 Y128.499 E.56335
G1 X114.904 Y128.723 E.02455
G1 X128.725 Y114.901 E.60501
G1 X128.915 Y114.174 E.02326
G1 X114.164 Y128.925 E.6457
G1 X113.524 Y129.028 E.02005
G1 X129.059 Y113.493 E.68
G1 X129.141 Y112.873 E.01933
G1 X112.884 Y129.13 E.7116
G1 X112.245 Y129.233 E.02005
G1 X129.221 Y112.257 E.74308
