; HEADER_BLOCK_START
; generated by OrcaSlicer 2.0.0 on 2024-05-13 at 07:15:23
; total layer number: 48
; filament_density: 1.24
; filament_diameter: 1.75
; max_z_height: 9.60
; HEADER_BLOCK_END

; THUMBNAIL_BLOCK_START

;
; THUMBNAIL_BLOCK_END

; THUMBNAIL_BLOCK_START

;
; THUMBNAIL_BLOCK_END

; external perimeters extrusion width = 0.45mm
; perimeters extrusion width = 0.45mm
; infill extrusion width = 0.45mm
; solid infill extrusion width = 0.45mm
; top infill extrusion width = 0.40mm

; EXECUTABLE_BLOCK_START
M73 P0 R148
M73 C135
M201 X5000 Y5000 Z500 E5000
M203 X500 Y500 Z30 E100
M204 P5000 R2500 T5000 ; sets acceleration (P, T) and retract acceleration (R), mm/sec^2
M205 X10.00 Y10.00 Z0.40 E5.00 ; sets the jerk limits, mm/sec
;TYPE:Custom
M220 S100 ;Reset Feedrate 
M221 S100 ;Reset Flowrate 
 
M140 S55 ;Set final bed temp 
G28 ;Home 
M420 S1; Enable mesh leveling 
G92 E0 ;Reset Extruder 
G1 Z2.0 F3000 ;Move Z Axis up 
M104 S220 ;Set final nozzle temp 
G1 X-2.1 Y20 Z0.28 F5000.0 ;Move to start position 
M190 S55 ;Wait for bed temp to stabilize 
M109 S220 ;Wait for nozzle temp to stabilize 
G1 X-2.1 Y145.0 Z0.28 F1500.0 E15 ;Draw the first line 
G1 X-2.4 Y145.0 Z0.28 F5000.0 ;Move to side a little 
G1 X-2.4 Y20 Z0.28 F1500.0 E30 ;Draw the second line 
G92 E0  ;Reset Extruder 
G1 E-1.0000 F1800 ;Retract a bit 
G1 Z2.0 F3000 ;Move Z Axis up 
G1 E0.0000 F1800
G90
G21
M83 ; use relative distances for extrusion
; filament start gcode
M106 S0
;LAYER_CHANGE
;Z:0.2
;HEIGHT:0.2
;BEFORE_LAYER_CHANGE
;0.2
G92 E0

G1 E-1.2 F1800
;_SET_FAN_SPEED_CHANGING_LAYER
M204 P300
M204 T300
G1 Z.4 F7200
G1 X54.938 Y55.605
G1 Z.4
G1 Z.2
G1 E1.2 F1800
;TYPE:Skirt
;WIDTH:0.45
G1 F3000
G1 X56.735 Y53.83 E.08378
G1 X59.078 Y51.697 E.1051
G1 X61.506 Y49.662 E.1051
G1 X64.016 Y47.728 E.1051
G1 X66.521 Y45.953 E.10184
G1 X69.179 Y44.228 E.1051
G1 X71.83 Y42.654 E.10226
G1 X74.625 Y41.145 E.1054
G1 X77.394 Y39.791 E.10222
G1 X80.177 Y38.564 E.1009
G1 X82.535 Y37.625 E.08418
G1 X86.442 Y36.26 E.13731
G1 X89.851 Y35.257 E.11787
G1 X92.935 Y34.493 E.1054
G1 X95.954 Y33.874 E.10222
G1 X98.997 Y33.375 E.10227
G1 X102.043 Y32.999 E.10183
G1 X105.201 Y32.738 E.1051
G1 X108.367 Y32.606 E.1051
G1 X111.633 Y32.606 E.10837
G1 X114.754 Y32.736 E.1036
G1 X117.957 Y32.999 E.1066
G1 X121.1 Y33.389 E.10506
G1 X124.14 Y33.891 E.10222
G1 X127.065 Y34.493 E.09904
G1 X130.149 Y35.257 E.1054
G1 X133.558 Y36.26 E.11787
G1 X137.406 Y37.602 E.13519
G1 X139.874 Y38.586 E.08815
G1 X142.693 Y39.832 E.10222
G1 X145.46 Y41.188 E.10222
G1 X148.087 Y42.607 E.09904
G1 X150.821 Y44.228 E.10544
G1 X153.479 Y45.953 E.1051
G1 X155.984 Y47.728 E.10184
G1 X158.494 Y49.662 E.1051
G1 X160.922 Y51.697 E.1051
G1 X163.337 Y53.897 E.10837
G1 X165.588 Y56.127 E.1051
G1 X167.745 Y58.446 E.10506
G1 X169.751 Y60.785 E.10222
G1 X171.662 Y63.203 E.10222
G1 X173.421 Y65.615 E.09904
G1 X175.137 Y68.175 E.10222
G1 X176.534 Y70.435 E.08815
G1 X178.524 Y73.992 E.13519
G1 X180.104 Y77.175 E.11787
G1 X181.392 Y80.079 E.1054
G1 X182.526 Y82.945 E.10222
G1 X183.515 Y85.762 E.09904
G1 X184.445 Y88.789 E.10506
G1 X185.251 Y91.854 E.1051
G1 X185.949 Y95.045 E.10837
G1 X186.482 Y98.068 E.10184
G1 X186.906 Y101.208 E.1051
G1 X187.201 Y104.363 E.1051
G1 X187.367 Y107.527 E.1051
G1 X187.403 Y110.705 E.10544
G1 X187.314 Y113.786 E.10222
G1 X187.102 Y116.86 E.10222
G1 X186.706 Y120.391 E.11787
G1 X186.04 Y124.476 E.1373
G1 X185.525 Y126.961 E.08418
G1 X184.8 Y129.915 E.1009
G1 X183.948 Y132.877 E.10222
G1 X182.946 Y135.892 E.1054
G1 X181.857 Y138.776 E.10226
G1 X180.619 Y141.693 E.1051
G1 X179.263 Y144.556 E.1051
G1 X177.79 Y147.362 E.1051
G1 X176.255 Y150.02 E.10184
G1 X174.585 Y152.661 E.10365
G1 X172.761 Y155.304 E.10651
G1 X170.793 Y157.912 E.10837
G1 X168.838 Y160.293 E.10222
G1 X166.855 Y162.525 E.09904
G1 X164.651 Y164.814 E.1054
G1 X162.078 Y167.264 E.11787
G1 X158.942 Y169.966 E.13731
G1 X156.95 Y171.538 E.08418
G1 X154.496 Y173.335 E.1009
G1 X151.939 Y175.056 E.10222
G1 X149.234 Y176.722 E.1054
G1 X146.546 Y178.232 E.10226
G1 X143.811 Y179.627 E.10184
G1 X140.933 Y180.952 E.1051
G1 X138.004 Y182.159 E.1051
G1 X134.934 Y183.276 E.10837
G1 X131.914 Y184.235 E.1051
G1 X128.857 Y185.07 E.1051
G1 X125.866 Y185.759 E.10184
G1 X122.836 Y186.33 E.10226
G1 X119.788 Y186.781 E.10222
G1 X116.628 Y187.118 E.1054
G1 X113.082 Y187.341 E.11788
G1 X108.943 Y187.395 E.1373
G1 X106.407 Y187.319 E.08418
G1 X103.336 Y187.114 E.10211
G1 X100.307 Y186.793 E.10102
G1 X97.164 Y186.33 E.1054
G1 X94.134 Y185.759 E.10226
G1 X91.047 Y185.046 E.1051
G1 X87.992 Y184.207 E.1051
G1 X85.066 Y183.276 E.10184
G1 X82.088 Y182.195 E.1051
G1 X79.108 Y180.97 E.10687
G1 X76.189 Y179.627 E.1066
G1 X73.369 Y178.186 E.10506
G1 X70.683 Y176.674 E.10222
G1 X68.141 Y175.108 E.09904
G1 X65.504 Y173.335 E.1054
G1 X62.644 Y171.227 E.11787
G1 X59.439 Y168.608 E.1373
G1 X57.545 Y166.919 E.08418
G1 X55.324 Y164.788 E.1021
G1 X53.211 Y162.595 E.10102
G1 X51.1 Y160.22 E.1054
G1 X49.146 Y157.835 E.10227
G1 X47.297 Y155.385 E.10183
G1 X45.492 Y152.781 E.1051
G1 X43.796 Y150.105 E.1051
G1 X42.162 Y147.275 E.10837
G1 X40.693 Y144.468 E.1051
G1 X39.341 Y141.603 E.1051
G1 X38.143 Y138.776 E.10184
G1 X37.054 Y135.892 E.10226
G1 X36.081 Y132.968 E.10222
G1 X35.2 Y129.915 E.1054
G1 X34.365 Y126.462 E.11787
G1 X33.593 Y122.395 E.1373
G1 X33.227 Y119.884 E.08418
G1 X32.896 Y116.824 E.1021
G1 X32.686 Y113.786 E.10102
G1 X32.597 Y110.705 E.10222
G1 X32.63 Y107.624 E.10222
G1 X32.799 Y104.363 E.10833
G1 X33.094 Y101.208 E.1051
G1 X33.518 Y98.068 E.1051
M73 C134
G1 X34.062 Y94.993 E.1036
G1 X34.726 Y91.951 E.10329
G1 X35.528 Y88.884 E.10515
G1 X36.485 Y85.762 E.10833
G1 X37.507 Y82.855 E.10222
G1 X38.645 Y79.991 E.10222
G1 X39.855 Y77.262 E.09904
G1 X41.476 Y73.992 E.12105
G1 X43.466 Y70.435 E.13519
G1 X44.832 Y68.222 E.0863
G1 X46.579 Y65.615 E.10408
G1 X48.338 Y63.203 E.09904
G1 X50.249 Y60.785 E.10222
G1 X52.255 Y58.446 E.10222
G1 X54.481 Y56.057 E.10833
G1 X54.91 Y55.633 E.01999
; printing object 2021-03-13 Puzzle Frame.stl id:9223472983172130138 copy 0
G1 E-.84 F1800
;WIPE_START
G1 F3000
G1 X55.621 Y54.93 E-.36
;WIPE_END
G1 Z.6 F7200
G1 X96.42 Y36.879 Z.6
G1 Z.2
G1 E1.2 F1800
;TYPE:Inner wall
;WIDTH:0.449999
G1 X96.46 Y36.871 E.00138
G1 X99.381 Y36.39 E.09821
G1 X102.403 Y36.017 E.10098
G1 X105.436 Y35.768 E.10098
G1 X108.478 Y35.643 E.10098
G1 X111.522 Y35.643 E.10097
G1 X114.52 Y35.766 E.09953
G1 X117.598 Y36.017 E.10243
G1 X120.619 Y36.39 E.10098
G1 X123.54 Y36.871 E.0982
G1 X126.44 Y37.467 E.09821
G1 X129.313 Y38.179 E.09821
G1 X132.157 Y39.005 E.09824
G1 X134.509 Y39.782 E.08216
G1 X136.358 Y40.455 E.06529
G1 X138.654 Y41.37 E.08198
G1 X141.368 Y42.567 E.09838
G1 X144.027 Y43.869 E.09821
G1 X146.632 Y45.275 E.09821
G1 X149.178 Y46.785 E.0982
G1 X151.733 Y48.441 E.10098
G1 X154.217 Y50.2 E.10098
G1 X156.627 Y52.06 E.10098
G1 X158.959 Y54.017 E.10098
G1 X161.208 Y56.067 E.10097
G1 X163.373 Y58.208 E.10098
G1 X165.447 Y60.436 E.10098
G1 X167.376 Y62.682 E.0982
G1 X169.214 Y65.003 E.09821
G1 X170.957 Y67.395 E.09821
G1 X172.605 Y69.856 E.09824
G1 X173.907 Y71.963 E.08215
G1 X174.891 Y73.667 E.06528
G1 X176.062 Y75.844 E.08198
G1 X177.371 Y78.505 E.09838
G1 X178.571 Y81.211 E.09821
G1 X179.663 Y83.963 E.09821
G1 X180.644 Y86.756 E.0982
G1 X181.536 Y89.667 E.10099
G1 X182.307 Y92.612 E.10097
G1 X182.958 Y95.585 E.10098
G1 X183.487 Y98.583 E.10098
G1 X183.892 Y101.6 E.10098
G1 X184.174 Y104.631 E.10098
G1 X184.331 Y107.671 E.10098
G1 X184.365 Y110.631 E.0982
G1 X184.281 Y113.591 E.09821
G1 X184.079 Y116.545 E.09821
G1 X183.694 Y119.988 E.11493
G1 X183.403 Y121.938 E.06543
G1 X183.061 Y123.877 E.06529
G1 X182.558 Y126.302 E.08215
G1 X181.851 Y129.178 E.09824
G1 X181.031 Y132.022 E.0982
G1 X180.098 Y134.832 E.09821
G1 X179.054 Y137.602 E.0982
G1 X177.866 Y140.405 E.10098
G1 X176.565 Y143.157 E.10098
G1 X175.152 Y145.853 E.10098
G1 X173.63 Y148.49 E.10098
G1 X172.025 Y151.025 E.09953
G1 X170.269 Y153.564 E.10243
G1 X168.435 Y155.994 E.10098
G1 X166.558 Y158.284 E.0982
G1 X164.591 Y160.496 E.09821
G1 X162.538 Y162.629 E.09821
G1 X160.03 Y165.019 E.11493
G1 X158.553 Y166.327 E.06543
G1 X157.045 Y167.592 E.06529
G1 X155.101 Y169.126 E.08215
G1 X152.711 Y170.875 E.09824
G1 X150.254 Y172.527 E.09821
G1 X147.733 Y174.079 E.09821
G1 X145.153 Y175.53 E.0982
G1 X142.441 Y176.914 E.10098
G1 X139.676 Y178.186 E.10098
G1 X136.86 Y179.343 E.10098
G1 X134 Y180.384 E.10098
G1 X131.099 Y181.307 E.10098
G1 X128.163 Y182.111 E.10098
G1 X125.196 Y182.794 E.10098
G1 X122.287 Y183.341 E.0982
G1 X119.358 Y183.772 E.09821
G1 X116.414 Y184.086 E.0982
G1 X112.956 Y184.305 E.11493
G1 X110.985 Y184.357 E.06543
G1 X109.016 Y184.357 E.06529
G1 X106.541 Y184.283 E.08215
G1 X103.551 Y184.082 E.09941
G1 X100.642 Y183.772 E.09704
G1 X97.713 Y183.341 E.09821
G1 X94.804 Y182.794 E.0982
G1 X91.837 Y182.111 E.10098
G1 X88.901 Y181.307 E.10098
G1 X86 Y180.384 E.10098
G1 X83.14 Y179.343 E.10098
G1 X80.365 Y178.202 E.09953
G1 X77.558 Y176.914 E.10243
G1 X74.847 Y175.53 E.10097
G1 X72.267 Y174.079 E.0982
G1 X69.746 Y172.527 E.0982
G1 X67.289 Y170.875 E.09821
G1 X64.5 Y168.82 E.11493
G1 X62.956 Y167.592 E.06543
G1 X61.448 Y166.327 E.06529
G1 X59.599 Y164.679 E.08215
G1 X57.438 Y162.604 E.0994
G1 X55.409 Y160.496 E.09705
G1 X53.442 Y158.284 E.09821
G1 X51.565 Y155.994 E.0982
G1 X49.731 Y153.564 E.10098
G1 X47.999 Y151.061 E.10098
G1 X46.37 Y148.49 E.10098
G1 X44.848 Y145.853 E.10098
G1 X43.435 Y143.157 E.10098
G1 X42.134 Y140.405 E.10098
G1 X40.946 Y137.602 E.10098
G1 X39.902 Y134.832 E.0982
G1 X38.969 Y132.022 E.09821
G1 X38.149 Y129.178 E.09821
G1 X37.333 Y125.81 E.11493
G1 X36.939 Y123.878 E.06542
G1 X36.598 Y121.94 E.06529
G1 X36.241 Y119.489 E.08215
G1 X35.919 Y116.51 E.0994
G1 X35.719 Y113.591 E.09705
G1 X35.635 Y110.631 E.09821
G1 X35.669 Y107.671 E.0982
G1 X35.826 Y104.631 E.10098
G1 X36.108 Y101.6 E.10098
G1 X36.513 Y98.583 E.10098
G1 X37.034 Y95.628 E.09953
G1 X37.693 Y92.612 E.10243
G1 X38.464 Y89.667 E.10097
G1 X39.356 Y86.756 E.10099
G1 X40.337 Y83.963 E.0982
G1 X41.429 Y81.211 E.09821
G1 X42.629 Y78.505 E.09821
G1 X43.936 Y75.847 E.09824
G1 X45.109 Y73.667 E.08215
G1 X46.093 Y71.962 E.06528
G1 X47.016 Y70.458 E.05853
G1 X47.392 Y69.86 E.02345
G1 X49.043 Y67.395 E.09838
G1 X50.786 Y65.003 E.09821
G1 X52.624 Y62.682 E.09821
G1 X54.553 Y60.436 E.0982
G1 X56.627 Y58.208 E.10098
G1 X58.792 Y56.067 E.10098
G1 X61.041 Y54.017 E.10097
G1 X63.373 Y52.06 E.10098
G1 X65.783 Y50.2 E.10098
G1 X68.267 Y48.441 E.10098
G1 X70.822 Y46.785 E.10098
G1 X73.368 Y45.275 E.0982
G1 X75.973 Y43.869 E.0982
G1 X78.632 Y42.567 E.09821
G1 X81.807 Y41.179 E.11493
G1 X83.642 Y40.455 E.06543
G1 X85.491 Y39.782 E.06529
G1 X87.843 Y39.005 E.08216
G1 X90.687 Y38.179 E.09824
G1 X93.56 Y37.467 E.09821
G1 X96.38 Y36.887 E.0955
G1 X96.337 Y36.48 F7200
;TYPE:Outer wall
G1 F1800
G1 X96.386 Y36.47 E.00165
G1 X99.323 Y35.987 E.09875
G1 X102.361 Y35.612 E.10153
G1 X105.411 Y35.361 E.10153
G1 X108.47 Y35.236 E.10153
G1 X111.53 Y35.236 E.10153
G1 X114.545 Y35.36 E.10008
G1 X117.639 Y35.612 E.10298
G1 X120.677 Y35.987 E.10153
G1 X123.614 Y36.47 E.09874
G1 X126.53 Y37.07 E.09874
G1 X129.419 Y37.786 E.09874
G1 X132.278 Y38.616 E.09876
G1 X134.642 Y39.398 E.08261
G1 X136.503 Y40.075 E.06567
G1 X138.814 Y40.995 E.08254
G1 X141.539 Y42.198 E.0988
G1 X144.213 Y43.507 E.09875
G1 X146.832 Y44.921 E.09874
G1 X149.393 Y46.439 E.09874
G1 X151.961 Y48.104 E.10153
G1 X154.459 Y49.873 E.10153
G1 X156.882 Y51.743 E.10153
G1 X159.227 Y53.71 E.10153
G1 X161.489 Y55.772 E.10153
G1 X163.665 Y57.924 E.10153
G1 X165.751 Y60.164 E.10153
G1 X167.69 Y62.423 E.09874
G1 X169.538 Y64.757 E.09875
G1 X171.291 Y67.162 E.09874
G1 X172.948 Y69.636 E.09876
G1 X174.257 Y71.754 E.0826
G1 X175.246 Y73.469 E.06567
G1 X176.191 Y75.21 E.06572
G1 X176.426 Y75.66 E.01682
G1 X177.74 Y78.332 E.09881
G1 X178.947 Y81.054 E.09874
G1 X180.044 Y83.821 E.09874
G1 X181.03 Y86.629 E.09874
G1 X181.927 Y89.556 E.10154
G1 X182.703 Y92.517 E.10153
G1 X183.358 Y95.506 E.10153
G1 X183.889 Y98.521 E.10153
G1 X184.297 Y101.554 E.10153
G1 X184.58 Y104.602 E.10153
G1 X184.738 Y107.658 E.10153
G1 X184.772 Y110.635 E.09874
G1 X184.688 Y113.611 E.09875
G1 X184.484 Y116.58 E.09874
G1 X184.163 Y119.542 E.09881
G1 X184.097 Y120.044 E.01682
G1 X183.804 Y122.004 E.06572
G1 X183.461 Y123.953 E.06567
G1 X182.955 Y126.392 E.0826
G1 X182.245 Y129.283 E.09876
G1 X181.42 Y132.143 E.09874
G1 X180.482 Y134.968 E.09874
G1 X179.432 Y137.754 E.09874
G1 X178.238 Y140.572 E.10153
G1 X176.929 Y143.339 E.10153
G1 X175.509 Y146.05 E.10153
G1 X173.978 Y148.7 E.10153
G1 X172.364 Y151.249 E.10008
G1 X170.599 Y153.803 E.10298
G1 X168.755 Y156.246 E.10153
G1 X166.868 Y158.548 E.09874
G1 X164.89 Y160.773 E.09874
G1 X162.826 Y162.917 E.09875
G1 X160.676 Y164.979 E.0988
G1 X160.302 Y165.322 E.01682
G1 X158.819 Y166.635 E.06572
G1 X157.302 Y167.907 E.06567
G1 X155.348 Y169.45 E.0826
G1 X152.945 Y171.208 E.09876
G1 X150.475 Y172.869 E.09874
G1 X147.94 Y174.43 E.09874
G1 X145.345 Y175.889 E.09874
G1 X142.619 Y177.281 E.10153
G1 X139.838 Y178.559 E.10153
G1 X137.007 Y179.723 E.10153
G1 X134.131 Y180.77 E.10153
G1 X131.215 Y181.698 E.10153
G1 X128.262 Y182.506 E.10153
G1 X125.28 Y183.193 E.10153
G1 X122.354 Y183.743 E.09874
G1 X119.409 Y184.176 E.09875
G1 X116.449 Y184.492 E.09874
M73 P0 R147
G1 X113.477 Y184.69 E.09881
G1 X112.971 Y184.711 E.01682
G1 X110.99 Y184.764 E.06572
G1 X109.01 Y184.764 E.06567
G1 X106.521 Y184.689 E.0826
G1 X103.516 Y184.488 E.09992
G1 X100.591 Y184.176 E.09758
G1 X97.646 Y183.743 E.09874
G1 X94.72 Y183.193 E.09874
G1 X91.738 Y182.506 E.10153
G1 X88.785 Y181.698 E.10153
G1 X85.869 Y180.77 E.10153
G1 X82.993 Y179.723 E.10153
G1 X80.202 Y178.576 E.10008
G1 X77.381 Y177.281 E.10298
G1 X74.655 Y175.889 E.10153
G1 X72.06 Y174.43 E.09874
G1 X69.525 Y172.869 E.09874
G1 X67.055 Y171.208 E.09874
G1 X64.651 Y169.449 E.09881
G1 X64.249 Y169.141 E.01682
G1 X62.698 Y167.908 E.06572
G1 X61.182 Y166.635 E.06567
G1 X59.323 Y164.978 E.0826
G1 X57.15 Y162.892 E.09992
G1 X55.11 Y160.773 E.09758
G1 X53.132 Y158.548 E.09874
G1 X51.245 Y156.246 E.09874
G1 X49.401 Y153.803 E.10153
G1 X47.659 Y151.286 E.10153
G1 X46.022 Y148.7 E.10153
G1 X44.491 Y146.05 E.10153
G1 X43.071 Y143.339 E.10153
G1 X41.762 Y140.572 E.10153
G1 X40.568 Y137.754 E.10153
G1 X39.518 Y134.968 E.09874
G1 X38.58 Y132.143 E.09874
G1 X37.755 Y129.283 E.09874
G1 X37.044 Y126.39 E.09881
G1 X36.539 Y123.954 E.08254
G1 X36.196 Y122.004 E.06567
G1 X35.837 Y119.54 E.0826
G1 X35.513 Y116.545 E.09992
G1 X35.312 Y113.611 E.09758
G1 X35.228 Y110.635 E.09874
G1 X35.262 Y107.658 E.09874
G1 X35.42 Y104.602 E.10153
G1 X35.703 Y101.554 E.10153
G1 X36.111 Y98.521 E.10153
G1 X36.635 Y95.55 E.10008
G1 X37.297 Y92.516 E.10299
G1 X38.073 Y89.556 E.10152
G1 X38.97 Y86.629 E.10154
G1 X39.956 Y83.821 E.09874
G1 X41.053 Y81.054 E.09874
G1 X42.26 Y78.332 E.09874
G1 X43.574 Y75.661 E.09876
G1 X44.754 Y73.468 E.0826
G1 X45.744 Y71.754 E.06566
G1 X46.779 Y70.065 E.06572
G1 X47.052 Y69.637 E.01682
G1 X48.709 Y67.162 E.09881
G1 X50.462 Y64.757 E.09874
G1 X52.31 Y62.423 E.09875
G1 X54.249 Y60.164 E.09874
G1 X56.335 Y57.924 E.10153
G1 X58.511 Y55.772 E.10153
G1 X60.773 Y53.71 E.10153
G1 X63.118 Y51.743 E.10153
G1 X65.541 Y49.873 E.10153
G1 X68.039 Y48.104 E.10153
G1 X70.607 Y46.439 E.10153
G1 X73.168 Y44.921 E.09874
G1 X75.787 Y43.507 E.09874
G1 X78.461 Y42.198 E.09875
G1 X81.186 Y40.995 E.0988
G1 X83.497 Y40.075 E.08254
G1 X85.358 Y39.398 E.06567
G1 X87.722 Y38.616 E.08261
G1 X90.581 Y37.786 E.09875
G1 X93.47 Y37.07 E.09874
G1 X96.298 Y36.488 E.09577
G1 E-.84
;WIPE_START
G1 X96.386 Y36.47 E-.03227
G1 X97.284 Y36.322 E-.32773
;WIPE_END
G1 Z.6 F7200
G1 X158.618 Y53.944
G1 Z.6
G1 Z.2
G1 E1.2 F1800
;TYPE:Bottom surface
;WIDTH:0.450726
G1 F3600
G1 X163.132 Y58.457 E.21212
G1 X165.189 Y60.666 E.10033
G1 X167.109 Y62.902 E.09791
G1 X167.523 Y63.425 E.02218
G1 X156.52 Y52.422 E.5171
G1 X153.973 Y50.452 E.10702
G1 X169.488 Y65.967 E.72914
G1 X170.674 Y67.594 E.0669
G1 X170.949 Y68.004 E.01642
G1 X151.996 Y49.051 E.89071
G1 X151.538 Y48.727 E.01862
G1 X150.277 Y47.909 E.04995
