; HEADER_BLOCK_START
; generated by OrcaSlicer 2.0.0 on 2024-05-13 at 07:09:30
; total layer number: 30
; filament_density: 1.24
; filament_diameter: 1.75
; max_z_height: 6.00
; HEADER_BLOCK_END

; THUMBNAIL_BLOCK_START

;
; THUMBNAIL_BLOCK_END

; THUMBNAIL_BLOCK_START

;
; THUMBNAIL_BLOCK_END

; external perimeters extrusion width = 0.45mm
; perimeters extrusion width = 0.45mm
; infill extrusion width = 0.45mm
; solid infill extrusion width = 0.45mm
; top infill extrusion width = 0.40mm

; external perimeters extrusion width = 0.45mm
; perimeters extrusion width = 0.45mm
; infill extrusion width = 0.45mm
; solid infill extrusion width = 0.45mm
; top infill extrusion width = 0.40mm

; external perimeters extrusion width = 0.45mm
; perimeters extrusion width = 0.45mm
; infill extrusion width = 0.45mm
; solid infill extrusion width = 0.45mm
; top infill extrusion width = 0.40mm

; external perimeters extrusion width = 0.45mm
; perimeters extrusion width = 0.45mm
; infill extrusion width = 0.45mm
; solid infill extrusion width = 0.45mm
; top infill extrusion width = 0.40mm

; external perimeters extrusion width = 0.45mm
; perimeters extrusion width = 0.45mm
; infill extrusion width = 0.45mm
; solid infill extrusion width = 0.45mm
; top infill extrusion width = 0.40mm

; external perimeters extrusion width = 0.45mm
; perimeters extrusion width = 0.45mm
; infill extrusion width = 0.45mm
; solid infill extrusion width = 0.45mm
; top infill extrusion width = 0.40mm

; external perimeters extrusion width = 0.45mm
; perimeters extrusion width = 0.45mm
; infill extrusion width = 0.45mm
; solid infill extrusion width = 0.45mm
; top infill extrusion width = 0.40mm

; external perimeters extrusion width = 0.45mm
; perimeters extrusion width = 0.45mm
; infill extrusion width = 0.45mm
; solid infill extrusion width = 0.45mm
; top infill extrusion width = 0.40mm

; external perimeters extrusion width = 0.45mm
; perimeters extrusion width = 0.45mm
; infill extrusion width = 0.45mm
; solid infill extrusion width = 0.45mm
; top infill extrusion width = 0.40mm

; external perimeters extrusion width = 0.45mm
; perimeters extrusion width = 0.45mm
; infill extrusion width = 0.45mm
; solid infill extrusion width = 0.45mm
; top infill extrusion width = 0.40mm

; external perimeters extrusion width = 0.45mm
; perimeters extrusion width = 0.45mm
; infill extrusion width = 0.45mm
; solid infill extrusion width = 0.45mm
; top infill extrusion width = 0.40mm

; EXECUTABLE_BLOCK_START
M73 P0 R115
M201 X5000 Y5000 Z500 E5000
M203 X500 Y500 Z30 E100
M204 P5000 R2500 T5000 ; sets acceleration (P, T) and retract acceleration (R), mm/sec^2
M205 X10.00 Y10.00 Z0.40 E5.00 ; sets the jerk limits, mm/sec
;TYPE:Custom
M220 S100 ;Reset Feedrate 
M221 S100 ;Reset Flowrate 
 
M140 S55 ;Set final bed temp 
G28 ;Home 
M420 S1; Enable mesh leveling 
G92 E0 ;Reset Extruder 
G1 Z2.0 F3000 ;Move Z Axis up 
M104 S220 ;Set final nozzle temp 
G1 X-2.1 Y20 Z0.28 F5000.0 ;Move to start position 
M190 S55 ;Wait for bed temp to stabilize 
M109 S220 ;Wait for nozzle temp to stabilize 
G1 X-2.1 Y145.0 Z0.28 F1500.0 E15 ;Draw the first line 
G1 X-2.4 Y145.0 Z0.28 F5000.0 ;Move to side a little 
G1 X-2.4 Y20 Z0.28 F1500.0 E30 ;Draw the second line 
G92 E0  ;Reset Extruder 
G1 E-1.0000 F1800 ;Retract a bit 
G1 Z2.0 F3000 ;Move Z Axis up 
G1 E0.0000 F1800
G90
G21
M83 ; use relative distances for extrusion
; filament start gcode
M106 S0
;LAYER_CHANGE
;Z:0.2
;HEIGHT:0.2
;BEFORE_LAYER_CHANGE
;0.2
G92 E0

G1 E-1.2 F1800
;_SET_FAN_SPEED_CHANGING_LAYER
M204 P300
M204 T300
G1 Z.4 F7200
G1 X57.959 Y59.885
G1 Z.4
G1 Z.2
G1 E1.2 F1800
;TYPE:Skirt
;WIDTH:0.45
G1 F3000
G1 X58.908 Y59.12 E.04047
G1 X79.935 Y49.671 E.76467
G1 X80.45 Y49.506 E.01795
G1 X114.267 Y42.754 E1.1439
G1 X128.805 Y42.646 E.48228
G1 X130.207 Y43.089 E.04878
G1 X166.652 Y68.915 E1.48169
G1 X167.632 Y70.472 E.06105
G1 X174.176 Y108.877 E1.29231
G1 X173.381 Y159.078 E1.66547
G1 X173.169 Y160.027 E.03227
G1 X168.769 Y169.809 E.35581
G1 X168.156 Y170.636 E.03413
G1 X161.167 Y176.731 E.3076
G1 X159.586 Y177.324 E.05601
G1 X100.487 Y177.355 E1.96044
G1 X58.088 Y177.286 E1.40643
G1 X56.773 Y176.893 E.04555
G1 X56.039 Y176.136 E.03496
G1 X54.373 Y173.407 E.10605
G1 X52.844 Y170.599 E.10605
G1 X51.458 Y167.718 E.10605
G1 X50.262 Y164.883 E.10207
G1 X49.126 Y161.767 E.11004
G1 X48.218 Y158.827 E.10207
G1 X47.425 Y155.73 E.10605
G1 X46.767 Y152.478 E.11004
G1 X46.293 Y149.317 E.10605
G1 X45.977 Y146.135 E.10605
G1 X45.823 Y143.062 E.10207
G1 X46.409 Y93.875 E1.63175
G1 X46.466 Y90.937 E.09748
G1 X46.692 Y87.887 E.10143
G1 X47.089 Y84.855 E.10143
G1 X47.656 Y81.85 E.10143
G1 X48.39 Y78.882 E.10143
G1 X49.289 Y75.959 E.10143
G1 X50.42 Y72.922 E.10752
G1 X51.628 Y70.166 E.09982
G1 X53.01 Y67.438 E.10143
G1 X54.543 Y64.792 E.10143
G1 X56.222 Y62.237 E.10143
G1 X57.935 Y59.918 E.09563
; printing object Puzzle Piece 9.stl id:261993005119 copy 0
G1 E-.84 F1800
;WIPE_START
G1 F3000
G1 X58.708 Y59.284 E-.36
;WIPE_END
G1 Z.6 F7200
G1 X65.011 Y113.174 Z.6
G1 Z.2
G1 E1.2 F1800
;TYPE:Inner wall
;WIDTH:0.449999
G1 X63.81 Y115.151 E.07672
G1 X62.465 Y117.662 E.09447
G1 X61.233 Y120.3 E.09661
G1 X60.153 Y122.987 E.09606
G1 X59.225 Y125.713 E.09551
G1 X58.444 Y128.501 E.09606
G1 X57.816 Y131.328 E.09606
G1 X57.679 Y132.152 E.0277
G1 X57.343 Y134.185 E.06836
G1 X57.027 Y137.064 E.09606
G1 X56.869 Y139.956 E.09606
G1 X56.869 Y142.851 E.09606
G1 X57.027 Y145.742 E.09604
G1 X57.281 Y148.061 E.07738
G1 X57.346 Y148.638 E.01926
G1 X57.819 Y151.495 E.09606
G1 X58.444 Y154.306 E.09551
G1 X59.225 Y157.094 E.09606
G1 X60.158 Y159.836 E.09606
G1 X61.239 Y162.522 E.09606
G1 X62.465 Y165.146 E.09606
G1 X63.833 Y167.698 E.09606
G1 X65.01 Y169.633 E.07513
G1 X58.292 Y173.996 E.26571
G1 X57.033 Y171.938 E.08001
G1 X55.575 Y169.265 E.10102
G1 X54.252 Y166.522 E.10102
G1 X53.068 Y163.716 E.10102
G1 X52.025 Y160.855 E.10102
G1 X51.126 Y157.945 E.10102
G1 X50.374 Y154.994 E.10102
G1 X49.77 Y152.009 E.10102
G1 X49.315 Y148.998 E.10102
G1 X49.012 Y145.968 E.10102
G1 X48.86 Y142.926 E.10102
G1 X48.86 Y139.881 E.10102
G1 X49.012 Y136.839 E.10102
G1 X49.315 Y133.809 E.10102
G1 X49.77 Y130.798 E.10101
G1 X50.386 Y127.763 E.10272
G1 X51.126 Y124.862 E.09933
G1 X52.025 Y121.952 E.10102
G1 X53.068 Y119.091 E.10102
G1 X54.252 Y116.285 E.10102
G1 X55.575 Y113.542 E.10102
G1 X57.033 Y110.869 E.10102
G1 X58.292 Y108.811 E.08001
G1 X64.977 Y113.153 E.2644
G1 X65.563 Y113.048 F7200
;TYPE:Outer wall
G1 F1800
G1 X64.164 Y115.353 E.08945
G1 X62.829 Y117.844 E.09373
G1 X61.612 Y120.449 E.0954
G1 X60.538 Y123.118 E.09544
G1 X59.614 Y125.834 E.09514
G1 X58.839 Y128.601 E.09532
G1 X58.215 Y131.406 E.09532
G1 X57.746 Y134.241 E.09532
G1 X57.686 Y134.79 E.01833
G1 X57.433 Y137.097 E.07699
G1 X57.276 Y139.967 E.09532
G1 X57.276 Y142.84 E.09532
G1 X57.433 Y145.709 E.09532
G1 X57.686 Y148.017 E.077
G1 X57.747 Y148.569 E.01842
G1 X58.217 Y151.407 E.09542
G1 X58.839 Y154.206 E.09514
G1 X59.614 Y156.973 E.09532
G1 X60.54 Y159.694 E.09532
G1 X61.613 Y162.36 E.09532
G1 X62.829 Y164.963 E.09532
G1 X64.187 Y167.496 E.09532
G1 X65.563 Y169.759 E.08787
G1 X58.163 Y174.565 E.29269
G1 X56.681 Y172.142 E.09421
G1 X55.213 Y169.451 E.1017
G1 X53.881 Y166.689 E.10169
G1 X52.689 Y163.865 E.1017
G1 X51.639 Y160.985 E.10169
G1 X50.734 Y158.056 E.1017
G1 X49.977 Y155.085 E.1017
G1 X49.369 Y152.08 E.1017
G1 X48.911 Y149.049 E.10169
G1 X48.606 Y145.998 E.1017
G1 X48.453 Y142.936 E.10169
G1 X48.453 Y139.871 E.10169
G1 X48.606 Y136.809 E.10169
G1 X48.911 Y133.758 E.1017
G1 X49.369 Y130.727 E.10169
G1 X49.99 Y127.673 E.10339
G1 X50.734 Y124.752 E.1
G1 X51.639 Y121.822 E.10169
G1 X52.689 Y118.942 E.10169
G1 X53.881 Y116.118 E.1017
G1 X55.213 Y113.356 E.10169
G1 X56.681 Y110.665 E.1017
G1 X58.163 Y108.242 E.09422
G1 X65.53 Y113.026 E.29137
G1 E-.84
;WIPE_START
G1 X65.024 Y113.889 E-.36
;WIPE_END
G1 Z.6 F7200
G1 X62.413 Y111.681
G1 Z.6
G1 Z.2
G1 E1.2 F1800
;TYPE:Bottom surface
;WIDTH:0.451684
G1 F3600
G1 X64.341 Y113.61 E.09086
G1 X64.123 Y113.97 E.01402
G1 X61.387 Y111.234 E.1289
G1 X59.738 Y110.163 E.06549
G1 X63.905 Y114.33 E.19629
G1 X63.687 Y114.69 E.01402
G1 X58.36 Y109.363 E.25091
G1 X58.141 Y109.722 E.014
G1 X63.471 Y115.052 E.25108
G1 X63.269 Y115.428 E.01422
G1 X57.921 Y110.08 E.25192
G1 X57.702 Y110.439 E.014
G1 X63.068 Y115.805 E.25276
G1 X62.866 Y116.181 E.01422
G1 X57.482 Y110.798 E.2536
G1 X57.268 Y111.161 E.01406
G1 X62.664 Y116.558 E.2542
G1 X62.463 Y116.934 E.01422
M73 P0 R114
G1 X57.064 Y111.535 E.25431
G1 X56.86 Y111.909 E.01419
G1 X62.261 Y117.31 E.25442
G1 X62.068 Y117.696 E.01436
G1 X56.656 Y112.283 E.25497
G1 X56.452 Y112.657 E.01419
G1 X61.884 Y118.09 E.2559
G1 X61.7 Y118.484 E.01448
G1 X56.248 Y113.032 E.25684
G1 X56.044 Y113.406 E.01419
G1 X61.516 Y118.878 E.25777
G1 X61.332 Y119.272 E.01448
G1 X55.843 Y113.783 E.25854
G1 X55.655 Y114.173 E.01442
G1 X61.147 Y119.665 E.25873
G1 X60.963 Y120.059 E.01448
G1 X55.467 Y114.563 E.25891
G1 X55.279 Y114.953 E.01442
G1 X60.793 Y120.467 E.25975
G1 X60.627 Y120.879 E.0148
G1 X55.091 Y115.343 E.26079
G1 X54.903 Y115.733 E.01442
G1 X60.461 Y121.292 E.26184
G1 X60.295 Y121.704 E.0148
G1 X54.715 Y116.123 E.26289
G1 X54.53 Y116.517 E.01448
G1 X60.13 Y122.116 E.26377
G1 X59.964 Y122.528 E.0148
G1 X54.359 Y116.923 E.26404
G1 X54.187 Y117.33 E.0147
G1 X59.802 Y122.944 E.2645
G1 X59.655 Y123.376 E.01518
G1 X54.015 Y117.736 E.26567
G1 X53.844 Y118.143 E.0147
G1 X59.508 Y123.807 E.26683
G1 X59.362 Y124.238 E.01518
G1 X53.672 Y118.549 E.268
G1 X53.501 Y118.956 E.0147
G1 X59.215 Y124.67 E.26917
G1 X59.068 Y125.101 E.01518
G1 X53.335 Y119.368 E.27005
G1 X53.181 Y119.792 E.01502
G1 X58.921 Y125.532 E.27041
G1 X58.792 Y125.981 E.01556
G1 X53.026 Y120.215 E.2716
G1 X52.872 Y120.639 E.01502
G1 X58.665 Y126.432 E.2729
G1 X58.539 Y126.884 E.01562
G1 X52.717 Y121.063 E.27421
G1 X52.563 Y121.486 E.01502
G1 X58.412 Y127.335 E.27551
G1 X58.285 Y127.787 E.01562
G1 X52.409 Y121.91 E.27682
G1 X52.266 Y122.345 E.01526
G1 X58.158 Y128.238 E.27758
G1 X58.045 Y128.703 E.01593
G1 X52.129 Y122.787 E.27867
G1 X51.993 Y123.229 E.0154
G1 X57.94 Y129.176 E.28015
G1 X57.835 Y129.649 E.01614
G1 X51.856 Y123.67 E.28163
G1 X51.72 Y124.112 E.0154
G1 X57.73 Y130.122 E.28311
G1 X57.625 Y130.595 E.01614
G1 X51.584 Y124.554 E.28459
G1 X51.449 Y124.997 E.01543
G1 X57.52 Y131.068 E.28599
G1 X57.428 Y131.554 E.01646
G1 X51.331 Y125.458 E.28717
G1 X51.214 Y125.918 E.01583
G1 X57.346 Y132.05 E.28883
G1 X57.264 Y132.546 E.01675
G1 X51.097 Y126.379 E.2905
G1 X50.979 Y126.84 E.01583
G1 X57.181 Y133.042 E.29217
G1 X57.099 Y133.538 E.01675
G1 X50.862 Y127.3 E.29384
G1 X50.744 Y127.761 E.01583
G1 X57.017 Y134.034 E.2955
G1 X56.955 Y134.55 E.01731
G1 X50.643 Y128.238 E.29735
G1 X50.545 Y128.718 E.01633
G1 X56.898 Y135.071 E.29925
G1 X56.841 Y135.592 E.01745
G1 X50.448 Y129.199 E.30115
G1 X50.35 Y129.679 E.01633
G1 X56.784 Y136.112 E.30305
G1 X56.726 Y136.633 E.01745
G1 X50.253 Y130.159 E.30496
G1 X50.155 Y130.64 E.01633
G1 X56.676 Y137.161 E.30719
G1 X56.646 Y137.709 E.01829
G1 X50.069 Y131.132 E.30982
G1 X49.993 Y131.635 E.01692
G1 X56.616 Y138.257 E.31198
G1 X56.586 Y138.806 E.01829
G1 X49.918 Y132.137 E.31414
G1 X49.842 Y132.639 E.01692
G1 X56.556 Y139.354 E.3163
G1 X56.526 Y139.902 E.01829
G1 X49.766 Y133.141 E.31846
G1 X49.69 Y133.644 E.01692
G1 X56.523 Y140.476 E.32187
G1 X56.523 Y141.055 E.01926
G1 X49.628 Y134.159 E.32481
G1 X49.575 Y134.685 E.01759
G1 X56.523 Y141.633 E.3273
G1 X56.524 Y142.211 E.01926
G1 X49.523 Y135.21 E.32979
G1 X49.47 Y135.736 E.01759
G1 X56.524 Y142.79 E.33228
G1 X56.552 Y143.396 E.02022
G1 X49.417 Y136.261 E.33609
G1 X49.365 Y136.787 E.01759
G1 X56.586 Y144.007 E.34015
G1 X56.619 Y144.619 E.0204
G1 X49.333 Y137.333 E.3432
G1 X49.306 Y137.884 E.01836
G1 X56.652 Y145.231 E.34607
G1 X56.692 Y145.848 E.0206
G1 X49.278 Y138.435 E.34921
G1 X49.251 Y138.985 E.01836
G1 X56.763 Y146.497 E.35386
G1 X56.834 Y147.146 E.02175
G1 X49.223 Y139.536 E.3585
G1 X49.206 Y140.096 E.01868
G1 X56.905 Y147.795 E.36269
G1 X56.976 Y148.445 E.02175
G1 X49.206 Y140.674 E.36604
G1 X49.206 Y141.252 E.01926
G1 X57.075 Y149.122 E.3707
G1 X57.19 Y149.815 E.02339
G1 X49.206 Y141.83 E.3761
G1 X49.206 Y142.408 E.01926
G1 X57.305 Y150.507 E.38151
G1 X57.419 Y151.2 E.02339
G1 X49.209 Y142.99 E.38674
G1 X49.24 Y143.599 E.02029
G1 X57.559 Y151.918 E.39189
G1 X57.724 Y152.661 E.02536
G1 X49.27 Y144.207 E.39824
G1 X49.3 Y144.816 E.02029
G1 X57.889 Y153.404 E.40459
G1 X58.055 Y154.148 E.02536
G1 X49.331 Y145.424 E.41094
G1 X49.366 Y146.038 E.02047
G1 X58.26 Y154.931 E.41895
G1 X58.486 Y155.735 E.0278
G1 X49.431 Y146.68 E.42655
G1 X49.495 Y147.323 E.02151
G1 X58.711 Y156.539 E.43414
G1 X58.948 Y157.354 E.02827
G1 X49.559 Y147.965 E.44226
G1 X49.624 Y148.607 E.02151
G1 X59.246 Y158.23 E.45327
G1 X59.544 Y159.106 E.03083
G1 X49.706 Y149.267 E.46346
G1 X49.809 Y149.948 E.02293
G1 X59.846 Y159.986 E.47282
G1 X60.236 Y160.953 E.03475
G1 X49.911 Y150.629 E.48634
G1 X50.014 Y151.31 E.02293
G1 X60.625 Y161.921 E.49986
G1 X60.931 Y162.68 E.02725
G1 X61.041 Y162.915 E.00862
G1 X50.12 Y151.993 E.51446
G1 X50.266 Y152.718 E.02463
G1 X61.549 Y164.001 E.53149
G1 X62.057 Y165.088 E.03995
G1 X50.413 Y153.443 E.54853
G1 X50.56 Y154.168 E.02463
G1 X62.691 Y166.299 E.57145
G1 X63.358 Y167.544 E.04706
G1 X50.706 Y154.893 E.59597
G1 X50.902 Y155.667 E.0266
G1 X64.197 Y168.961 E.62626
G1 X64.54 Y169.526 E.02199
G1 X64.324 Y169.666 E.00859
G1 X51.1 Y156.443 E.6229
G1 X51.298 Y157.219 E.02667
G1 X63.973 Y169.894 E.59708
G1 X63.623 Y170.121 E.01392
G1 X51.507 Y158.006 E.57072
G1 X51.765 Y158.842 E.02916
G1 X63.272 Y170.349 E.54204
G1 X62.922 Y170.577 E.01392
G1 X52.024 Y159.679 E.51336
G1 X52.282 Y160.515 E.02916
G1 X62.571 Y170.804 E.48468
G1 X62.221 Y171.032 E.01392
G1 X52.594 Y161.405 E.4535
G1 X52.925 Y162.314 E.03225
G1 X61.87 Y171.259 E.42137
G1 X61.52 Y171.487 E.01392
G1 X53.257 Y163.224 E.38925
G1 X53.39 Y163.589 E.01296
G1 X53.642 Y164.188 E.02163
G1 X61.169 Y171.715 E.35456
G1 X60.819 Y171.942 E.01392
G1 X54.065 Y165.188 E.31816
G1 X54.487 Y166.188 E.03617
M73 P1 R114
G1 X60.468 Y172.17 E.28176
G1 X60.118 Y172.397 E.01392
G1 X55.003 Y167.283 E.24093
G1 X55.542 Y168.399 E.04129
G1 X59.768 Y172.625 E.19905
G1 X59.417 Y172.853 E.01392
G1 X56.137 Y169.573 E.1545
G1 X56.831 Y170.844 E.04825
G1 X59.067 Y173.08 E.10532
G1 X58.716 Y173.308 E.01392
G1 X57.065 Y171.657 E.07776
G1 E-.84 F1800
;WIPE_START
G1 F3600
G1 X57.772 Y172.364 E-.36
;WIPE_END
G1 Z.6 F7200
G1 X62.325 Y111.769 Z.6
G1 Z.2
G1 E1.2 F1800
;TYPE:Gap infill
;WIDTH:0.164369
G1 X62.107 Y111.593 E.00277
;WIDTH:0.14017
G1 X61.889 Y111.416 E.00222
G1 E-.91966
;WIPE_START
G1 X62.107 Y111.593 E-.28034
;WIPE_END
G1 Z.6 F7200
G1 X64.646 Y113.384 Z.6
G1 Z.2
G1 E1.2 F1800
;WIDTH:0.33024
G1 X64.461 Y113.234 E.00556
;WIDTH:0.286882
G1 X64.276 Y113.085 E.00472
;WIDTH:0.243524
G1 X64.092 Y112.935 E.00388
;WIDTH:0.200166
G1 X63.907 Y112.786 E.00304
;WIDTH:0.156807
G1 X63.723 Y112.636 E.0022
;WIDTH:0.135128
G1 X63.538 Y112.487 E.00178
G1 E-.96254
;WIPE_START
G1 X63.723 Y112.636 E-.23746
;WIPE_END
G1 Z.6 F7200
G1 X57.031 Y148.788 Z.6
G1 Z.2
G1 E1.2 F1800
;WIDTH:0.139606
G1 X57.134 Y148.596 E.00172
G1 E-.98128
;WIPE_START
G1 X57.031 Y148.788 E-.21872
;WIPE_END
G1 Z.6 F7200
G1 X57.632 Y151.68 Z.6
G1 Z.2
G1 E1.2 F1800
;WIDTH:0.168091
G1 X57.482 Y151.398 E.00326
G1 E-.88067
;WIPE_START
G1 X57.632 Y151.68 E-.31933
;WIPE_END
G1 Z.6 F7200
G1 X58.13 Y154.512 Z.6
G1 Z.2
G1 E1.2 F1800
;WIDTH:0.161473
G1 X58.229 Y154.285 E.00239
G1 E-.95236
;WIPE_START
G1 X58.13 Y154.512 E-.24764
;WIPE_END
G1 Z.6 F7200
G1 X61.524 Y163.658 Z.6
G1 Z.2
G1 E1.2 F1800
;WIDTH:0.11509
G1 X61.426 Y163.518 E.001
;WIDTH:0.161729
G1 X61.328 Y163.379 E.00165
;WIDTH:0.208368
G1 X61.23 Y163.24 E.0023
;WIDTH:0.231687
G1 X61.132 Y163.1 E.00262
G1 E-1.02967
;WIPE_START
G1 X61.23 Y163.24 E-.17033
;WIPE_END
G1 Z.6 F7200
G1 X62.62 Y165.91 Z.6
G1 Z.2
G1 E1.2 F1800
;WIDTH:0.115481
G1 X62.502 Y165.751 E.00117
;WIDTH:0.162904
G1 X62.384 Y165.592 E.00194
;WIDTH:0.210326
G1 X62.266 Y165.433 E.0027
;WIDTH:0.234037
