; HEADER_BLOCK_START
; generated by OrcaSlicer 2.0.0 on 2024-06-03 at 14:28:45
; total layer number: 6
; filament_density: 1.24
; filament_diameter: 1.75
; max_z_height: 1.20
; HEADER_BLOCK_END

; THUMBNAIL_BLOCK_START

;
; THUMBNAIL_BLOCK_END

; THUMBNAIL_BLOCK_START

;
; THUMBNAIL_BLOCK_END

; external perimeters extrusion width = 0.45mm
; perimeters extrusion width = 0.45mm
; infill extrusion width = 0.45mm
; solid infill extrusion width = 0.45mm
; top infill extrusion width = 0.40mm

; EXECUTABLE_BLOCK_START
M73 P0 R9
M201 X5000 Y5000 Z500 E5000
M203 X500 Y500 Z30 E100
M204 P5000 R2500 T5000 ; sets acceleration (P, T) and retract acceleration (R), mm/sec^2
M205 X10.00 Y10.00 Z0.40 E5.00 ; sets the jerk limits, mm/sec
;TYPE:Custom
M220 S100 ;Reset Feedrate 
M221 S100 ;Reset Flowrate 
 
M140 S55 ;Set final bed temp 
G28 ;Home 
M420 S1; Enable mesh leveling 
G92 E0 ;Reset Extruder 
G1 Z2.0 F3000 ;Move Z Axis up 
M104 S220 ;Set final nozzle temp 
G1 X-2.1 Y20 Z0.28 F5000.0 ;Move to start position 
M190 S55 ;Wait for bed temp to stabilize 
M109 S220 ;Wait for nozzle temp to stabilize 
G1 X-2.1 Y145.0 Z0.28 F1500.0 E15 ;Draw the first line 
G1 X-2.4 Y145.0 Z0.28 F5000.0 ;Move to side a little 
G1 X-2.4 Y20 Z0.28 F1500.0 E30 ;Draw the second line 
G92 E0  ;Reset Extruder 
G1 E-1.0000 F1800 ;Retract a bit 
M73 P1 R8
G1 Z2.0 F3000 ;Move Z Axis up 
G1 E0.0000 F1800
G90
G21
M83 ; use relative distances for extrusion
; filament start gcode
M106 S0
;LAYER_CHANGE
;Z:0.2
;HEIGHT:0.2
;BEFORE_LAYER_CHANGE
;0.2
G92 E0

G1 E-1.2 F1800
;_SET_FAN_SPEED_CHANGING_LAYER
M204 P300
M204 T300
G1 Z.4 F7200
G1 X132.376 Y113.227
G1 Z.4
M73 P2 R8
G1 Z.2
G1 E1.2 F1800
;TYPE:Skirt
;WIDTH:0.45
G1 F1200
G1 X133.185 Y112.349 E.03961
G1 X133.882 Y111.879 E.02788
G1 X134.957 Y111.56 E.0372
G1 X136.264 Y111.694 E.0436
G1 X137.198 Y112.137 E.03426
G1 X137.818 Y112.629 E.02627
G1 X138.605 Y113.787 E.04644
G1 X138.795 Y114.46 E.02318
G1 X138.846 Y115.457 E.03313
G1 X138.769 Y116.158 E.0234
G1 X138.491 Y116.951 E.02788
G1 X137.602 Y118.033 E.04644
G1 X136.611 Y118.558 E.0372
G1 X135.859 Y118.707 E.02544
G1 X135.282 Y118.704 E.01914
G1 X134.431 Y118.613 E.02841
G1 X133.618 Y118.395 E.02792
G1 X132.667 Y117.801 E.0372
G1 X132.122 Y117.161 E.02788
G1 X131.776 Y116.473 E.02554
G1 X131.583 Y115.424 E.0354
G1 X131.755 Y114.316 E.0372
G1 X132.071 Y113.645 E.0246
G1 X132.352 Y113.259 E.01584
; printing object parno.stl id:0 copy 0
G1 E-.84 F1800
;WIPE_START
G1 F3000
G1 X133.028 Y112.522 E-.36
;WIPE_END
G1 Z.6 F7200
G1 X134.348 Y114.937 Z.6
G1 Z.2
G1 E1.2 F1800
;TYPE:Brim
G1 F1200
G1 X134.804 Y114.416 E.02298
G1 X134.977 Y114.249 E.00796
G1 X135.17 Y114.162 E.00703
G1 X135.373 Y114.149 E.00675
G1 X135.695 Y114.272 E.01142
G1 X135.96 Y114.462 E.01083
G1 X136.121 Y114.627 E.00764
G1 X136.21 Y114.827 E.00724
G1 X136.229 Y114.972 E.00486
G1 X136.236 Y115.475 E.01668
G1 X136.199 Y115.702 E.00764
G1 X136.095 Y115.887 E.00703
G1 X135.933 Y116.025 E.00703
G1 X135.732 Y116.1 E.00714
G1 X135.545 Y116.107 E.00621
G1 X134.731 Y116.02 E.02713
G1 X134.52 Y115.945 E.00744
G1 X134.356 Y115.81 E.00703
G1 X134.241 Y115.614 E.00755
G1 X134.205 Y115.509 E.00369
G1 X134.191 Y115.288 E.00734
G1 X134.251 Y115.08 E.00718
G1 X134.326 Y114.97 E.00441
G1 X134.642 Y115.219 F7200
G1 F1200
G1 X135.152 Y114.633 E.02575
G1 X135.268 Y114.554 E.00466
G1 X135.436 Y114.587 E.00566
G1 X135.737 Y114.803 E.0123
G1 X135.822 Y114.966 E.00608
G1 X135.829 Y115.498 E.01767
G1 X135.782 Y115.631 E.00466
G1 X135.604 Y115.703 E.00638
G1 X134.797 Y115.619 E.02691
G1 X134.671 Y115.557 E.00466
G1 X134.597 Y115.402 E.00569
G1 X134.633 Y115.257 E.00495
G1 X135.364 Y115.12 F7200
;TYPE:Outer wall
;WIDTH:0.580124
G1 F1200
G1 X135.297 Y115.12 E.00294
G1 X135.264 Y115.178 E.00294
G1 X135.297 Y115.237 E.00294
G1 X135.364 Y115.237 E.00294
G1 X135.398 Y115.178 E.00294
; stop printing object parno.stl id:0 copy 0
G1 E-.86425 F1800
;WIPE_START
G1 X135.364 Y115.237 E-.06715
G1 X135.297 Y115.237 E-.06715
G1 X135.264 Y115.178 E-.06715
G1 X135.297 Y115.12 E-.06715
G1 X135.364 Y115.12 E-.06715
;WIPE_END
M106 S255
;LAYER_CHANGE
;Z:0.4
;HEIGHT:0.2
;BEFORE_LAYER_CHANGE
;0.4
G92 E0

;_SET_FAN_SPEED_CHANGING_LAYER
M204 P500
; printing object parno.stl id:0 copy 0
M204 T5000
G1 Z.6 F7200
G1 X135.019 Y115.273
G1 Z.4
G1 E1.2 F1800
;WIDTH:0.44235
G1 F1200
G1 X134.952 Y115.212 E.00293
;WIDTH:0.420787
G1 X134.933 Y115.198 E.00073
G1 X134.77 Y115.08 E.0062
M204 P250
;TYPE:Overhang wall
;WIDTH:0.420218
G1 X134.509 Y114.891 E.00991
;WIDTH:0.420078
G1 X134.749 Y114.6 E.01159
G1 X134.892 Y114.703 E.00543
;WIDTH:0.420549
G1 X135.021 Y114.799 E.00494
M204 P500
;TYPE:Outer wall
;WIDTH:0.44235
G1 X135.182 Y114.919 E.00654
M106 S255
G1 X135.394 Y115.078 E.00863
G1 X135.409 Y115.36 E.00919
;WIDTH:0.421664
G1 X135.41 Y115.478 E.00364
G1 X135.413 Y115.679 E.0062
M204 P250
;TYPE:Overhang wall
;WIDTH:0.423325
G1 X135.421 Y116.325 E.02002
G1 X135.047 Y116.293 E.01164
G1 X135.038 Y116.114 E.00554
;WIDTH:0.437122
G1 X135.027 Y115.637 E.01532
M204 P500
;TYPE:Outer wall
;WIDTH:0.44235
G1 X135.022 Y115.436 E.00654
M106 S255
G1 X135.02 Y115.313 E.004
; stop printing object parno.stl id:0 copy 0
G1 E-.84 F1800
;WIPE_START
G1 F3600
G1 X134.952 Y115.212 E-.04369
G1 X134.77 Y115.08 E-.08091
G1 X134.509 Y114.891 E-.11608
G1 X134.72 Y114.635 E-.11933
;WIPE_END
;LAYER_CHANGE
;Z:0.6
;HEIGHT:0.2
;BEFORE_LAYER_CHANGE
;0.6
G92 E0

;_SET_FAN_SPEED_CHANGING_LAYER
; printing object parno.stl id:0 copy 0
G1 Z.8 F7200
G1 X135.411 Y115.714
G1 Z.6
G1 E1.2 F1800
;WIDTH:0.41971
G1 F1200
G1 X135.413 Y115.88 E.00511
;WIDTH:0.421596
G1 X135.421 Y116.538 E.02031
G1 X135.423 Y116.739 E.0062
M204 P250
;TYPE:Overhang wall
;WIDTH:0.423465
G1 X135.431 Y117.385 E.02003
G1 X135.05 Y117.427 E.01189
G1 X135.044 Y116.712 E.02217
M204 P500
;TYPE:Outer wall
;WIDTH:0.421946
G1 X135.042 Y116.509 E.00627
M106 S255
G1 X135.034 Y115.672 E.02585
;WIDTH:0.41971
G1 X135.371 Y115.709 E.0104
G1 X134.757 Y115.073 F7200
;WIDTH:0.422065
G1 F1200
G1 X134.344 Y114.774 E.01575
G1 X134.181 Y114.656 E.00622
M204 P250
;TYPE:Overhang wall
;WIDTH:0.421097
G1 X133.915 Y114.464 E.0101
;WIDTH:0.420817
G1 X134.147 Y114.165 E.01162
;WIDTH:0.421112
G1 X134.426 Y114.367 E.0106
M204 P500
;TYPE:Outer wall
;WIDTH:0.422065
G1 X134.588 Y114.483 E.00616
M106 S255
G1 X135.002 Y114.782 E.01578
G1 X134.783 Y115.043 E.01053
; stop printing object parno.stl id:0 copy 0
G1 E-.84 F1800
;WIPE_START
G1 F3600
G1 X134.181 Y114.656 E-.25773
G1 X133.951 Y114.489 E-.10227
;WIPE_END
;LAYER_CHANGE
;Z:0.8
;HEIGHT:0.2
;BEFORE_LAYER_CHANGE
;0.8
G92 E0

;_SET_FAN_SPEED_CHANGING_LAYER
; printing object parno.stl id:0 copy 0
M73 P3 R8
G1 Z1 F7200
G1 X135.046 Y116.801
G1 Z.8
G1 E1.2 F1800
;WIDTH:0.419766
G1 F1200
G1 X135.422 Y116.813 E.01156
G1 X135.424 Y117.009 E.006
;WIDTH:0.421604
G1 X135.432 Y117.598 E.01818
G1 X135.434 Y117.799 E.0062
M204 P250
;TYPE:Overhang wall
;WIDTH:0.42371
G1 X135.443 Y118.498 E.02167
G1 X135.062 Y118.563 E.012
G1 X135.055 Y117.845 E.02229
M204 P500
;TYPE:Outer wall
;WIDTH:0.422111
G1 X135.053 Y117.642 E.00627
M106 S255
G1 X135.046 Y116.841 E.02475
G1 E-.84 F1800
;WIPE_START
G1 F3600
G1 X135.422 Y116.813 E-.13562
G1 X135.424 Y117.009 E-.07033
G1 X135.43 Y117.437 E-.15405
;WIPE_END
G1 Z1.2 F7200
G1 X134.157 Y114.64 Z1.2
G1 Z.8
G1 E1.2 F1800
;WIDTH:0.421921
G1 F1200
G1 X133.754 Y114.349 E.01535
G1 X133.591 Y114.231 E.00621
M204 P250
;TYPE:Overhang wall
;WIDTH:0.421418
G1 X133.32 Y114.035 E.01032
;WIDTH:0.421267
G1 X133.544 Y113.73 E.01165
;WIDTH:0.42142
G1 X133.819 Y113.929 E.01046
M204 P500
;TYPE:Outer wall
;WIDTH:0.421921
G1 X133.982 Y114.046 E.0062
M106 S255
G1 X134.398 Y114.346 E.01584
G1 X134.182 Y114.609 E.01051
; stop printing object parno.stl id:0 copy 0
G1 E-.84 F1800
;WIPE_START
G1 F3600
G1 X133.591 Y114.231 E-.25244
G1 X133.349 Y114.056 E-.10756
;WIPE_END
;LAYER_CHANGE
;Z:1
;HEIGHT:0.2
;BEFORE_LAYER_CHANGE
;1
G92 E0

;_SET_FAN_SPEED_CHANGING_LAYER
; printing object parno.stl id:0 copy 0
G1 Z1.2 F7200
G1 X152.35 Y132.826
G1 Z1
G1 E1.2 F1800
M204 P250
;TYPE:Overhang wall
;WIDTH:0.353036
G1 F1500
G1 X152.179 Y133.035 E.00683
;WIDTH:0.352325
G1 X152.232 Y133.152 E.00325
G1 X152.376 Y133.22 E.00401
G1 X152.49 Y133.148 E.00339
G1 X152.5 Y133.008 E.00355
;WIDTH:0.353036
G1 X152.35 Y132.826 E.00596
G1 E-.84 F1800
;WIPE_START
G1 F1500
G1 X152.5 Y133.008 E-.08495
G1 X152.49 Y133.148 E-.05067
G1 X152.376 Y133.22 E-.04841
G1 X152.232 Y133.152 E-.05726
G1 X152.179 Y133.035 E-.04639
G1 X152.306 Y132.88 E-.07232
;WIPE_END
G1 Z1.4 F7200
G1 X132.453 Y133.525 Z1.4
G1 Z1
G1 E1.2 F1800
;WIDTH:0.361584
G1 F1500
G1 X132.51 Y133.378 E.00411
G1 X132.592 Y133.286 E.0032
G1 X132.748 Y133.283 E.00404
G1 X132.816 Y133.376 E.00298
G1 X132.794 Y133.53 E.00403
G1 X132.673 Y133.596 E.00358
G1 X132.453 Y133.525 E.00599
G1 E-.84 F1800
;WIPE_START
G1 F1500
G1 X132.673 Y133.596 E-.08303
G1 X132.794 Y133.53 E-.04964
G1 X132.816 Y133.376 E-.05587
G1 X132.748 Y133.283 E-.04137
G1 X132.592 Y133.286 E-.05606
G1 X132.51 Y133.378 E-.04436
G1 X132.481 Y133.455 E-.02967
;WIPE_END
G1 Z1.4 F7200
G1 X125.044 Y133.897 Z1.4
G1 Z1
G1 E1.2 F1800
;WIDTH:0.356142
G1 F1500
G1 X124.904 Y133.738 E.00542
;WIDTH:0.35792
G1 X124.893 Y133.532 E.00529
G1 X125.08 Y133.518 E.0048
;WIDTH:0.356142
G1 X125.264 Y133.682 E.00629
G1 X125.044 Y133.897 E.00785
G1 E-.84 F1800
;WIPE_START
G1 F1500
G1 X125.264 Y133.682 E-.11079
G1 X125.08 Y133.518 E-.08874
G1 X124.893 Y133.532 E-.06739
G1 X124.904 Y133.738 E-.07421
G1 X124.938 Y133.777 E-.01887
;WIPE_END
G1 Z1.4 F7200
G1 X87.57 Y120.602 Z1.4
G1 Z1
G1 E1.2 F1800
;WIDTH:0.399099
G1 F1500
G1 X87.452 Y120.732 E.0051
;WIDTH:0.399581
G1 X87.316 Y120.779 E.00419
G1 X87.191 Y120.72 E.00401
G1 X87.147 Y120.576 E.00437
G1 X87.213 Y120.459 E.00391
G1 X87.379 Y120.422 E.00494
;WIDTH:0.399099
G1 X87.57 Y120.602 E.00762
G1 E-.84 F1800
;WIPE_START
G1 F1500
G1 X87.379 Y120.422 E-.09457
G1 X87.213 Y120.459 E-.0612
G1 X87.147 Y120.576 E-.04843
G1 X87.191 Y120.72 E-.05417
G1 X87.316 Y120.779 E-.04969
G1 X87.452 Y120.732 E-.05193
G1 X87.453 Y120.732 E-.00002
;WIPE_END
G1 Z1.4 F7200
G1 X135.057 Y117.929 Z1.4
G1 Z1
G1 E1.2 F1800
M204 P500
;TYPE:Outer wall
;WIDTH:0.419693
G1 F3600
M106 S255
G1 X135.432 Y117.874 E.01164
G1 X135.436 Y118.106 E.00712
;WIDTH:0.42112
G1 X135.443 Y118.703 E.0184
G1 F1500
G1 X135.445 Y118.906 E.00626
M204 P250
;TYPE:Overhang wall
;WIDTH:0.422277
G1 X135.446 Y118.961 E.00171
G1 X135.497 Y119.087 E.0042
;WIDTH:0.421721
G1 X142.11 Y126.216 E.30014
;WIDTH:0.42246
G1 X142.229 Y126.254 E.00385
G1 X143.385 Y126.254 E.03576
G1 X143.385 Y126.444 E.00587
G1 X143.573 Y126.645 E.00852
;WIDTH:0.42166
G1 X143.782 Y126.657 E.00647
G1 X143.778 Y127.97 E.04052
;WIDTH:0.45338
G1 X143.794 Y128.049 E.00269
;WIDTH:0.486161
G1 X143.81 Y128.127 E.00291
G1 X143.888 Y128.144 E.00288
;WIDTH:0.453901
G1 X143.966 Y128.16 E.00267
;WIDTH:0.421784
G1 X151.972 Y128.163 E.24715
;WIDTH:0.46903
G1 X152.161 Y128.187 E.00662
;WIDTH:0.516275
G1 X152.35 Y128.211 E.00735
G1 X152.539 Y128.187 E.00736
;WIDTH:0.468946
G1 X152.729 Y128.163 E.00662
;WIDTH:0.421616
G1 X163.163 Y128.168 E.32198
;WIDTH:0.421459
G1 X163.21 Y127.978 E.00602
;WIDTH:0.420459
M73 P4 R8
G1 X163.21 Y123.928 E.12463
;WIDTH:0.467902
G1 X163.187 Y123.833 E.00338
;WIDTH:0.515345
G1 X163.163 Y123.738 E.00376
G1 X163.092 Y123.738 E.00272
;WIDTH:0.468402
G1 X163.021 Y123.738 E.00245
;WIDTH:0.421459
G1 X143.8 Y123.738 E.59292
;WIDTH:0.436521
G1 X143.405 Y123.343 E.01792
G1 X143.398 Y123.112 E.00742
;WIDTH:0.421784
G1 X143.404 Y121.702 E.04351
;WIDTH:0.421539
G1 X143.782 Y121.703 E.01168
G1 X143.782 Y121.893 E.00585
;WIDTH:0.421784
G1 X143.777 Y123.144 E.03863
G1 X143.889 Y123.304 E.00604
;WIDTH:0.421459
G1 X144.023 Y123.36 E.00447
G1 X163.163 Y123.36 E.59039
G1 X163.21 Y123.17 E.00602
;WIDTH:0.420459
G1 X163.21 Y118.876 E.13213
;WIDTH:0.468152
G1 X163.186 Y118.781 E.00339
;WIDTH:0.515844
G1 X163.163 Y118.686 E.00377
G1 X163.092 Y118.686 E.00272
;WIDTH:0.469149
G1 X163.021 Y118.686 E.00245
;WIDTH:0.422454
G1 X144.082 Y118.686 E.58573
G1 X143.904 Y118.519 E.00755
;WIDTH:0.436482
G1 X143.405 Y118.009 E.0229
G1 X143.398 Y117.777 E.00743
;WIDTH:0.421681
G1 X143.404 Y116.621 E.03569
;WIDTH:0.421527
G1 X143.782 Y116.623 E.01168
G1 X143.781 Y116.812 E.00584
;WIDTH:0.436482
G1 X143.784 Y117.854 E.03342
G1 X144.172 Y118.251 E.01779
;WIDTH:0.422454
G1 X144.305 Y118.306 E.00447
G1 X163.163 Y118.306 E.58321
G1 X163.21 Y118.116 E.00605
;WIDTH:0.420459
G1 X163.21 Y113.678 E.13656
;WIDTH:0.467902
G1 X163.187 Y113.583 E.00338
;WIDTH:0.515345
G1 X163.163 Y113.488 E.00376
G1 X163.092 Y113.488 E.00272
;WIDTH:0.468402
G1 X163.021 Y113.488 E.00245
;WIDTH:0.42146
G1 X143.714 Y113.488 E.59556
;WIDTH:0.4434
G1 X143.408 Y113.183 E.0141
G1 X143.398 Y112.918 E.00865
;WIDTH:0.421687
G1 X143.404 Y111.541 E.04251
;WIDTH:0.421519
G1 X143.782 Y111.543 E.01168
;WIDTH:0.421687
G1 X143.777 Y112.92 E.0425
;WIDTH:0.433118
G1 X143.829 Y113.059 E.00472
M73 P5 R8
G1 X143.966 Y113.11 E.00467
;WIDTH:0.42146
G1 X163.163 Y113.11 E.59213
G1 X163.21 Y112.92 E.00602
;WIDTH:0.420459
G1 X163.21 Y108.548 E.13453
;WIDTH:0.467902
G1 X163.187 Y108.453 E.00338
;WIDTH:0.515345
G1 X163.163 Y108.358 E.00376
G1 X163.092 Y108.358 E.00272
;WIDTH:0.468403
G1 X163.021 Y108.358 E.00245
;WIDTH:0.42146
G1 X143.786 Y108.358 E.59334
;WIDTH:0.436869
G1 X143.405 Y107.977 E.01731
G1 X143.398 Y107.744 E.0075
;WIDTH:0.421732
G1 X143.404 Y106.461 E.03959
;WIDTH:0.421535
G1 X143.782 Y106.463 E.01168
G1 X143.782 Y106.652 E.00583
;WIDTH:0.421732
G1 X143.777 Y107.776 E.0347
G1 X143.877 Y107.924 E.00553
G1 X144.011 Y107.98 E.00447
;WIDTH:0.42146
G1 X163.163 Y107.98 E.59076
G1 X163.21 Y107.79 E.00602
;WIDTH:0.420459
G1 X163.21 Y103.47 E.13293
;WIDTH:0.467902
G1 X163.187 Y103.375 E.00338
;WIDTH:0.515345
G1 X163.163 Y103.28 E.00376
G1 X163.092 Y103.28 E.00272
;WIDTH:0.468403
G1 X163.021 Y103.28 E.00245
;WIDTH:0.42146
G1 X144.042 Y103.28 E.58543
;WIDTH:0.421684
G1 X143.865 Y103.114 E.00749
;WIDTH:0.436834
G1 X143.405 Y102.643 E.02115
G1 X143.398 Y102.409 E.00751
;WIDTH:0.421613
G1 X143.404 Y101.381 E.03173
G1 X143.782 Y101.383 E.01168
G1 X143.781 Y101.572 E.00584
;WIDTH:0.436834
G1 X143.784 Y102.487 E.02937
G1 X144.133 Y102.846 E.01608
;WIDTH:0.421684
G1 X144.267 Y102.902 E.00447
;WIDTH:0.468402
G1 X153.715 Y102.902 E.32757
;WIDTH:0.515345
G1 X163.163 Y102.902 E.36371
G1 X163.187 Y102.807 E.00376
;WIDTH:0.467902
G1 X163.21 Y102.712 E.00338
;WIDTH:0.420459
G1 X163.21 Y98.376 E.13342
;WIDTH:0.467902
G1 X163.187 Y98.281 E.00338
;WIDTH:0.515345
G1 X163.163 Y98.186 E.00376
G1 X163.092 Y98.186 E.00272
;WIDTH:0.468403
G1 X163.021 Y98.186 E.00245
;WIDTH:0.42146
G1 X143.966 Y98.186 E.58778
;WIDTH:0.453914
G1 X143.698 Y98.17 E.009
;WIDTH:0.486368
M73 P6 R8
G1 X143.43 Y98.154 E.00971
G1 X143.415 Y97.885 E.00974
;WIDTH:0.453541
G1 X143.4 Y97.616 E.00902
;WIDTH:0.421267
G1 X143.406 Y96.301 E.04054
G1 X143.784 Y96.303 E.01167
G1 X143.778 Y97.617 E.04054
;WIDTH:0.453541
G1 X143.794 Y97.696 E.00269
;WIDTH:0.486368
G1 X143.81 Y97.775 E.00291
G1 X143.888 Y97.792 E.00289
;WIDTH:0.453914
G1 X143.966 Y97.808 E.00268
;WIDTH:0.42146
G1 X163.163 Y97.808 E.59213
G1 X163.21 Y97.618 E.00602
;WIDTH:0.420459
G1 X163.21 Y93.297 E.13294
;WIDTH:0.467902
G1 X163.187 Y93.203 E.00338
;WIDTH:0.515344
G1 X163.163 Y93.108 E.00376
G1 X163.091 Y93.108 E.00274
;WIDTH:0.468396
G1 X163.02 Y93.108 E.00247
;WIDTH:0.421448
G1 X144.028 Y93.234 E.58583
G1 X143.848 Y93.065 E.0076
;WIDTH:0.436623
G1 X143.406 Y92.611 E.02033
G1 X143.399 Y92.378 E.00748
;WIDTH:0.421461
G1 X143.399 Y91.094 E.03961
G1 X143.777 Y91.094 E.01168
G1 X143.777 Y92.446 E.0417
G1 X144.117 Y92.798 E.01509
G1 X144.252 Y92.854 E.00452
G1 X163.163 Y92.729 E.58334
G1 X163.21 Y92.54 E.00599
;WIDTH:0.420459
G1 X163.21 Y81.136 E.35085
;WIDTH:0.420998
G1 X163.155 Y81.002 E.00445
;WIDTH:0.421681
G1 X157.017 Y74.864 E.26794
;WIDTH:0.442133
G1 X156.91 Y74.8 E.00406
;WIDTH:0.449999
G1 X156.632 Y74.759 E.00932
G1 X156.415 Y74.596 E.00899
;WIDTH:0.440925
G1 X156.293 Y74.564 E.00409
;WIDTH:0.42246
G1 X152.202 Y74.564 E.12652
;WIDTH:0.449999
