; HEADER_BLOCK_START
; generated by OrcaSlicer 2.0.0 on 2024-05-23 at 09:55:21
; total layer number: 9
; filament_density: 1.24
; filament_diameter: 1.75
; max_z_height: 1.80
; HEADER_BLOCK_END

; THUMBNAIL_BLOCK_START

;
; THUMBNAIL_BLOCK_END

; THUMBNAIL_BLOCK_START

;
; THUMBNAIL_BLOCK_END

; external perimeters extrusion width = 0.45mm
; perimeters extrusion width = 0.45mm
; infill extrusion width = 0.45mm
; solid infill extrusion width = 0.45mm
; top infill extrusion width = 0.40mm

; EXECUTABLE_BLOCK_START
M73 P0 R20
M201 X5000 Y5000 Z500 E5000
M203 X500 Y500 Z30 E100
M204 P5000 R2500 T5000 ; sets acceleration (P, T) and retract acceleration (R), mm/sec^2
M205 X10.00 Y10.00 Z0.40 E5.00 ; sets the jerk limits, mm/sec
;TYPE:Custom
M220 S100 ;Reset Feedrate 
M221 S100 ;Reset Flowrate 
 
M140 S55 ;Set final bed temp 
G28 ;Home 
M420 S1; Enable mesh leveling 
G92 E0 ;Reset Extruder 
G1 Z2.0 F3000 ;Move Z Axis up 
M104 S220 ;Set final nozzle temp 
G1 X-2.1 Y20 Z0.28 F5000.0 ;Move to start position 
M190 S55 ;Wait for bed temp to stabilize 
M109 S220 ;Wait for nozzle temp to stabilize 
G1 X-2.1 Y145.0 Z0.28 F1500.0 E15 ;Draw the first line 
G1 X-2.4 Y145.0 Z0.28 F5000.0 ;Move to side a little 
G1 X-2.4 Y20 Z0.28 F1500.0 E30 ;Draw the second line 
G92 E0  ;Reset Extruder 
G1 E-1.0000 F1800 ;Retract a bit 
G1 Z2.0 F3000 ;Move Z Axis up 
G1 E0.0000 F1800
G90
G21
M83 ; use relative distances for extrusion
; filament start gcode
M106 S0
;LAYER_CHANGE
;Z:0.2
;HEIGHT:0.2
;BEFORE_LAYER_CHANGE
;0.2
G92 E0

G1 E-1.2 F1800
;_SET_FAN_SPEED_CHANGING_LAYER
M204 P300
M204 T300
G1 Z.4 F7200
G1 X114.215 Y114.613
G1 Z.4
M73 P1 R20
G1 Z.2
G1 E1.2 F1800
;TYPE:Skirt
;WIDTH:0.45
G1 F1200
G1 X115.686 Y113.163 E.06852
G1 X116.679 Y112.642 E.0372
G1 X118.074 Y112.519 E.04644
G1 X119.143 Y112.858 E.0372
G1 X119.83 Y113.342 E.02788
G1 X120.509 Y114.234 E.0372
G1 X120.862 Y115.589 E.04644
G1 X120.753 Y116.522 E.03115
G1 X120.645 Y116.856 E.01164
G1 X120.433 Y117.328 E.01716
G1 X119.675 Y118.555 E.04785
G1 X118.721 Y119.387 E.042
G1 X117.814 Y119.808 E.03316
G1 X117.137 Y120.008 E.0234
G1 X116.016 Y120.026 E.0372
G1 X115.211 Y119.785 E.02788
G1 X114.284 Y119.153 E.0372
G1 X113.631 Y118.242 E.0372
G1 X113.316 Y116.878 E.04644
G1 X113.504 Y115.772 E.0372
G1 X113.841 Y115.089 E.0253
G1 X114.19 Y114.644 E.01875
; printing object pcb.stl id:140705390666008 copy 0
G1 E-.84 F1800
;WIPE_START
G1 F3000
G1 X114.901 Y113.94 E-.36
;WIPE_END
G1 Z.6 F7200
G1 X116.095 Y116.424 Z.6
G1 Z.2
G1 E1.2 F1800
;TYPE:Brim
G1 F1200
G1 X117.207 Y115.285 E.05281
G1 X117.394 Y115.153 E.00761
G1 X117.599 Y115.098 E.00703
G1 X117.81 Y115.116 E.00703
G1 X118.002 Y115.206 E.00703
G1 X118.151 Y115.357 E.00703
G1 X118.24 Y115.549 E.00703
G1 X118.256 Y115.756 E.00689
G1 X118.168 Y116.031 E.00957
G1 X117.67 Y116.882 E.03271
G1 X117.519 Y117.061 E.00776
G1 X117.364 Y117.157 E.00605
G1 X116.788 Y117.408 E.02085
G1 X116.564 Y117.461 E.00764
G1 X116.353 Y117.437 E.00703
G1 X116.164 Y117.341 E.00703
G1 X116.019 Y117.187 E.00703
G1 X115.936 Y116.992 E.00703
G1 X115.925 Y116.78 E.00703
G1 X115.989 Y116.574 E.00715
G1 X116.071 Y116.457 E.00475
G1 X116.38 Y116.715 F7200
G1 F1200
G1 X117.508 Y115.559 E.05354
G1 X117.635 Y115.5 E.00466
G1 X117.77 Y115.537 E.00466
G1 X117.849 Y115.653 E.00466
G1 X117.828 Y115.805 E.0051
G1 X117.309 Y116.694 E.03412
G1 X117.215 Y116.778 E.00419
G1 X116.609 Y117.041 E.02192
G1 X116.469 Y117.05 E.00466
G1 X116.357 Y116.965 E.00466
G1 X116.326 Y116.828 E.00466
G1 X116.363 Y116.751 E.00285
G1 X117.07 Y116.458 F7200
;TYPE:Outer wall
;WIDTH:0.38292
G1 F1200
G1 X117.006 Y116.495 E.00204
G1 X117.07 Y116.531 E.00204
G1 X117.091 Y116.495 E.00118
; stop printing object pcb.stl id:140705390666008 copy 0
G1 E-1.01028 F1800
;WIPE_START
G1 X117.07 Y116.531 E-.0425
G1 X117.006 Y116.495 E-.07361
G1 X117.07 Y116.458 E-.07361
;WIPE_END
M106 S255
;LAYER_CHANGE
;Z:0.4
;HEIGHT:0.2
;BEFORE_LAYER_CHANGE
;0.4
G92 E0

;_SET_FAN_SPEED_CHANGING_LAYER
M204 P500
; printing object pcb.stl id:140705390666008 copy 0
M204 T5000
G1 Z.6 F7200
G1 X166.758 Y91.476
G1 Z.4
G1 E1.2 F1800
M204 P250
;TYPE:Overhang wall
G1 F1500
G1 X165.319 Y91.482 E.03987
G1 E-.84 F1800
;WIPE_START
G1 F1500
G1 X166.319 Y91.478 E-.36
;WIPE_END
G1 Z.8 F7200
G1 X152.679 Y109.871 Z.8
G1 Z.4
G1 E1.2 F1800
G1 F1500
G1 X152.688 Y121.271 E.31585
G1 X152.705 Y121.356 E.00239
G1 X155.57 Y121.325 E.07938
G1 X161.915 Y121.325 E.17581
G1 E-.84 F1800
;WIPE_START
G1 F1500
G1 X160.915 Y121.325 E-.36
;WIPE_END
G1 Z.8 F7200
G1 X146.706 Y121.641 Z.8
G1 Z.4
G1 E1.2 F1800
G1 F1500
G1 X151.154 Y121.644 E.12323
G1 X151.222 Y121.674 E.00206
G1 X155.485 Y126.313 E.17456
G1 X155.553 Y126.343 E.00206
G1 X158.146 Y126.343 E.07184
G1 X162.103 Y126.381 E.10965
G1 E-.84 F1800
;WIPE_START
G1 F1500
G1 X161.103 Y126.371 E-.36
;WIPE_END
G1 Z.8 F7200
G1 X146.706 Y122.911 Z.8
G1 Z.4
G1 E1.2 F1800
G1 F1500
G1 X150.391 Y122.913 E.10211
G1 X150.457 Y122.941 E.00196
G1 X153.263 Y125.747 E.10997
G1 X153.29 Y125.813 E.00197
G1 X153.291 Y129.336 E.0976
G1 X155.36 Y131.782 E.08877
G1 X155.431 Y131.814 E.00215
G1 X158.024 Y131.814 E.07184
G1 X162.1 Y131.851 E.11294
G1 E-.84 F1800
;WIPE_START
G1 F1500
G1 X161.1 Y131.842 E-.36
;WIPE_END
G1 Z.8 F7200
G1 X146.707 Y124.181 Z.8
G1 Z.4
G1 E1.2 F1800
G1 F1500
G1 X150.01 Y124.183 E.09153
G1 X150.076 Y124.211 E.00196
G1 X151.993 Y126.128 E.07513
G1 X152.02 Y126.194 E.00196
G1 X152.02 Y133.102 E.1914
G1 X152.048 Y133.168 E.00196
G1 X155.482 Y136.602 E.13458
G1 X155.548 Y136.63 E.00196
G1 X158.238 Y136.63 E.07452
G1 X162.231 Y136.668 E.11064
G1 E-.84 F1800
;WIPE_START
G1 F1500
G1 X161.231 Y136.658 E-.36
;WIPE_END
G1 Z.8 F7200
G1 X146.706 Y125.451 Z.8
G1 Z.4
G1 E1.2 F1800
G1 F1500
G1 X149.629 Y125.453 E.081
G1 X149.695 Y125.481 E.00196
G1 X150.723 Y126.509 E.0403
G1 X150.75 Y126.575 E.00196
G1 X150.75 Y137.039 E.28992
G1 X150.778 Y137.105 E.00196
G1 X155.381 Y141.708 E.18038
G1 X156.787 Y141.817 E.03905
G1 E-.84 F1800
;WIPE_START
G1 F1500
G1 X155.79 Y141.74 E-.36
;WIPE_END
G1 Z.8 F7200
G1 X146.571 Y130.738 Z.8
G1 Z.4
G1 E1.2 F1800
G1 F1500
G1 X148.051 Y132.271 E.05902
G1 X149.098 Y133.318 E.04102
G1 X149.125 Y133.383 E.00196
G1 X149.125 Y137.134 E.10391
G1 X149.153 Y137.2 E.00199
G1 X149.98 Y138.018 E.03223
G1 X151.536 Y139.648 E.06241
G1 E-.84 F1800
;WIPE_START
G1 F1500
G1 X150.845 Y138.924 E-.36
;WIPE_END
G1 Z.8 F7200
G1 X139.073 Y129.261 Z.8
G1 Z.4
M73 P2 R20
G1 E1.2 F1800
G1 F1500
G1 X133.99 Y129.263 E.14081
G1 X133.925 Y129.291 E.00196
G1 X124.601 Y138.611 E.36525
G1 E-.84 F1800
;WIPE_START
G1 F1500
G1 X125.308 Y137.904 E-.36
;WIPE_END
G1 Z.8 F7200
G1 X139.073 Y127.991 Z.8
G1 Z.4
G1 E1.2 F1800
G1 F1500
G1 X131.323 Y127.994 E.2147
G1 X131.258 Y128.021 E.00196
G1 X124.728 Y134.547 E.25577
G1 E-.84 F1800
;WIPE_START
G1 F1500
G1 X125.436 Y133.84 E-.36
;WIPE_END
G1 Z.8 F7200
G1 X139.189 Y121.593 Z.8
G1 Z.4
G1 E1.2 F1800
G1 F1500
G1 X137.316 Y119.723 E.07335
G1 X137.288 Y119.657 E.00197
G1 X137.291 Y118.191 E.04061
G1 E-.84 F1800
;WIPE_START
G1 F1500
G1 X137.289 Y119.191 E-.36
;WIPE_END
G1 Z.8 F7200
G1 X139.305 Y130.764 Z.8
G1 Z.4
G1 E1.2 F1800
G1 F1500
G1 X141.201 Y130.756 E.05251
G1 X141.219 Y130.669 E.00245
G1 X141.219 Y107.444 E.64348
G1 X141.133 Y107.426 E.00242
G1 X137.418 Y107.417 E.10294
G1 E-.84 F1800
;WIPE_START
G1 F1500
G1 X138.418 Y107.419 E-.36
;WIPE_END
G1 Z.8 F7200
G1 X136.91 Y103.48 Z.8
G1 Z.4
G1 E1.2 F1800
G1 F1500
G1 X142.009 Y103.482 E.14128
G1 X142.075 Y103.51 E.00196
G1 X144.373 Y105.808 E.09006
G1 X144.4 Y105.874 E.00196
G1 X144.394 Y126.644 E.57546
G1 X144.412 Y126.731 E.00244
G1 X146.473 Y126.721 E.05712
G1 E-.84 F1800
;WIPE_START
G1 F1500
G1 X145.473 Y126.726 E-.36
;WIPE_END
G1 Z.8 F7200
G1 X144.809 Y101.64 Z.8
G1 Z.4
G1 E1.2 F1800
G1 F1500
G1 X136.502 Y101.64 E.23016
G1 X132.982 Y101.673 E.09753
G1 X132.964 Y101.759 E.00242
G1 X132.97 Y119.132 E.48134
G1 X132.998 Y119.198 E.00196
G1 X136.686 Y122.886 E.14454
G1 X136.752 Y122.914 E.00196
G1 X139.073 Y122.911 E.0643
G1 E-.84 F1800
;WIPE_START
M73 P2 R19
G1 F1500
G1 X138.073 Y122.912 E-.36
;WIPE_END
G1 Z.8 F7200
G1 X162.169 Y116.499 Z.8
G1 Z.4
G1 E1.2 F1800
G1 F1500
G1 X156.791 Y116.499 E.14901
G1 X154.354 Y116.529 E.06752
G1 X154.338 Y116.444 E.00242
G1 X154.458 Y110.03 E.17773
G1 X154.432 Y109.964 E.00196
G1 X145.028 Y100.184 E.3759
G1 X144.96 Y100.155 E.00203
G1 X131.838 Y100.274 E.36357
G1 X131.821 Y100.359 E.00242
G1 X131.827 Y119.894 E.54122
G1 X131.855 Y119.96 E.00196
G1 X136.051 Y124.156 E.16444
G1 X136.117 Y124.184 E.00196
G1 X139.072 Y124.181 E.08187
G1 E-.84 F1800
;WIPE_START
G1 F1500
G1 X138.072 Y124.182 E-.36
;WIPE_END
G1 Z.8 F7200
M73 P3 R19
G1 X162.043 Y111.294 Z.8
G1 Z.4
G1 E1.2 F1800
G1 F1500
G1 X158.693 Y111.381 E.09286
G1 X157.233 Y111.455 E.04048
G1 X157.163 Y111.428 E.00209
G1 X145.788 Y99.042 E.46591
G1 X145.72 Y99.012 E.00208
G1 X130.695 Y99.131 E.41627
G1 X130.678 Y99.217 E.00242
G1 X130.684 Y120.783 E.59751
G1 X130.712 Y120.849 E.00196
G1 X135.289 Y125.426 E.17937
G1 X135.355 Y125.454 E.00196
G1 X139.073 Y125.451 E.103
G1 E-.84 F1800
;WIPE_START
G1 F1500
G1 X138.073 Y125.452 E-.36
;WIPE_END
G1 Z.8 F7200
G1 X163.971 Y108.059 Z.8
G1 Z.4
G1 E1.2 F1800
G1 F1500
G1 X156.662 Y100.75 E.2864
G1 X153.37 Y97.514 E.12789
G1 X153.306 Y97.488 E.00192
G1 X129.299 Y97.481 E.66513
G1 X129.281 Y97.567 E.00244
G1 X129.287 Y121.164 E.65377
G1 X129.315 Y121.23 E.00196
G1 X134.781 Y126.696 E.2142
G1 X134.847 Y126.724 E.00196
G1 X139.073 Y126.721 E.11708
G1 E-.84 F1800
;WIPE_START
G1 F1500
G1 X138.073 Y126.722 E-.36
;WIPE_END
G1 Z.8 F7200
G1 X158.745 Y108.158 Z.8
G1 Z.4
G1 E1.2 F1800
G1 F1500
G1 X162.243 Y108.158 E.0969
G1 E-.84 F1800
;WIPE_START
G1 F1500
G1 X161.243 Y108.158 E-.36
;WIPE_END
G1 Z.8 F7200
G1 X170.84 Y113.238 Z.8
G1 Z.4
G1 E1.2 F1800
G1 F1500
G1 X167.854 Y113.238 E.08272
G1 X164.111 Y113.197 E.10371
G1 E-.84 F1800
;WIPE_START
G1 F1500
G1 X165.111 Y113.208 E-.36
;WIPE_END
G1 Z.8 F7200
G1 X158.745 Y113.238 Z.8
G1 Z.4
G1 E1.2 F1800
G1 F1500
G1 X162.243 Y113.238 E.0969
G1 E-.84 F1800
;WIPE_START
G1 F1500
G1 X161.243 Y113.238 E-.36
;WIPE_END
G1 Z.8 F7200
G1 X158.745 Y118.318 Z.8
G1 Z.4
G1 E1.2 F1800
G1 F1500
G1 X162.243 Y118.318 E.0969
G1 E-.84 F1800
;WIPE_START
G1 F1500
G1 X161.243 Y118.318 E-.36
;WIPE_END
G1 Z.8 F7200
G1 X170.84 Y118.318 Z.8
G1 Z.4
G1 E1.2 F1800
G1 F1500
G1 X167.854 Y118.318 E.08272
G1 X164.111 Y118.277 E.10371
G1 E-.84 F1800
;WIPE_START
G1 F1500
G1 X165.111 Y118.288 E-.36
;WIPE_END
G1 Z.8 F7200
G1 X164.111 Y123.357 Z.8
G1 Z.4
G1 E1.2 F1800
G1 F1500
G1 X167.854 Y123.398 E.10371
G1 X170.84 Y123.398 E.08272
G1 E-.84 F1800
;WIPE_START
G1 F1500
G1 X169.84 Y123.398 E-.36
;WIPE_END
G1 Z.8 F7200
G1 X158.745 Y123.398 Z.8
G1 Z.4
G1 E1.2 F1800
G1 F1500
G1 X162.243 Y123.398 E.0969
G1 E-.84 F1800
;WIPE_START
G1 F1500
G1 X161.243 Y123.398 E-.36
;WIPE_END
G1 Z.8 F7200
G1 X158.745 Y128.478 Z.8
G1 Z.4
G1 E1.2 F1800
G1 F1500
G1 X162.243 Y128.478 E.0969
G1 E-.84 F1800
;WIPE_START
M73 P4 R19
G1 F1500
G1 X161.243 Y128.478 E-.36
;WIPE_END
G1 Z.8 F7200
G1 X158.745 Y133.558 Z.8
G1 Z.4
G1 E1.2 F1800
G1 F1500
G1 X162.243 Y133.558 E.0969
G1 E-.84 F1800
;WIPE_START
G1 F1500
G1 X161.243 Y133.558 E-.36
;WIPE_END
G1 Z.8 F7200
G1 X158.745 Y138.638 Z.8
G1 Z.4
G1 E1.2 F1800
G1 F1500
G1 X162.243 Y138.638 E.0969
G1 E-.84 F1800
;WIPE_START
G1 F1500
G1 X161.243 Y138.638 E-.36
;WIPE_END
G1 Z.8 F7200
G1 X162.359 Y143.438 Z.8
G1 Z.4
G1 E1.2 F1800
G1 F1500
G1 X162.241 Y143.361 E.00391
G1 X158.745 Y143.358 E.09686
G1 E-.84 F1800
;WIPE_START
G1 F1500
G1 X159.745 Y143.359 E-.36
;WIPE_END
G1 Z.8 F7200
G1 X164.176 Y143.485 Z.8
G1 Z.4
G1 E1.2 F1800
G1 F1500
G1 X170.84 Y143.485 E.18462
G1 E-.84 F1800
;WIPE_START
G1 F1500
G1 X169.84 Y143.485 E-.36
;WIPE_END
G1 Z.8 F7200
G1 X164.176 Y138.405 Z.8
G1 Z.4
G1 E1.2 F1800
G1 F1500
G1 X170.84 Y138.405 E.18462
G1 E-.84 F1800
;WIPE_START
G1 F1500
G1 X169.84 Y138.405 E-.36
;WIPE_END
G1 Z.8 F7200
G1 X165.38 Y133.513 Z.8
G1 Z.4
G1 E1.2 F1800
G1 F1500
G1 X167.855 Y133.558 E.06857
G1 X170.84 Y133.558 E.0827
G1 E-.84 F1800
;WIPE_START
G1 F1500
G1 X169.84 Y133.558 E-.36
;WIPE_END
G1 Z.8 F7200
G1 X164.172 Y128.287 Z.8
G1 Z.4
G1 E1.2 F1800
G1 F1500
G1 X168.901 Y128.287 E.13103
G1 X170.842 Y128.247 E.05379
G1 E-.84 F1800
;WIPE_START
G1 F1500
G1 X169.842 Y128.268 E-.36
;WIPE_END
G1 Z.8 F7200
G1 X70.362 Y163.022 Z.8
G1 Z.4
G1 E1.2 F1800
G1 F1500
G1 X177.074 Y163.013 E2.95654
G1 X177.161 Y162.995 E.00246
G1 X177.056 Y151.069 E.33043
G1 X177.021 Y140.79 E.28477
G1 X176.99 Y140.696 E.00276
G1 X177.02 Y140.601 E.00277
G1 X177.004 Y135.739 E.13471
G1 X176.964 Y135.644 E.00285
G1 X177.003 Y135.548 E.00286
G1 X177 Y130.542 E.13871
G1 X176.958 Y130.447 E.00289
G1 X177 Y130.352 E.00289
G1 X177 Y125.411 E.13688
G1 X176.958 Y125.316 E.00289
G1 X177 Y125.221 E.00289
G1 X177 Y120.334 E.1354
G1 X176.958 Y120.239 E.00289
G1 X177 Y120.143 E.00289
G1 X177 Y115.239 E.13589
G1 X176.958 Y115.143 E.00289
G1 X177 Y115.048 E.00289
G1 X177 Y110.158 E.13547
G1 X176.958 Y110.063 E.00289
G1 X177 Y109.968 E.00289
G1 X177 Y98.059 E.32995
G1 E-.84 F1800
;WIPE_START
M73 P5 R19
G1 F1500
G1 X177 Y99.059 E-.36
;WIPE_END
G1 Z.8 F7200
G1 X176.958 Y110.063 Z.8
G1 Z.4
G1 E1.2 F1800
G1 F1500
G1 X157.613 Y110.188 E.53597
G1 X157.547 Y110.161 E.00198
G1 X157.026 Y109.64 E.0204
G1 X156.999 Y109.575 E.00196
G1 X156.997 Y108.031 E.04277
G1 E-.84 F1800
;WIPE_START
G1 F1500
G1 X156.998 Y109.031 E-.36
;WIPE_END
G1 Z.8 F7200
G1 X157.005 Y113.237 Z.8
G1 Z.4
G1 E1.2 F1800
G1 F1500
G1 X157.005 Y115.048 E.05018
G1 X157.023 Y115.134 E.00243
G1 X176.958 Y115.143 E.55232
G1 E-.84 F1800
;WIPE_START
G1 F1500
G1 X175.958 Y115.143 E-.36
;WIPE_END
G1 Z.8 F7200
G1 X157.004 Y118.317 Z.8
G1 Z.4
G1 E1.2 F1800
G1 F1500
G1 X156.999 Y119.607 E.03574
G1 X157.026 Y119.673 E.00197
G1 X157.562 Y120.209 E.021
G1 X157.628 Y120.236 E.00196
G1 X176.958 Y120.239 E.53556
G1 E-.84 F1800
;WIPE_START
G1 F1500
G1 X175.958 Y120.238 E-.36
;WIPE_END
G1 Z.8 F7200
G1 X157.004 Y123.398 Z.8
G1 Z.4
G1 E1.2 F1800
G1 F1500
G1 X156.999 Y124.941 E.04277
G1 X157.306 Y125.286 E.01279
G1 X157.371 Y125.313 E.00196
G1 X176.958 Y125.316 E.54267
G1 E-.84 F1800
;WIPE_START
G1 F1500
G1 X175.958 Y125.316 E-.36
;WIPE_END
G1 Z.8 F7200
G1 X157.004 Y128.478 Z.8
G1 Z.4
G1 E1.2 F1800
G1 F1500
G1 X156.999 Y130.148 E.04629
G1 X157.229 Y130.417 E.00981
G1 X157.295 Y130.444 E.00196
G1 X176.958 Y130.447 E.54478
G1 E-.84 F1800
;WIPE_START
G1 F1500
G1 X175.958 Y130.447 E-.36
;WIPE_END
G1 Z.8 F7200
G1 X157.004 Y133.558 Z.8
G1 Z.4
G1 E1.2 F1800
G1 F1500
G1 X156.999 Y134.974 E.03925
G1 X157.026 Y135.04 E.00197
G1 X157.6 Y135.614 E.02249
G1 X157.666 Y135.641 E.00196
G1 X176.964 Y135.644 E.53466
G1 E-.84 F1800
;WIPE_START
G1 F1500
G1 X175.964 Y135.644 E-.36
;WIPE_END
G1 Z.8 F7200
G1 X165.993 Y145.522 Z.8
G1 Z.4
G1 E1.2 F1800
G1 F1500
G1 X165.993 Y149.962 E.123
G1 E-.84 F1800
;WIPE_START
G1 F1500
G1 X165.993 Y148.962 E-.36
;WIPE_END
G1 Z.8 F7200
G1 X156.998 Y144.774 Z.8
G1 Z.4
G1 E1.2 F1800
G1 F1500
G1 X157.004 Y145.403 E.01744
G1 X157.022 Y145.487 E.00239
G1 X177.012 Y145.504 E.55384
G1 E-.84 F1800
;WIPE_START
G1 F1500
G1 X176.012 Y145.503 E-.36
;WIPE_END
G1 Z.8 F7200
G1 X157.004 Y138.638 Z.8
G1 Z.4
G1 E1.2 F1800
G1 F1500
G1 X156.999 Y140.308 E.04629
G1 X157.026 Y140.374 E.00197
G1 X157.351 Y140.693 E.01261
G1 X176.99 Y140.696 E.54412
G1 E-.84 F1800
;WIPE_START
M73 P6 R19
G1 F1500
G1 X175.99 Y140.696 E-.36
;WIPE_END
G1 Z.8 F7200
G1 X165.76 Y155.275 Z.8
G1 Z.4
G1 E1.2 F1800
G1 F1500
G1 X164.68 Y155.275 E.02992
G1 X163.324 Y155.235 E.03758
G1 E-.84 F1800
;WIPE_START
G1 F1500
G1 X164.323 Y155.265 E-.36
;WIPE_END
G1 Z.8 F7200
G1 X151.155 Y150.343 Z.8
G1 Z.4
G1 E1.2 F1800
G1 F1500
G1 X151.157 Y141.111 E.25577
G1 X150.492 Y140.29 E.02928
G1 E-.84 F1800
;WIPE_START
G1 F1500
G1 X151.122 Y141.067 E-.36
;WIPE_END
G1 Z.8 F7200
G1 X139.882 Y140.948 Z.8
G1 Z.4
G1 E1.2 F1800
G1 F1500
G1 X142.626 Y143.689 E.10744
G1 X142.691 Y143.716 E.00196
G1 X148.336 Y143.716 E.15638
G1 E-.84 F1800
;WIPE_START
G1 F1500
G1 X147.336 Y143.716 E-.36
;WIPE_END
G1 Z.8 F7200
G1 X136.506 Y143.237 Z.8
G1 Z.4
G1 E1.2 F1800
G1 F1500
G1 X136.548 Y148.493 E.14561
