; HEADER_BLOCK_START
; generated by OrcaSlicer 2.0.0 on 2024-05-13 at 22:01:33
; total layer number: 25
; filament_density: 1.24
; filament_diameter: 1.75
; max_z_height: 5.00
; HEADER_BLOCK_END

; THUMBNAIL_BLOCK_START

;
; THUMBNAIL_BLOCK_END

; THUMBNAIL_BLOCK_START

;
; THUMBNAIL_BLOCK_END

; external perimeters extrusion width = 0.45mm
; perimeters extrusion width = 0.45mm
; infill extrusion width = 0.45mm
; solid infill extrusion width = 0.45mm
; top infill extrusion width = 0.40mm

; EXECUTABLE_BLOCK_START
M73 P0 R94
M201 X5000 Y5000 Z500 E5000
M203 X500 Y500 Z30 E100
M204 P5000 R2500 T5000 ; sets acceleration (P, T) and retract acceleration (R), mm/sec^2
M205 X10.00 Y10.00 Z0.40 E5.00 ; sets the jerk limits, mm/sec
;TYPE:Custom
M220 S100 ;Reset Feedrate 
M221 S100 ;Reset Flowrate 
 
M140 S55 ;Set final bed temp 
G28 ;Home 
M420 S1; Enable mesh leveling 
G92 E0 ;Reset Extruder 
G1 Z2.0 F3000 ;Move Z Axis up 
M104 S220 ;Set final nozzle temp 
G1 X-2.1 Y20 Z0.28 F5000.0 ;Move to start position 
M190 S55 ;Wait for bed temp to stabilize 
M109 S220 ;Wait for nozzle temp to stabilize 
G1 X-2.1 Y145.0 Z0.28 F1500.0 E15 ;Draw the first line 
G1 X-2.4 Y145.0 Z0.28 F5000.0 ;Move to side a little 
G1 X-2.4 Y20 Z0.28 F1500.0 E30 ;Draw the second line 
G92 E0  ;Reset Extruder 
G1 E-1.0000 F1800 ;Retract a bit 
G1 Z2.0 F3000 ;Move Z Axis up 
G1 E0.0000 F1800
G90
G21
M83 ; use relative distances for extrusion
; filament start gcode
M106 S0
;LAYER_CHANGE
;Z:0.2
;HEIGHT:0.2
;BEFORE_LAYER_CHANGE
;0.2
G92 E0

G1 E-1.2 F1800
;_SET_FAN_SPEED_CHANGING_LAYER
M204 P300
M204 T300
G1 Z.4 F7200
G1 X42.226 Y42.618
G1 Z.4
G1 Z.2
G1 E1.2 F1800
;TYPE:Skirt
;WIDTH:0.45
G1 F3000
G1 X43.043 Y41.857 E.03705
G1 X43.948 Y41.18 E.03748
G1 X45.709 Y40.239 E.06621
G1 X47.588 Y39.659 E.06525
G1 X49.595 Y39.44 E.06697
G1 X170.399 Y39.44 E4.0073
G1 X172.412 Y39.659 E.06716
G1 X174.291 Y40.239 E.06525
G1 X176.052 Y41.18 E.06621
G1 X177.514 Y42.359 E.0623
G1 X178.441 Y43.38 E.04576
G1 X179.538 Y45.08 E.06712
G1 X180.287 Y46.966 E.06731
G1 X180.655 Y48.951 E.06697
G1 X180.695 Y170.156 E4.02057
G1 X180.632 Y171.281 E.0374
G1 X180.474 Y172.28 E.03352
G1 X179.893 Y174.159 E.06525
G1 X178.952 Y175.919 E.06621
G1 X177.774 Y177.382 E.0623
G1 X176.957 Y178.143 E.03705
G1 X176.052 Y178.82 E.03748
G1 X174.291 Y179.761 E.06621
G1 X172.412 Y180.341 E.06525
G1 X171.414 Y180.5 E.03352
G1 X170.288 Y180.563 E.0374
G1 X49.712 Y180.563 E3.99973
G1 X48.586 Y180.5 E.0374
G1 X47.588 Y180.341 E.03352
G1 X45.709 Y179.761 E.06525
G1 X43.948 Y178.82 E.06621
G1 X42.486 Y177.641 E.0623
G1 X41.724 Y176.824 E.03705
G1 X41.048 Y175.919 E.03748
G1 X40.107 Y174.159 E.06621
G1 X39.526 Y172.28 E.06525
G1 X39.368 Y171.281 E.03352
G1 X39.305 Y170.156 E.0374
G1 X39.305 Y49.844 E3.99095
G1 X39.368 Y48.719 E.0374
G1 X39.526 Y47.72 E.03352
G1 X40.107 Y45.841 E.06525
G1 X41.048 Y44.081 E.06621
G1 X42.201 Y42.649 E.06098
; printing object Base.stl id:15 copy 0
G1 E-.84 F1800
;WIPE_START
G1 F3000
G1 X42.929 Y41.964 E-.36
;WIPE_END
G1 Z.6 F7200
G1 X175.814 Y44.989 Z.6
G1 Z.2
G1 E1.2 F1800
;TYPE:Inner wall
;WIDTH:0.449999
G1 X176.23 Y45.505 E.02198
G1 X176.622 Y46.099 E.02362
G1 X176.955 Y46.73 E.02367
G1 X177.225 Y47.391 E.02369
G1 X177.431 Y48.075 E.02369
G1 X177.569 Y48.776 E.0237
G1 X177.638 Y49.499 E.02407
G1 X177.656 Y50.043 E.01808
G1 X177.656 Y170.14 E3.98383
G1 X177.62 Y170.87 E.02424
G1 X177.516 Y171.578 E.02373
G1 X177.344 Y172.273 E.02373
G1 X177.106 Y172.947 E.02373
G1 X176.803 Y173.595 E.02373
G1 X176.438 Y174.211 E.02373
G1 X176.016 Y174.788 E.02373
G1 X175.541 Y175.32 E.02365
G1 X174.918 Y175.885 E.0279
G1 X174.343 Y176.306 E.02364
G1 X173.727 Y176.67 E.02373
G1 X173.079 Y176.973 E.02373
G1 X172.405 Y177.212 E.02373
G1 X171.71 Y177.384 E.02373
G1 X171.003 Y177.488 E.02373
G1 X170.273 Y177.524 E.02424
G1 X49.727 Y177.524 E3.9987
G1 X48.997 Y177.488 E.02424
G1 X48.29 Y177.384 E.02373
G1 X47.595 Y177.212 E.02373
G1 X46.921 Y176.973 E.02373
G1 X46.273 Y176.67 E.02373
G1 X45.657 Y176.306 E.02373
G1 X45.08 Y175.883 E.02373
G1 X44.548 Y175.408 E.02365
G1 X43.983 Y174.786 E.0279
G1 X43.562 Y174.211 E.02364
G1 X43.197 Y173.595 E.02373
G1 X42.894 Y172.947 E.02373
G1 X42.656 Y172.273 E.02373
G1 X42.484 Y171.578 E.02373
G1 X42.38 Y170.87 E.02373
G1 X42.344 Y170.14 E.02424
G1 X42.344 Y49.86 E3.98993
G1 X42.38 Y49.13 E.02424
M73 P0 R93
G1 X42.484 Y48.422 E.02373
G1 X42.656 Y47.727 E.02373
G1 X42.894 Y47.053 E.02373
G1 X43.197 Y46.405 E.02373
G1 X43.562 Y45.79 E.02373
G1 X43.984 Y45.212 E.02373
G1 X44.459 Y44.68 E.02365
G1 X45.082 Y44.115 E.0279
G1 X45.657 Y43.694 E.02364
G1 X46.273 Y43.33 E.02373
G1 X46.921 Y43.027 E.02373
G1 X47.595 Y42.788 E.02373
G1 X48.29 Y42.616 E.02373
G1 X48.997 Y42.512 E.02373
G1 X49.727 Y42.476 E.02424
G1 X170.095 Y42.482 E3.99282
G1 X170.648 Y42.494 E.01832
G1 X171.358 Y42.564 E.02367
G1 X172.059 Y42.702 E.02373
G1 X172.745 Y42.908 E.02374
G1 X173.408 Y43.18 E.02379
G1 X174.048 Y43.52 E.02404
G1 X174.619 Y43.896 E.02267
G1 X175.267 Y44.432 E.0279
G1 X175.787 Y44.956 E.02449
G1 X175.789 Y44.958 E.00009
G1 X176.13 Y44.734 F7200
;TYPE:Outer wall
G1 F1800
G1 X176.558 Y45.265 E.02261
G1 X176.972 Y45.892 E.02493
G1 X177.324 Y46.558 E.02498
G1 X177.609 Y47.255 E.025
G1 X177.826 Y47.977 E.02501
G1 X177.971 Y48.717 E.02501
G1 X178.047 Y49.531 E.0271
G1 X178.063 Y50.043 E.01702
G1 X178.063 Y170.15 E3.98416
G1 X178.026 Y170.91 E.02523
G1 X177.916 Y171.657 E.02505
G1 X177.735 Y172.39 E.02505
G1 X177.483 Y173.101 E.02504
G1 X177.163 Y173.785 E.02504
G1 X176.778 Y174.435 E.02504
G1 X176.332 Y175.044 E.02504
G1 X175.83 Y175.607 E.02501
G1 X175.176 Y176.201 E.02932
G1 X174.567 Y176.646 E.02501
G1 X173.918 Y177.031 E.02504
G1 X173.234 Y177.35 E.02504
G1 X172.522 Y177.602 E.02505
G1 X171.789 Y177.784 E.02504
G1 X171.042 Y177.894 E.02505
G1 X170.283 Y177.931 E.02523
G1 X49.717 Y177.931 E3.99936
G1 X48.958 Y177.894 E.02523
G1 X48.211 Y177.784 E.02505
G1 X47.478 Y177.602 E.02504
G1 X46.766 Y177.35 E.02505
G1 X46.082 Y177.031 E.02504
G1 X45.433 Y176.646 E.02504
G1 X44.824 Y176.2 E.02504
G1 X44.261 Y175.698 E.02501
G1 X43.667 Y175.043 E.02932
G1 X43.222 Y174.435 E.02501
G1 X42.837 Y173.785 E.02504
G1 X42.517 Y173.101 E.02504
G1 X42.265 Y172.39 E.02505
G1 X42.084 Y171.657 E.02505
G1 X41.974 Y170.91 E.02505
G1 X41.937 Y170.15 E.02523
G1 X41.937 Y49.85 E3.99058
G1 X41.974 Y49.09 E.02523
G1 X42.084 Y48.343 E.02505
G1 X42.265 Y47.61 E.02505
G1 X42.517 Y46.899 E.02505
G1 X42.837 Y46.215 E.02504
G1 X43.222 Y45.565 E.02504
G1 X43.668 Y44.956 E.02504
G1 X44.17 Y44.393 E.02501
G1 X44.824 Y43.799 E.02932
G1 X45.433 Y43.354 E.02501
G1 X46.082 Y42.969 E.02504
G1 X46.766 Y42.65 E.02504
G1 X47.478 Y42.398 E.02505
G1 X48.211 Y42.216 E.02504
G1 X48.958 Y42.106 E.02505
G1 X49.717 Y42.069 E.02523
G1 X170.095 Y42.075 E3.99315
G1 X170.668 Y42.088 E.01899
M73 P1 R93
G1 X171.417 Y42.161 E.02497
G1 X172.157 Y42.307 E.02504
G1 X172.881 Y42.525 E.02505
G1 X173.581 Y42.812 E.0251
G1 X174.256 Y43.17 E.02535
G1 X174.859 Y43.568 E.02398
G1 X175.541 Y44.131 E.02932
G1 X176.09 Y44.685 E.0259
G1 X176.105 Y44.703 E.00077
G1 E-.84
;WIPE_START
G1 X176.558 Y45.265 E-.25981
G1 X176.712 Y45.497 E-.10019
;WIPE_END
G1 Z.6 F7200
G1 X176.379 Y46.009
G1 Z.6
G1 Z.2
G1 E1.2 F1800
;TYPE:Bottom surface
;WIDTH:0.45082
G1 F3600
G1 X175.292 Y44.922 E.05109
G1 X174.699 Y44.384 E.02662
G1 X174.152 Y43.983 E.02253
G1 X173.565 Y43.636 E.02266
G1 X173.309 Y43.516 E.0094
G1 X176.616 Y46.823 E.15544
G1 X176.785 Y47.184 E.01326
G1 X176.996 Y47.78 E.02098
G1 X172.353 Y43.137 E.21825
G1 X171.587 Y42.947 E.02623
G1 X177.185 Y48.546 E.26315
G1 X177.278 Y49.216 E.02249
G1 X170.917 Y42.854 E.29904
G1 X170.314 Y42.828 E.02004
G1 X177.308 Y49.822 E.32875
G1 X177.31 Y50.401 E.01925
G1 X169.737 Y42.828 E.35597
G1 X169.16 Y42.828 E.01917
G1 X177.31 Y50.978 E.38309
G1 X177.31 Y51.555 E.01917
G1 X168.583 Y42.828 E.4102
G1 X168.007 Y42.828 E.01917
G1 X177.31 Y52.132 E.43732
G1 X177.31 Y52.709 E.01917
G1 X167.43 Y42.828 E.46444
G1 X166.853 Y42.828 E.01917
G1 X177.31 Y53.285 E.49156
G1 X177.31 Y53.862 E.01917
G1 X166.276 Y42.828 E.51867
G1 X165.699 Y42.828 E.01917
G1 X177.31 Y54.439 E.54579
G1 X177.31 Y55.016 E.01917
G1 X165.122 Y42.828 E.57291
G1 X164.545 Y42.828 E.01917
G1 X177.31 Y55.593 E.60003
G1 X177.31 Y56.17 E.01917
G1 X163.968 Y42.828 E.62714
G1 X163.391 Y42.828 E.01917
G1 X177.31 Y56.747 E.65426
G1 X177.31 Y57.323 E.01917
G1 X162.815 Y42.828 E.68138
G1 X162.238 Y42.828 E.01917
G1 X177.31 Y57.9 E.7085
G1 X177.31 Y58.477 E.01917
G1 X161.661 Y42.828 E.73561
G1 X161.084 Y42.828 E.01917
G1 X177.31 Y59.054 E.76273
G1 X177.31 Y59.631 E.01917
G1 X160.507 Y42.828 E.78985
G1 X159.93 Y42.828 E.01917
G1 X177.31 Y60.208 E.81697
G1 X177.31 Y60.785 E.01917
G1 X159.353 Y42.828 E.84408
G1 X158.776 Y42.828 E.01917
G1 X177.31 Y61.361 E.8712
G1 X177.31 Y61.938 E.01917
G1 X158.199 Y42.828 E.89832
G1 X157.623 Y42.828 E.01917
G1 X177.31 Y62.515 E.92544
G1 X177.31 Y63.092 E.01917
G1 X157.046 Y42.828 E.95255
G1 X156.469 Y42.828 E.01917
G1 X177.31 Y63.669 E.97967
G1 X177.31 Y64.246 E.01917
G1 X155.892 Y42.828 E1.00679
G1 X155.315 Y42.828 E.01917
G1 X177.31 Y64.823 E1.03391
G1 X177.31 Y65.399 E.01917
G1 X154.738 Y42.828 E1.06102
G1 X154.161 Y42.828 E.01917
G1 X177.31 Y65.976 E1.08814
G1 X177.31 Y66.553 E.01917
G1 X153.584 Y42.828 E1.11526
G1 X153.007 Y42.828 E.01917
G1 X177.31 Y67.13 E1.14238
G1 X177.31 Y67.707 E.01917
G1 X152.431 Y42.828 E1.16949
G1 X151.854 Y42.827 E.01917
G1 X177.31 Y68.284 E1.19661
G1 X177.31 Y68.861 E.01917
G1 X151.277 Y42.827 E1.22373
G1 X150.7 Y42.827 E.01917
G1 X177.31 Y69.437 E1.25085
G1 X177.31 Y70.014 E.01917
G1 X150.123 Y42.827 E1.27796
G1 X149.546 Y42.827 E.01917
G1 X177.31 Y70.591 E1.30508
G1 X177.31 Y71.168 E.01917
G1 X148.969 Y42.827 E1.3322
G1 X148.392 Y42.827 E.01917
G1 X177.31 Y71.745 E1.35932
G1 X177.31 Y72.322 E.01917
G1 X147.815 Y42.827 E1.38643
G1 X147.239 Y42.827 E.01917
G1 X177.31 Y72.899 E1.41355
G1 X177.31 Y73.475 E.01917
G1 X146.662 Y42.827 E1.44067
G1 X146.085 Y42.827 E.01917
G1 X177.31 Y74.052 E1.46779
G1 X177.31 Y74.629 E.01917
G1 X145.508 Y42.827 E1.4949
G1 X144.931 Y42.827 E.01917
G1 X177.31 Y75.206 E1.52202
G1 X177.31 Y75.783 E.01917
G1 X144.354 Y42.827 E1.54914
G1 X143.777 Y42.827 E.01917
G1 X177.31 Y76.36 E1.57626
G1 X177.31 Y76.937 E.01917
G1 X143.2 Y42.827 E1.60337
G1 X142.623 Y42.827 E.01917
G1 X177.31 Y77.513 E1.63049
G1 X177.31 Y78.09 E.01917
G1 X142.047 Y42.827 E1.65761
G1 X141.47 Y42.827 E.01917
G1 X177.31 Y78.667 E1.68473
G1 X177.31 Y79.244 E.01917
G1 X140.893 Y42.827 E1.71184
G1 X140.316 Y42.827 E.01917
G1 X177.31 Y79.821 E1.73896
G1 X177.31 Y80.398 E.01917
M73 P1 R92
G1 X139.739 Y42.827 E1.76608
G1 X139.162 Y42.827 E.01917
G1 X177.31 Y80.975 E1.7932
G1 X177.31 Y81.551 E.01917
G1 X138.585 Y42.827 E1.82031
G1 X138.008 Y42.827 E.01917
G1 X177.31 Y82.128 E1.84743
G1 X177.31 Y82.705 E.01917
G1 X137.432 Y42.827 E1.87455
G1 X136.855 Y42.827 E.01917
G1 X177.31 Y83.282 E1.90167
G1 X177.31 Y83.859 E.01917
G1 X136.278 Y42.827 E1.92878
G1 X135.701 Y42.827 E.01917
G1 X177.31 Y84.436 E1.9559
G1 X177.31 Y85.013 E.01917
G1 X135.124 Y42.827 E1.98302
G1 X134.547 Y42.827 E.01917
G1 X177.31 Y85.589 E2.01014
G1 X177.31 Y86.166 E.01917
G1 X133.97 Y42.827 E2.03725
G1 X133.393 Y42.827 E.01917
G1 X177.31 Y86.743 E2.06437
G1 X177.31 Y87.32 E.01917
G1 X132.816 Y42.827 E2.09149
G1 X132.24 Y42.827 E.01917
G1 X177.31 Y87.897 E2.11861
G1 X177.31 Y88.474 E.01917
M73 P2 R92
G1 X131.663 Y42.826 E2.14572
G1 X131.086 Y42.826 E.01917
G1 X177.31 Y89.051 E2.17284
G1 X177.31 Y89.627 E.01917
G1 X130.509 Y42.826 E2.19996
G1 X129.932 Y42.826 E.01917
G1 X177.31 Y90.204 E2.22708
G1 X177.31 Y90.781 E.01917
G1 X129.355 Y42.826 E2.25419
G1 X128.778 Y42.826 E.01917
G1 X177.31 Y91.358 E2.28131
G1 X177.31 Y91.935 E.01917
G1 X128.201 Y42.826 E2.30843
G1 X127.624 Y42.826 E.01917
G1 X177.31 Y92.512 E2.33555
G1 X177.31 Y93.089 E.01917
G1 X127.048 Y42.826 E2.36266
G1 X126.471 Y42.826 E.01917
G1 X177.31 Y93.665 E2.38978
G1 X177.31 Y94.242 E.01917
G1 X125.894 Y42.826 E2.4169
G1 X125.317 Y42.826 E.01917
G1 X177.31 Y94.819 E2.44402
G1 X177.31 Y95.396 E.01917
G1 X124.74 Y42.826 E2.47113
G1 X124.163 Y42.826 E.01917
G1 X177.31 Y95.973 E2.49825
G1 X177.31 Y96.55 E.01917
G1 X123.586 Y42.826 E2.52537
G1 X123.009 Y42.826 E.01917
G1 X177.31 Y97.127 E2.55249
G1 X177.31 Y97.703 E.01917
G1 X122.432 Y42.826 E2.5796
G1 X121.856 Y42.826 E.01917
G1 X177.31 Y98.28 E2.60672
G1 X177.31 Y98.857 E.01917
G1 X121.279 Y42.826 E2.63384
G1 X120.702 Y42.826 E.01917
G1 X177.31 Y99.434 E2.66096
G1 X177.31 Y100.011 E.01917
G1 X120.125 Y42.826 E2.68807
G1 X119.548 Y42.826 E.01917
G1 X177.31 Y100.588 E2.71519
G1 X177.31 Y101.165 E.01917
G1 X118.971 Y42.826 E2.74231
G1 X118.394 Y42.826 E.01917
G1 X177.31 Y101.741 E2.76943
G1 X177.31 Y102.318 E.01917
G1 X117.817 Y42.826 E2.79654
G1 X117.24 Y42.826 E.01917
G1 X177.31 Y102.895 E2.82366
G1 X177.31 Y103.472 E.01917
G1 X116.664 Y42.826 E2.85078
G1 X116.087 Y42.826 E.01917
G1 X177.31 Y104.049 E2.8779
G1 X177.31 Y104.626 E.01917
G1 X115.51 Y42.826 E2.90501
G1 X114.933 Y42.826 E.01917
G1 X177.31 Y105.203 E2.93213
G1 X177.31 Y105.779 E.01917
G1 X114.356 Y42.826 E2.95925
G1 X113.779 Y42.826 E.01917
M73 P2 R91
G1 X177.31 Y106.356 E2.98636
G1 X177.31 Y106.933 E.01917
G1 X113.202 Y42.826 E3.01348
G1 X112.625 Y42.826 E.01917
G1 X177.31 Y107.51 E3.0406
G1 X177.31 Y108.087 E.01917
G1 X112.049 Y42.825 E3.06772
G1 X111.472 Y42.825 E.01917
G1 X177.31 Y108.664 E3.09483
G1 X177.31 Y109.241 E.01917
G1 X110.895 Y42.825 E3.12195
G1 X110.318 Y42.825 E.01917
G1 X177.31 Y109.817 E3.14907
G1 X177.31 Y110.394 E.01917
M73 P3 R91
G1 X109.741 Y42.825 E3.17619
G1 X109.164 Y42.825 E.01917
G1 X177.31 Y110.971 E3.2033
G1 X177.31 Y111.548 E.01917
G1 X108.587 Y42.825 E3.23042
G1 X108.01 Y42.825 E.01917
G1 X177.31 Y112.125 E3.25754
G1 X177.31 Y112.702 E.01917
G1 X107.433 Y42.825 E3.28466
G1 X106.857 Y42.825 E.01917
G1 X177.31 Y113.279 E3.31177
G1 X177.31 Y113.855 E.01917
G1 X106.28 Y42.825 E3.33889
G1 X105.703 Y42.825 E.01917
G1 X177.31 Y114.432 E3.36601
G1 X177.31 Y115.009 E.01917
G1 X105.126 Y42.825 E3.39313
G1 X104.549 Y42.825 E.01917
G1 X177.31 Y115.586 E3.42024
G1 X177.31 Y116.163 E.01917
G1 X103.972 Y42.825 E3.44736
G1 X103.395 Y42.825 E.01917
G1 X177.31 Y116.74 E3.47448
G1 X177.31 Y117.317 E.01917
G1 X102.818 Y42.825 E3.5016
G1 X102.241 Y42.825 E.01917
G1 X177.31 Y117.893 E3.52871
G1 X177.31 Y118.47 E.01917
G1 X101.665 Y42.825 E3.55583
G1 X101.088 Y42.825 E.01917
G1 X177.31 Y119.047 E3.58295
G1 X177.31 Y119.624 E.01917
G1 X100.511 Y42.825 E3.61007
G1 X99.934 Y42.825 E.01917
G1 X177.31 Y120.201 E3.63718
G1 X177.31 Y120.778 E.01917
G1 X99.357 Y42.825 E3.6643
G1 X98.78 Y42.825 E.01917
G1 X177.31 Y121.355 E3.69142
G1 X177.31 Y121.931 E.01917
G1 X98.203 Y42.825 E3.71854
G1 X97.626 Y42.825 E.01917
G1 X177.31 Y122.508 E3.74565
G1 X177.31 Y123.085 E.01917
G1 X97.049 Y42.825 E3.77277
G1 X96.473 Y42.825 E.01917
G1 X177.31 Y123.662 E3.79989
G1 X177.31 Y124.239 E.01917
G1 X95.896 Y42.825 E3.82701
G1 X95.319 Y42.825 E.01917
M73 P3 R90
G1 X177.31 Y124.816 E3.85412
G1 X177.31 Y125.393 E.01917
G1 X94.742 Y42.825 E3.88124
G1 X94.165 Y42.825 E.01917
G1 X177.31 Y125.97 E3.90836
G1 X177.31 Y126.546 E.01917
G1 X93.588 Y42.825 E3.93548
G1 X93.011 Y42.825 E.01917
M73 P4 R90
G1 X177.31 Y127.123 E3.96259
G1 X177.31 Y127.7 E.01917
G1 X92.434 Y42.825 E3.98971
G1 X91.857 Y42.824 E.01917
G1 X177.31 Y128.277 E4.01683
G1 X177.31 Y128.854 E.01917
G1 X91.281 Y42.824 E4.04395
G1 X90.704 Y42.824 E.01917
G1 X177.31 Y129.431 E4.07106
G1 X177.31 Y130.008 E.01917
G1 X90.127 Y42.824 E4.09818
G1 X89.55 Y42.824 E.01917
G1 X177.31 Y130.584 E4.1253
G1 X177.31 Y131.161 E.01917
G1 X88.973 Y42.824 E4.15242
G1 X88.396 Y42.824 E.01917
G1 X177.31 Y131.738 E4.17953
G1 X177.31 Y132.315 E.01917
G1 X87.819 Y42.824 E4.20665
G1 X87.242 Y42.824 E.01917
G1 X177.31 Y132.892 E4.23377
G1 X177.31 Y133.469 E.01917
G1 X86.665 Y42.824 E4.26089
G1 X86.089 Y42.824 E.01917
G1 X177.31 Y134.046 E4.288
G1 X177.31 Y134.622 E.01917
G1 X85.512 Y42.824 E4.31512
G1 X84.935 Y42.824 E.01917
G1 X177.31 Y135.199 E4.34224
