; HEADER_BLOCK_START
; generated by OrcaSlicer 2.3.0-beta on 2025-04-23 at 18:12:02
; total layer number: 15
;_GP_TOTAL_LAYER_NUMBER_PLACEHOLDER
; filament_density: 1.24
; filament_diameter: 1.75
; max_z_height: 3.00
; HEADER_BLOCK_END

; external perimeters extrusion width = 0.42mm
; perimeters extrusion width = 0.45mm
; infill extrusion width = 0.45mm
; solid infill extrusion width = 0.42mm
; top infill extrusion width = 0.42mm
; first layer extrusion width = 0.46mm

; EXECUTABLE_BLOCK_START
M201 X2500 Y2500 Z500 E5000
M203 X250 Y250 Z5 E40
M204 P2500 R500 T2500 ; sets acceleration (P, T) and retract acceleration (R), mm/sec^2
M205 X10.00 Y10.00 Z0.40 E5.00 ; sets the jerk limits, mm/sec
;TYPE:Custom
M220 S100 ;Reset Feedrate 
M221 S100 ;Reset Flowrate 
 
M104 S220 ;Set final nozzle temp 
M190 S55 ;Set and wait for bed temp to stabilize 
G28 ;Home 
G92 E0 ;Reset Extruder 
G1 Z2.0 F3000 ;Move Z Axis up 
G1 X-2.1 Y20 Z0.28 F5000.0 ;Move to start position 
M109 S220 ;Wait for nozzle temp to stabilize 
G1 X-2.1 Y145.0 Z0.28 F1500.0 E15 ;Draw the first line 
G1 X-2.4 Y145.0 Z0.28 F5000.0 ;Move to side a little 
G1 X-2.4 Y20 Z0.28 F1500.0 E30 ;Draw the second line 
G92 E0  ;Reset Extruder 
G1 E-1.0000 F1800 ;Retract a bit 
G1 Z2.0 F3000 ;Move Z Axis up 
G1 E0.0000 F1800
G90
G21
M83 ; use relative distances for extrusion
; filament start gcode
M106 S0
;LAYER_CHANGE
;Z:0.2
;HEIGHT:0.2
;BEFORE_LAYER_CHANGE
;0.2
G92 E0

G1 E-1.2 F2400
;_SET_FAN_SPEED_CHANGING_LAYER
M204 P500
; printing object Part1.STL id:0 copy 0
M204 T500
G1 Z.6 F9000
G1 X102.814 Y109.153
G1 Z.6
G1 Z.2
G1 E1.2 F1800
;TYPE:Outer wall
;WIDTH:0.519601
G1 F1200
G1 X102.955 Y108.356 E.03144
;WIDTH:0.518626
G1 X103.184 Y107.579 E.03137
;WIDTH:0.518186
G1 X103.486 Y106.857 E.03034
G1 X103.864 Y106.175 E.03019
;WIDTH:0.52598
G1 X104.154 Y105.736 E.0207
;WIDTH:0.526201
G1 X104.631 Y105.149 E.0298
G1 X105.168 Y104.614 E.02983
G1 X105.757 Y104.139 E.02983
;WIDTH:0.526006
G1 X106.393 Y103.727 E.02981
;WIDTH:0.525615
G1 X107.068 Y103.384 E.02979
;WIDTH:0.525027
G1 X107.776 Y103.113 E.02976
;WIDTH:0.524247
G1 X108.508 Y102.918 E.02971
;WIDTH:0.523269
G1 X109.256 Y102.8 E.02965
;WIDTH:0.522088
G1 X110.013 Y102.762 E.02961
G1 X110.846 Y102.816 E.03259
;WIDTH:0.518624
G1 X111.644 Y102.955 E.03141
G1 X112.421 Y103.184 E.03137
;WIDTH:0.517843
G1 X113.167 Y103.498 E.03132
;WIDTH:0.517266
G1 X113.828 Y103.864 E.02923
;WIDTH:0.526005
G1 X114.263 Y104.153 E.02057
;WIDTH:0.526199
G1 X114.851 Y104.631 E.02983
G1 X115.386 Y105.168 E.02983
G1 X115.861 Y105.757 E.02983
;WIDTH:0.526004
G1 X116.273 Y106.393 E.02982
;WIDTH:0.525614
G1 X116.616 Y107.068 E.02979
;WIDTH:0.525027
G1 X116.887 Y107.776 E.02976
;WIDTH:0.524244
G1 X117.082 Y108.508 E.02971
;WIDTH:0.523267
G1 X117.2 Y109.256 E.02965
;WIDTH:0.522092
G1 X117.237 Y110.039 E.03062
;WIDTH:0.520773
G1 X117.186 Y110.847 E.03153
;WIDTH:0.5196
G1 X117.045 Y111.644 E.03144
;WIDTH:0.518624
G1 X116.816 Y112.421 E.03137
;WIDTH:0.517843
G1 X116.502 Y113.167 E.03132
;WIDTH:0.517265
G1 X116.136 Y113.828 E.02923
;WIDTH:0.526004
G1 X115.847 Y114.263 E.02057
G1 X115.386 Y114.831 E.02879
;WIDTH:0.52618
G1 X114.832 Y115.386 E.03088
G1 X114.243 Y115.861 E.02979
;WIDTH:0.526005
G1 X113.607 Y116.273 E.02982
;WIDTH:0.525613
G1 X112.932 Y116.616 E.02979
;WIDTH:0.525027
G1 X112.224 Y116.887 E.02976
;WIDTH:0.524245
G1 X111.492 Y117.082 E.02971
;WIDTH:0.523267
G1 X110.744 Y117.2 E.02965
;WIDTH:0.522092
G1 X109.961 Y117.237 E.03062
;WIDTH:0.520773
G1 X109.153 Y117.186 E.03153
;WIDTH:0.519601
G1 X108.356 Y117.045 E.03144
;WIDTH:0.518626
G1 X107.579 Y116.816 E.03137
;WIDTH:0.517844
G1 X106.833 Y116.502 E.03132
;WIDTH:0.517267
G1 X106.172 Y116.136 E.02923
;WIDTH:0.526007
G1 X105.737 Y115.847 E.02057
;WIDTH:0.526201
G1 X105.149 Y115.369 E.02983
G1 X104.614 Y114.832 E.02983
G1 X104.155 Y114.264 E.0288
;WIDTH:0.5256
G1 X103.727 Y113.606 E.03085
G1 X103.384 Y112.932 E.02976
;WIDTH:0.525328
G1 X103.114 Y112.224 E.02978
G1 X102.918 Y111.492 E.02977
;WIDTH:0.523269
G1 X102.8 Y110.744 E.02965
;WIDTH:0.522092
G1 X102.763 Y109.961 E.03062
;WIDTH:0.520774
G1 X102.812 Y109.193 E.02997
G1 X103.279 Y109.282 F9000
;WIDTH:0.523268
G1 F1200
G1 X103.392 Y108.585 E.02762
;WIDTH:0.524247
G1 X103.577 Y107.905 E.02767
;WIDTH:0.525027
G1 X103.832 Y107.247 E.02771
;WIDTH:0.525656
G1 X104.142 Y106.641 E.02678
;WIDTH:0.52598
G1 X104.539 Y106.028 E.02874
;WIDTH:0.526202
G1 X104.982 Y105.481 E.02773
G1 X105.481 Y104.982 E.02776
G1 X106.028 Y104.538 E.02777
;WIDTH:0.526006
G1 X106.619 Y104.153 E.02776
;WIDTH:0.525615
G1 X107.063 Y103.913 E.01984
;WIDTH:0.517844
G1 X107.755 Y103.625 E.02902
;WIDTH:0.518626
G1 X108.483 Y103.413 E.02938
;WIDTH:0.519601
G1 X109.23 Y103.285 E.02944
;WIDTH:0.520819
G1 X109.962 Y103.241 E.02857
;WIDTH:0.522134
G1 X110.694 Y103.278 E.0286
;WIDTH:0.523227
G1 X111.415 Y103.392 E.0286
;WIDTH:0.524245
G1 X112.095 Y103.577 E.02764
;WIDTH:0.525027
G1 X112.753 Y103.832 E.02771
;WIDTH:0.525614
G1 X113.381 Y104.153 E.02774
;WIDTH:0.526005
G1 X113.972 Y104.538 E.02776
;WIDTH:0.5262
G1 X114.519 Y104.982 E.02777
G1 X115.018 Y105.481 E.02776
G1 X115.462 Y106.028 E.02777
;WIDTH:0.526004
G1 X115.847 Y106.619 E.02776
;WIDTH:0.525614
G1 X116.087 Y107.063 E.01984
;WIDTH:0.517843
G1 X116.375 Y107.755 E.02902
;WIDTH:0.518625
G1 X116.587 Y108.483 E.02938
;WIDTH:0.5196
G1 X116.715 Y109.23 E.02944
;WIDTH:0.520773
G1 X116.76 Y109.987 E.02952
;WIDTH:0.522092
G1 X116.721 Y110.718 E.0286
;WIDTH:0.523267
G1 X116.608 Y111.415 E.02762
;WIDTH:0.524244
G1 X116.423 Y112.095 E.02767
;WIDTH:0.525026
G1 X116.168 Y112.753 E.02771
;WIDTH:0.525614
G1 X115.847 Y113.381 E.02774
;WIDTH:0.526004
G1 X115.462 Y113.972 E.02776
G1 X115.034 Y114.5 E.02676
;WIDTH:0.52618
G1 X114.519 Y115.018 E.02879
G1 X113.972 Y115.462 E.02773
;WIDTH:0.526005
G1 X113.381 Y115.847 E.02776
;WIDTH:0.525613
G1 X112.937 Y116.087 E.01984
;WIDTH:0.517843
G1 X112.245 Y116.375 E.02902
;WIDTH:0.518624
G1 X111.517 Y116.587 E.02938
;WIDTH:0.5196
G1 X110.77 Y116.715 E.02944
;WIDTH:0.520772
G1 X110.013 Y116.76 E.02952
;WIDTH:0.522093
G1 X109.282 Y116.721 E.0286
;WIDTH:0.523268
G1 X108.585 Y116.608 E.02762
;WIDTH:0.524247
G1 X107.905 Y116.423 E.02767
;WIDTH:0.525027
G1 X107.247 Y116.168 E.02771
;WIDTH:0.525615
G1 X106.619 Y115.847 E.02774
;WIDTH:0.526007
G1 X106.028 Y115.462 E.02776
;WIDTH:0.526201
G1 X105.481 Y115.018 E.02777
G1 X104.982 Y114.519 E.02776
G1 X104.553 Y113.992 E.02677
;WIDTH:0.5256
G1 X104.153 Y113.38 E.02876
G1 X103.913 Y112.937 E.01981
;WIDTH:0.518163
G1 X103.634 Y112.267 E.0281
;WIDTH:0.518642
G1 X103.414 Y111.518 E.03028
;WIDTH:0.519602
G1 X103.285 Y110.77 E.02948
;WIDTH:0.520773
G1 X103.24 Y110.013 E.02952
;WIDTH:0.522092
G1 X103.277 Y109.322 E.02704
; stop printing object Part1.STL id:0 copy 0
G1 E-.84 F2400
;WIPE_START
G1 F1800
G1 X103.392 Y108.585 E-.26836
G1 X103.459 Y108.34 E-.09164
;WIPE_END
M106 S255
;LAYER_CHANGE
;Z:0.4
;HEIGHT:0.2
;BEFORE_LAYER_CHANGE
;0.4
G92 E0

;_SET_FAN_SPEED_CHANGING_LAYER
M204 P2500
; printing object Part1.STL id:0 copy 0
M204 T2500
G1 Z.8 F9000
G1 X102.814 Y109.153
G1 Z.4
G1 E1.2 F1800
M204 P1000
;WIDTH:0.519601
G1 F1200
G1 X102.955 Y108.356 E.03144
;WIDTH:0.518626
G1 X103.184 Y107.579 E.03137
;WIDTH:0.520055
G1 X103.464 Y106.903 E.02845
G1 X103.863 Y106.18 E.03213
;WIDTH:0.525931
G1 X104.155 Y105.735 E.02094
;WIDTH:0.526202
G1 X104.631 Y105.149 E.02973
G1 X105.168 Y104.614 E.02983
G1 X105.757 Y104.139 E.02983
;WIDTH:0.526006
G1 X106.393 Y103.727 E.02982
;WIDTH:0.525615
G1 X107.068 Y103.384 E.02979
;WIDTH:0.525028
G1 X107.776 Y103.113 E.02976
;WIDTH:0.524247
G1 X108.508 Y102.918 E.02971
;WIDTH:0.523268
G1 X109.256 Y102.8 E.02965
;WIDTH:0.524564
G1 X110.013 Y102.763 E.02973
G1 X110.844 Y102.819 E.03271
;WIDTH:0.518624
G1 X111.644 Y102.955 E.03147
G1 X112.421 Y103.184 E.03137
;WIDTH:0.517844
G1 X113.167 Y103.498 E.03132
;WIDTH:0.517266
G1 X113.828 Y103.864 E.02923
;WIDTH:0.526005
G1 X114.263 Y104.153 E.02057
;WIDTH:0.5262
G1 X114.851 Y104.631 E.02983
G1 X115.386 Y105.168 E.02983
G1 X115.861 Y105.757 E.02983
;WIDTH:0.526005
G1 X116.273 Y106.393 E.02982
;WIDTH:0.525615
G1 X116.616 Y107.068 E.02979
;WIDTH:0.525027
G1 X116.887 Y107.776 E.02976
;WIDTH:0.524244
G1 X117.082 Y108.508 E.02971
;WIDTH:0.523267
G1 X117.2 Y109.256 E.02965
;WIDTH:0.522092
G1 X117.237 Y110.039 E.03062
;WIDTH:0.520773
G1 X117.186 Y110.847 E.03153
;WIDTH:0.5196
G1 X117.045 Y111.644 E.03144
;WIDTH:0.518624
G1 X116.816 Y112.421 E.03137
;WIDTH:0.517843
G1 X116.502 Y113.167 E.03132
;WIDTH:0.517266
G1 X116.136 Y113.828 E.02923
;WIDTH:0.526004
G1 X115.847 Y114.263 E.02057
G1 X115.419 Y114.791 E.02673
;WIDTH:0.526142
G1 X114.831 Y115.387 E.03299
G1 X114.243 Y115.861 E.02973
;WIDTH:0.526005
G1 X113.607 Y116.273 E.02982
;WIDTH:0.525614
G1 X112.932 Y116.616 E.02979
;WIDTH:0.525027
G1 X112.224 Y116.887 E.02976
;WIDTH:0.524246
G1 X111.492 Y117.082 E.02971
;WIDTH:0.523267
G1 X110.744 Y117.2 E.02965
;WIDTH:0.522092
G1 X109.961 Y117.237 E.03062
;WIDTH:0.520773
G1 X109.153 Y117.186 E.03153
;WIDTH:0.519601
G1 X108.356 Y117.045 E.03144
;WIDTH:0.518626
G1 X107.579 Y116.816 E.03137
;WIDTH:0.517844
G1 X106.833 Y116.502 E.03132
;WIDTH:0.517268
G1 X106.172 Y116.136 E.02923
;WIDTH:0.526006
G1 X105.737 Y115.847 E.02057
;WIDTH:0.526202
G1 X105.149 Y115.369 E.02983
G1 X104.614 Y114.832 E.02983
G1 X104.187 Y114.305 E.02674
;WIDTH:0.525575
G1 X103.726 Y113.605 E.03295
G1 X103.384 Y112.932 E.0297
;WIDTH:0.527287
G1 X103.115 Y112.224 E.0299
G1 X102.918 Y111.492 E.02989
;WIDTH:0.523267
G1 X102.8 Y110.744 E.02965
;WIDTH:0.522092
G1 X102.763 Y109.961 E.03062
;WIDTH:0.520774
G1 X102.812 Y109.193 E.02997
G1 X103.279 Y109.282 F9000
;WIDTH:0.523268
G1 F1200
G1 X103.392 Y108.585 E.02762
;WIDTH:0.524247
G1 X103.577 Y107.905 E.02767
;WIDTH:0.525029
G1 X103.832 Y107.247 E.02771
;WIDTH:0.525899
G1 X104.12 Y106.685 E.02486
G1 X104.54 Y106.026 E.03073
;WIDTH:0.526202
G1 X104.982 Y105.481 E.02767
G1 X105.481 Y104.982 E.02776
G1 X106.028 Y104.538 E.02777
;WIDTH:0.526006
G1 X106.619 Y104.153 E.02776
;WIDTH:0.525615
G1 X107.063 Y103.913 E.01984
;WIDTH:0.517844
G1 X107.755 Y103.625 E.02902
;WIDTH:0.518625
G1 X108.483 Y103.413 E.02938
;WIDTH:0.519601
G1 X109.23 Y103.285 E.02944
;WIDTH:0.52091
G1 X109.914 Y103.244 E.02668
;WIDTH:0.522449
G1 X110.645 Y103.276 E.02858
;WIDTH:0.523155
G1 X111.417 Y103.393 E.03057
;WIDTH:0.524246
G1 X112.095 Y103.577 E.02758
;WIDTH:0.525027
G1 X112.753 Y103.832 E.02771
;WIDTH:0.525614
G1 X113.381 Y104.153 E.02774
;WIDTH:0.526005
G1 X113.972 Y104.538 E.02776
;WIDTH:0.5262
G1 X114.519 Y104.982 E.02777
G1 X115.018 Y105.481 E.02776
G1 X115.462 Y106.028 E.02777
;WIDTH:0.526005
G1 X115.847 Y106.619 E.02776
;WIDTH:0.525615
G1 X116.087 Y107.063 E.01984
;WIDTH:0.517843
G1 X116.375 Y107.755 E.02902
;WIDTH:0.518625
G1 X116.587 Y108.483 E.02938
;WIDTH:0.5196
G1 X116.715 Y109.23 E.02944
;WIDTH:0.520773
G1 X116.76 Y109.987 E.02952
;WIDTH:0.522092
G1 X116.721 Y110.718 E.0286
;WIDTH:0.523268
G1 X116.608 Y111.415 E.02762
;WIDTH:0.524244
G1 X116.423 Y112.095 E.02767
;WIDTH:0.525027
G1 X116.168 Y112.753 E.02771
;WIDTH:0.525614
G1 X115.847 Y113.381 E.02774
;WIDTH:0.526004
G1 X115.462 Y113.972 E.02776
G1 X115.068 Y114.462 E.02476
;WIDTH:0.526142
G1 X114.517 Y115.019 E.03084
G1 X113.972 Y115.462 E.02767
;WIDTH:0.526005
G1 X113.381 Y115.847 E.02776
;WIDTH:0.525614
G1 X112.937 Y116.087 E.01984
;WIDTH:0.517844
G1 X112.245 Y116.375 E.02902
;WIDTH:0.518625
G1 X111.517 Y116.587 E.02938
;WIDTH:0.5196
G1 X110.77 Y116.715 E.02944
;WIDTH:0.520772
G1 X110.013 Y116.76 E.02952
;WIDTH:0.522093
G1 X109.282 Y116.721 E.0286
;WIDTH:0.523268
G1 X108.585 Y116.608 E.02762
;WIDTH:0.524247
G1 X107.905 Y116.423 E.02767
;WIDTH:0.525029
G1 X107.247 Y116.168 E.02771
;WIDTH:0.525616
G1 X106.619 Y115.847 E.02774
;WIDTH:0.526006
G1 X106.028 Y115.462 E.02776
;WIDTH:0.526202
G1 X105.481 Y115.018 E.02777
G1 X104.982 Y114.519 E.02776
G1 X104.583 Y114.033 E.02478
;WIDTH:0.523591
G1 X104.285 Y113.606 E.02037
;WIDTH:0.517259
G1 X103.917 Y112.944 E.02929
;WIDTH:0.5188
G1 X103.653 Y112.312 E.02656
G1 X103.414 Y111.519 E.03211
;WIDTH:0.519602
G1 X103.285 Y110.77 E.02954
;WIDTH:0.520774
G1 X103.24 Y110.013 E.02952
;WIDTH:0.522093
G1 X103.277 Y109.322 E.02704
; stop printing object Part1.STL id:0 copy 0
G1 E-.84 F2400
;WIPE_START
G1 F3600
G1 X103.392 Y108.585 E-.26836
G1 X103.459 Y108.34 E-.09164
;WIPE_END
;LAYER_CHANGE
;Z:0.6
;HEIGHT:0.2
;BEFORE_LAYER_CHANGE
;0.6
G92 E0

;_SET_FAN_SPEED_CHANGING_LAYER
; printing object Part1.STL id:0 copy 0
G1 Z1 F9000
G1 X102.814 Y109.153
G1 Z.6
G1 E1.2 F1800
;WIDTH:0.519601
G1 F1200
G1 X102.955 Y108.356 E.03144
;WIDTH:0.518626
G1 X103.184 Y107.579 E.03137
;WIDTH:0.517845
G1 X103.498 Y106.833 E.03132
;WIDTH:0.517259
G1 X103.893 Y106.127 E.03128
;WIDTH:0.520387
G1 X104.284 Y105.57 E.02647
;WIDTH:0.528876
G1 X104.632 Y105.15 E.02162
G1 X105.168 Y104.614 E.02999
;WIDTH:0.526202
G1 X105.757 Y104.139 E.02983
;WIDTH:0.526006
G1 X106.393 Y103.727 E.02982
;WIDTH:0.525615
G1 X107.068 Y103.384 E.02979
;WIDTH:0.525028
G1 X107.776 Y103.113 E.02976
;WIDTH:0.524246
G1 X108.508 Y102.918 E.02971
;WIDTH:0.523268
G1 X109.256 Y102.8 E.02965
;WIDTH:0.526748
G1 X110.013 Y102.764 E.02987
G1 X110.842 Y102.821 E.03279
;WIDTH:0.518625
G1 X111.644 Y102.955 E.03152
G1 X112.421 Y103.184 E.03137
;WIDTH:0.517844
G1 X113.167 Y103.498 E.03132
;WIDTH:0.517267
G1 X113.828 Y103.864 E.02923
;WIDTH:0.526006
G1 X114.263 Y104.153 E.02057
;WIDTH:0.526202
G1 X114.851 Y104.631 E.02983
G1 X115.386 Y105.168 E.02983
G1 X115.861 Y105.757 E.02983
;WIDTH:0.529543
G1 X116.271 Y106.394 E.03003
G1 X116.616 Y107.068 E.03003
;WIDTH:0.525027
G1 X116.887 Y107.776 E.02976
;WIDTH:0.524244
G1 X117.082 Y108.508 E.02971
;WIDTH:0.523267
G1 X117.2 Y109.256 E.02965
;WIDTH:0.522092
G1 X117.237 Y110.039 E.03062
;WIDTH:0.520773
G1 X117.186 Y110.847 E.03153
;WIDTH:0.5196
G1 X117.045 Y111.644 E.03144
;WIDTH:0.518625
G1 X116.816 Y112.421 E.03137
;WIDTH:0.517843
G1 X116.502 Y113.167 E.03132
;WIDTH:0.517266
G1 X116.136 Y113.828 E.02923
;WIDTH:0.526005
G1 X115.847 Y114.263 E.02057
G1 X115.453 Y114.751 E.02467
;WIDTH:0.526108
G1 X114.829 Y115.388 E.03509
G1 X114.243 Y115.861 E.02967
;WIDTH:0.526005
G1 X113.607 Y116.273 E.02982
;WIDTH:0.525614
G1 X112.932 Y116.616 E.02979
;WIDTH:0.525027
G1 X112.224 Y116.887 E.02976
;WIDTH:0.524246
G1 X111.492 Y117.082 E.02971
;WIDTH:0.523267
G1 X110.744 Y117.2 E.02965
;WIDTH:0.522092
G1 X109.961 Y117.237 E.03062
;WIDTH:0.520773
G1 X109.153 Y117.186 E.03153
;WIDTH:0.519601
G1 X108.356 Y117.045 E.03144
;WIDTH:0.518626
G1 X107.579 Y116.816 E.03137
;WIDTH:0.517844
G1 X106.833 Y116.502 E.03132
;WIDTH:0.517268
G1 X106.172 Y116.136 E.02923
;WIDTH:0.526006
G1 X105.737 Y115.847 E.02057
;WIDTH:0.526202
G1 X105.149 Y115.369 E.02983
G1 X104.614 Y114.832 E.02983
G1 X104.219 Y114.346 E.02468
;WIDTH:0.525552
G1 X103.725 Y113.604 E.03506
G1 X103.384 Y112.932 E.02964
;WIDTH:0.529013
G1 X103.116 Y112.223 E.03
G1 X102.918 Y111.492 E.02999
;WIDTH:0.523269
G1 X102.8 Y110.744 E.02965
;WIDTH:0.522092
G1 X102.763 Y109.961 E.03062
;WIDTH:0.520774
G1 X102.812 Y109.193 E.02997
G1 X103.279 Y109.282 F9000
;WIDTH:0.523268
G1 F1200
G1 X103.392 Y108.585 E.02762
;WIDTH:0.524247
G1 X103.577 Y107.905 E.02767
;WIDTH:0.525029
G1 X103.832 Y107.247 E.02771
;WIDTH:0.525615
G1 X104.153 Y106.619 E.02774
;WIDTH:0.526006
G1 X104.538 Y106.028 E.02776
;WIDTH:0.528876
G1 X104.988 Y105.48 E.02807
G1 X105.481 Y104.982 E.02776
;WIDTH:0.526202
G1 X106.028 Y104.538 E.02777
;WIDTH:0.526006
G1 X106.619 Y104.153 E.02776
;WIDTH:0.525615
G1 X107.063 Y103.913 E.01984
;WIDTH:0.517844
G1 X107.755 Y103.625 E.02902
;WIDTH:0.518626
G1 X108.483 Y103.413 E.02938
;WIDTH:0.519601
G1 X109.23 Y103.285 E.02944
;WIDTH:0.521001
G1 X109.865 Y103.247 E.02479
;WIDTH:0.523035
G1 X110.595 Y103.274 E.02857
G1 X111.418 Y103.393 E.03255
;WIDTH:0.524246
G1 X112.095 Y103.577 E.02752
;WIDTH:0.525027
G1 X112.753 Y103.832 E.02771
;WIDTH:0.525614
G1 X113.381 Y104.153 E.02774
;WIDTH:0.526006
G1 X113.972 Y104.538 E.02776
;WIDTH:0.526202
G1 X114.519 Y104.982 E.02777
G1 X115.018 Y105.481 E.02776
G1 X115.462 Y106.028 E.02777
;WIDTH:0.529543
G1 X115.844 Y106.625 E.0281
