; HEADER_BLOCK_START
; generated by OrcaSlicer 2.3.0-beta on 2025-05-11 at 15:47:56
; total layer number: 70
;_GP_TOTAL_LAYER_NUMBER_PLACEHOLDER
; filament_density: 1.24
; filament_diameter: 1.75
; max_z_height: 14.00
; HEADER_BLOCK_END

; external perimeters extrusion width = 0.42mm
; perimeters extrusion width = 0.45mm
; infill extrusion width = 0.45mm
; solid infill extrusion width = 0.42mm
; top infill extrusion width = 0.42mm
; first layer extrusion width = 0.46mm

; EXECUTABLE_BLOCK_START
M201 X2500 Y2500 Z500 E5000
M203 X250 Y250 Z5 E40
M204 P2500 R500 T2500 ; sets acceleration (P, T) and retract acceleration (R), mm/sec^2
M205 X10.00 Y10.00 Z0.40 E5.00 ; sets the jerk limits, mm/sec
;TYPE:Custom
M220 S100 ;Reset Feedrate 
M221 S100 ;Reset Flowrate 
 
M104 S220 ;Set final nozzle temp 
M190 S55 ;Set and wait for bed temp to stabilize 
G28 ;Home 
G92 E0 ;Reset Extruder 
G1 Z2.0 F3000 ;Move Z Axis up 
G1 X-2.1 Y20 Z0.28 F5000.0 ;Move to start position 
M109 S220 ;Wait for nozzle temp to stabilize 
G1 X-2.1 Y145.0 Z0.28 F1500.0 E15 ;Draw the first line 
G1 X-2.4 Y145.0 Z0.28 F5000.0 ;Move to side a little 
G1 X-2.4 Y20 Z0.28 F1500.0 E30 ;Draw the second line 
G92 E0  ;Reset Extruder 
G1 E-1.0000 F1800 ;Retract a bit 
G1 Z2.0 F3000 ;Move Z Axis up 
G1 E0.0000 F1800
G90
G21
M83 ; use relative distances for extrusion
; filament start gcode
M106 S0
;LAYER_CHANGE
;Z:0.2
;HEIGHT:0.2
;BEFORE_LAYER_CHANGE
;0.2
G92 E0

G1 E-1.2 F2400
;_SET_FAN_SPEED_CHANGING_LAYER
M204 P500
; printing object 9.STL id:18446744069414584327 copy 0
M204 T500
G1 Z.6 F9000
G1 X114.281 Y106.413
G1 Z.6
G1 Z.2
G1 E1.2 F1800
;TYPE:Inner wall
;WIDTH:0.524688
G1 X114.093 Y106.245 E.0099
;WIDTH:0.484891
G1 X113.704 Y105.918 E.01828
;WIDTH:0.505683
G1 X113.453 Y105.704 E.01245
;WIDTH:0.548506
G1 X113.202 Y105.49 E.0136
G1 X113.38 Y105.527 E.00749
;WIDTH:0.509001
G1 X113.832 Y105.551 E.0172
;WIDTH:0.462859
G1 X114.089 Y105.468 E.00924
G1 X114.051 Y105.735 E.00924
;WIDTH:0.484891
G1 X114.171 Y106.186 E.01681
;WIDTH:0.524688
G1 X114.264 Y106.377 E.00833
G1 E-.84 F2400
;WIPE_START
G1 F1800
G1 X114.093 Y106.245 E-.07768
G1 X113.704 Y105.918 E-.18274
G1 X113.494 Y105.739 E-.09958
;WIPE_END
G1 Z.6 F9000
G1 X115.28 Y104.049 Z.6
G1 Z.2
G1 E1.2 F1800
;WIDTH:0.460223
G1 X115.465 Y103.585 E.01699
G1 X115.677 Y103.253 E.01339
G1 X115.941 Y102.945 E.01378
;WIDTH:0.449036
G1 X116.255 Y102.685 E.01349
G1 X116.589 Y102.489 E.01282
G1 X116.462 Y102.833 E.01214
G1 X116.27 Y103.179 E.01309
;WIDTH:0.460394
G1 X116.019 Y103.493 E.01367
G1 X115.715 Y103.778 E.0142
;WIDTH:0.460223
G1 X115.313 Y104.028 E.01607
G1 E-.84 F2400
;WIPE_START
G1 F1800
G1 X115.465 Y103.585 E-.16851
G1 X115.677 Y103.253 E-.14179
G1 X115.767 Y103.148 E-.0497
;WIPE_END
G1 Z.6 F9000
G1 X110.809 Y104.589 Z.6
G1 Z.2
G1 E1.2 F1800
;WIDTH:0.516146
G1 X110.61 Y104.582 E.00768
;WIDTH:0.488658
G1 X109.872 Y104.565 E.02681
;WIDTH:0.495891
G1 X109.533 Y104.58 E.01252
;WIDTH:0.530178
G1 X109.194 Y104.596 E.01346
G1 X109.486 Y104.436 E.01319
;WIDTH:0.495891
G1 X109.777 Y104.277 E.01226
;WIDTH:0.461604
G1 X110 Y103.978 E.01272
G1 X110.143 Y104.207 E.00921
;WIDTH:0.488658
G1 X110.622 Y104.519 E.02078
;WIDTH:0.516146
G1 X110.771 Y104.575 E.00613
G1 E-.84 F2400
;WIPE_START
G1 F1800
G1 X110.61 Y104.582 E-.05817
G1 X109.872 Y104.565 E-.26577
G1 X109.772 Y104.569 E-.03606
;WIPE_END
G1 Z.6 F9000
G1 X110 Y102.127 Z.6
G1 Z.2
G1 E1.2 F1800
;WIDTH:0.460596
G1 X109.845 Y101.656 E.01687
G1 X109.793 Y101.259 E.01364
G1 X109.797 Y100.857 E.01369
;WIDTH:0.449109
G1 X109.871 Y100.456 E.01349
G1 X110 Y100.091 E.01282
G1 X110.124 Y100.436 E.01214
G1 X110.2 Y100.825 E.01312
;WIDTH:0.460596
G1 X110.209 Y101.225 E.01362
G1 X110.159 Y101.64 E.01424
G1 X110.012 Y102.089 E.01606
G1 E-.84 F2400
;WIPE_START
G1 F1800
G1 X109.845 Y101.656 E-.16709
G1 X109.793 Y101.259 E-.14423
G1 X109.794 Y101.124 E-.04868
;WIPE_END
G1 Z.6 F9000
G1 X105.689 Y106.457 Z.6
G1 Z.2
G1 E1.2 F1800
;WIDTH:0.527826
G1 X105.793 Y106.215 E.0104
;WIDTH:0.493321
G1 X105.896 Y105.974 E.00966
;WIDTH:0.458815
G1 X105.947 Y105.731 E.00838
G1 X105.909 Y105.465 E.00912
G1 X106.165 Y105.549 E.00913
;WIDTH:0.490733
G1 X106.507 Y105.507 E.01258
;WIDTH:0.52265
G1 X106.849 Y105.464 E.01348
;WIDTH:0.517039
G1 X106.47 Y105.776 E.01895
;WIDTH:0.487927
G1 X106.091 Y106.087 E.01778
;WIDTH:0.493321
G1 X105.89 Y106.272 E.01003
;WIDTH:0.527826
G1 X105.718 Y106.43 E.00922
G1 E-.84 F2400
;WIPE_START
G1 F1800
G1 X105.793 Y106.215 E-.0818
G1 X105.896 Y105.974 E-.09472
G1 X105.947 Y105.731 E-.08901
G1 X105.91 Y105.472 E-.09447
;WIPE_END
G1 Z.6 F9000
G1 X104.72 Y104.049 Z.6
G1 Z.2
G1 E1.2 F1800
;WIDTH:0.460391
G1 X104.297 Y103.786 E.01696
G1 X104.003 Y103.517 E.01355
G1 X103.75 Y103.209 E.01355
;WIDTH:0.449222
G1 X103.547 Y102.852 E.01361
G1 X103.411 Y102.489 E.01282
G1 X103.727 Y102.673 E.01211
G1 X104.036 Y102.923 E.01315
;WIDTH:0.460559
G1 X104.299 Y103.221 E.01353
G1 X104.53 Y103.574 E.01435
;WIDTH:0.460391
G1 X104.705 Y104.012 E.01604
G1 E-.84 F2400
;WIPE_START
G1 F1800
G1 X104.297 Y103.786 E-.16812
G1 X104.003 Y103.517 E-.1434
G1 X103.918 Y103.413 E-.04849
;WIPE_END
G1 Z.6 F9000
G1 X104.199 Y110.137 Z.6
G1 Z.2
G1 E1.2 F1800
;WIDTH:0.523396
G1 X104.102 Y109.84 E.01223
;WIDTH:0.490231
G1 X104.005 Y109.543 E.01139
;WIDTH:0.457066
G1 X103.931 Y109.414 E.00501
G1 X103.73 Y109.235 E.00907
G1 X104.057 Y109.074 E.01231
;WIDTH:0.492227
G1 X104.26 Y108.832 E.01156
;WIDTH:0.527388
G1 X104.463 Y108.59 E.01247
G1 X104.375 Y109.038 E.01805
;WIDTH:0.492227
G1 X104.288 Y109.487 E.01674
;WIDTH:0.490231
G1 X104.243 Y109.812 E.01196
;WIDTH:0.523396
G1 X104.204 Y110.097 E.01128
G1 E-.84 F2400
;WIPE_START
G1 F1800
G1 X104.102 Y109.84 E-.09972
G1 X104.005 Y109.543 E-.11248
G1 X103.931 Y109.414 E-.05345
G1 X103.735 Y109.24 E-.09435
;WIPE_END
G1 Z.6 F9000
G1 X101.911 Y108.915 Z.6
G1 Z.2
G1 E1.2 F1800
;WIDTH:0.460225
G1 X101.417 Y108.986 E.01699
G1 X101.023 Y108.968 E.01339
G1 X100.625 Y108.894 E.01378
;WIDTH:0.449036
G1 X100.243 Y108.752 E.01349
G1 X99.905 Y108.561 E.01282
G1 X100.267 Y108.499 E.01214
G1 X100.662 Y108.492 E.01309
;WIDTH:0.460393
G1 X101.06 Y108.552 E.01367
G1 X101.459 Y108.673 E.0142
;WIDTH:0.460225
G1 X101.876 Y108.896 E.01607
G1 E-.84 F2400
;WIPE_START
G1 F1800
G1 X101.417 Y108.986 E-.16851
G1 X101.023 Y108.968 E-.14179
G1 X100.887 Y108.943 E-.0497
;WIPE_END
G1 Z.6 F9000
G1 X105.402 Y113.891 Z.6
G1 Z.2
G1 E1.2 F1800
;WIDTH:0.52217
G1 X105.103 Y113.719 E.01349
;WIDTH:0.48991
G1 X104.803 Y113.548 E.01258
;WIDTH:0.45765
G1 X104.487 Y113.524 E.01071
G1 X104.614 Y113.287 E.00909
G1 X104.646 Y113.092 E.00669
;WIDTH:0.497169
G1 X104.645 Y112.838 E.00939
;WIDTH:0.536688
G1 X104.645 Y112.584 E.0102
G1 X104.832 Y112.925 E.01563
;WIDTH:0.497169
G1 X105.019 Y113.265 E.01438
;WIDTH:0.48991
G1 X105.211 Y113.578 E.01336
;WIDTH:0.52217
G1 X105.382 Y113.857 E.01276
G1 E-.84 F2400
;WIPE_START
G1 F1800
G1 X105.103 Y113.719 E-.11191
G1 X104.803 Y113.548 E-.12433
G1 X104.487 Y113.524 E-.11408
G1 X104.5 Y113.5 E-.00967
;WIPE_END
G1 Z.6 F9000
G1 X102.887 Y114.448 Z.6
G1 Z.2
G1 E1.2 F1800
;WIDTH:0.460391
G1 X102.554 Y114.819 E.01696
G1 X102.238 Y115.062 E.01355
G1 X101.888 Y115.259 E.01368
;WIDTH:0.449109
G1 X101.505 Y115.395 E.01346
G1 X101.124 Y115.466 E.01282
G1 X101.36 Y115.186 E.01211
G1 X101.659 Y114.926 E.01313
;WIDTH:0.460558
G1 X101.999 Y114.719 E.01353
G1 X102.386 Y114.553 E.01435
;WIDTH:0.460391
G1 X102.848 Y114.456 E.01604
G1 E-.84 F2400
;WIPE_START
G1 F1800
G1 X102.554 Y114.819 E-.16812
G1 X102.238 Y115.062 E-.14339
G1 X102.121 Y115.128 E-.04849
;WIPE_END
G1 Z.6 F9000
G1 X108.65 Y115.999 Z.6
G1 Z.2
G1 E1.2 F1800
;WIDTH:0.539648
G1 X108.343 Y116.077 E.01284
;WIDTH:0.499903
G1 X108.035 Y116.155 E.01181
;WIDTH:0.460158
G1 X107.823 Y116.321 E.00916
G1 X107.745 Y116.014 E.01079
;WIDTH:0.501765
G1 X107.555 Y115.765 E.01171
;WIDTH:0.543372
G1 X107.364 Y115.516 E.01277
G1 X107.69 Y115.64 E.01419
;WIDTH:0.501765
G1 X108.015 Y115.763 E.01301
;WIDTH:0.499903
G1 X108.333 Y115.881 E.01262
;WIDTH:0.539648
G1 X108.613 Y115.985 E.0121
G1 E-.84 F2400
;WIPE_START
G1 F1800
G1 X108.343 Y116.077 E-.10264
G1 X108.035 Y116.155 E-.11417
G1 X107.823 Y116.321 E-.09702
G1 X107.792 Y116.197 E-.04616
;WIPE_END
G1 Z.6 F9000
G1 X107.191 Y118.06 Z.6
G1 Z.2
G1 E1.2 F1800
;WIDTH:0.46067
G1 X107.175 Y118.558 E.01699
G1 X107.088 Y118.946 E.01353
G1 X106.947 Y119.323 E.01368
;WIDTH:0.449107
G1 X106.741 Y119.674 E.01349
G1 X106.494 Y119.973 E.01282
G1 X106.496 Y119.606 E.01214
G1 X106.558 Y119.215 E.01312
;WIDTH:0.46067
G1 X106.686 Y118.835 E.01365
G1 X106.88 Y118.455 E.01451
G1 X107.166 Y118.091 E.01576
G1 E-.84 F2400
;WIPE_START
G1 F1800
G1 X107.175 Y118.558 E-.16832
G1 X107.088 Y118.946 E-.14305
G1 X107.041 Y119.073 E-.04862
;WIPE_END
G1 Z.6 F9000
G1 X111.206 Y116.015 Z.6
G1 Z.2
G1 E1.2 F1800
;WIDTH:0.530854
G1 X111.587 Y115.89 E.01591
;WIDTH:0.496519
G1 X111.967 Y115.765 E.01479
;WIDTH:0.496131
G1 X112.298 Y115.647 E.01298
;WIDTH:0.530078
G1 X112.629 Y115.529 E.01395
G1 X112.531 Y115.627 E.0055
;WIDTH:0.506182
G1 X112.232 Y116.055 E.01972
;WIDTH:0.462184
G1 X112.176 Y116.319 E.00922
G1 X111.963 Y116.153 E.00922
G1 X111.826 Y116.103 E.00499
;WIDTH:0.496519
G1 X111.516 Y116.059 E.01157
;WIDTH:0.530854
G1 X111.246 Y116.02 E.01086
G1 E-.84 F2400
;WIPE_START
G1 F1800
G1 X111.587 Y115.89 E-.13132
G1 X111.967 Y115.765 E-.14409
G1 X112.188 Y115.686 E-.08459
;WIPE_END
G1 Z.6 F9000
G1 X112.809 Y118.06 Z.6
G1 Z.2
G1 E1.2 F1800
;WIDTH:0.46067
G1 X113.118 Y118.452 E.01699
G1 X113.301 Y118.805 E.01353
G1 X113.435 Y119.184 E.01368
;WIDTH:0.449107
G1 X113.502 Y119.586 E.01349
G1 X113.506 Y119.973 E.01282
G1 X113.271 Y119.691 E.01214
G1 X113.067 Y119.351 E.01312
;WIDTH:0.46067
G1 X112.921 Y118.978 E.01365
G1 X112.826 Y118.571 E.01421
G1 X112.811 Y118.1 E.01606
G1 E-.84 F2400
;WIPE_START
G1 F1800
G1 X113.118 Y118.452 E-.16832
G1 X113.301 Y118.805 E-.14306
G1 X113.346 Y118.932 E-.04861
;WIPE_END
G1 Z.6 F9000
G1 X114.76 Y113.713 Z.6
G1 Z.2
G1 E1.2 F1800
;WIDTH:0.57321
G1 X114.838 Y113.551 E.00777
;WIDTH:0.536579
G1 X114.916 Y113.389 E.00723
;WIDTH:0.499947
G1 X114.994 Y113.227 E.00669
;WIDTH:0.50153
G1 X115.165 Y112.946 E.01231
;WIDTH:0.539744
G1 X115.336 Y112.664 E.01334
G1 X115.359 Y112.974 E.01256
;WIDTH:0.50153
G1 X115.382 Y113.283 E.0116
;WIDTH:0.463315
G1 X115.509 Y113.522 E.00926
G1 X115.239 Y113.531 E.00926
;WIDTH:0.499947
G1 X115.079 Y113.592 E.00636
;WIDTH:0.536579
G1 X114.92 Y113.653 E.00687
;WIDTH:0.57321
G1 X114.798 Y113.699 E.00565
G1 E-.84 F2400
;WIPE_START
G1 F1800
G1 X114.838 Y113.551 E-.05515
G1 X114.916 Y113.389 E-.06471
G1 X114.994 Y113.227 E-.06471
G1 X115.165 Y112.946 E-.11862
G1 X115.247 Y112.811 E-.05682
;WIPE_END
G1 Z.6 F9000
G1 X117.114 Y114.448 Z.6
G1 Z.2
G1 E1.2 F1800
;WIDTH:0.46067
G1 X117.602 Y114.55 E.01699
G1 X117.969 Y114.703 E.01353
G1 X118.315 Y114.907 E.01369
;WIDTH:0.449109
G1 X118.623 Y115.169 E.01337
G1 X118.877 Y115.466 E.01293
G1 X118.516 Y115.401 E.01213
G1 X118.141 Y115.272 E.01312
;WIDTH:0.46067
G1 X117.789 Y115.079 E.01365
G1 X117.455 Y114.829 E.01421
G1 X117.14 Y114.478 E.01607
G1 E-.84 F2400
;WIPE_START
G1 F1800
G1 X117.602 Y114.55 E-.16833
G1 X117.969 Y114.703 E-.14306
G1 X118.085 Y114.771 E-.04862
;WIPE_END
G1 Z.6 F9000
G1 X115.585 Y108.708 Z.6
G1 Z.2
G1 E1.2 F1800
;WIDTH:0.548656
G1 X115.609 Y108.741 E.00167
;WIDTH:0.540031
G1 X115.811 Y108.938 E.01145
;WIDTH:0.501882
G1 X116.014 Y109.135 E.01057
;WIDTH:0.463732
G1 X116.264 Y109.236 E.00927
G1 X116.063 Y109.417 E.00927
;WIDTH:0.503822
G1 X115.936 Y109.696 E.01151
;WIDTH:0.543912
G1 X115.808 Y109.974 E.01251
G1 X115.744 Y109.657 E.01324
;WIDTH:0.503822
G1 X115.679 Y109.339 E.01218
;WIDTH:0.506194
G1 X115.632 Y109.023 E.01204
;WIDTH:0.548656
G1 X115.591 Y108.747 E.0115
G1 E-.84 F2400
;WIPE_START
G1 F1800
G1 X115.609 Y108.741 E-.00696
G1 X115.811 Y108.938 E-.10173
G1 X116.014 Y109.135 E-.10173
G1 X116.264 Y109.236 E-.09733
G1 X116.157 Y109.333 E-.05225
;WIPE_END
G1 Z.6 F9000
G1 X118.089 Y108.915 Z.6
G1 Z.2
G1 E1.2 F1800
;WIDTH:0.460669
G1 X118.529 Y108.679 E.01699
G1 X118.908 Y108.56 E.01353
G1 X119.305 Y108.494 E.01368
;WIDTH:0.449109
G1 X119.713 Y108.497 E.01349
G1 X120.094 Y108.561 E.01282
G1 X119.776 Y108.743 E.01214
G1 X119.406 Y108.885 E.01312
;WIDTH:0.460669
G1 X119.013 Y108.964 E.01365
G1 X118.596 Y108.987 E.01421
G1 X118.129 Y108.92 E.01606
G1 E-.84 F2400
;WIPE_START
G1 F1800
G1 X118.529 Y108.679 E-.16832
G1 X118.908 Y108.56 E-.14306
G1 X119.042 Y108.538 E-.04862
;WIPE_END
G1 Z.6 F9000
G1 X104.018 Y113.946 Z.6
G1 Z.2
G1 E1.2 F1800
;WIDTH:0.459999
G1 X103.734 Y114.074 E.01061
G1 X103.476 Y114.332 E.01239
G1 X103.167 Y114.775 E.01836
G1 X102.855 Y115.108 E.01552
G1 X102.49 Y115.394 E.01575
G1 X102.082 Y115.622 E.01587
G1 X101.599 Y115.798 E.01748
G1 X101.105 Y115.882 E.01704
G1 X100.44 Y115.86 E.02259
G1 X100.754 Y115.274 E.02258
G1 X101.046 Y114.921 E.01557
G1 X101.39 Y114.614 E.01568
G1 X101.779 Y114.365 E.01569
G1 X102.212 Y114.174 E.0161
G1 X102.707 Y114.044 E.01738
G1 X103.282 Y113.995 E.01961
G1 X103.634 Y113.901 E.01239
G1 X103.952 Y113.672 E.01333
G1 X104.209 Y113.193 E.01847
G1 X104.232 Y113.053 E.00481
G1 X104.189 Y112.648 E.01384
G1 X103.93 Y111.809 E.02984
G1 X103.795 Y111.043 E.02645
G1 X103.751 Y110.159 E.03007
G1 X103.583 Y109.642 E.0185
G1 X103.168 Y109.299 E.01829
;WIDTH:0.416888
G1 X103.066 Y109.278 E.00315
;WIDTH:0.384124
G1 X102.965 Y109.256 E.00288
;WIDTH:0.387573
G1 X102.789 Y109.239 E.00497
;WIDTH:0.423786
G1 X102.613 Y109.222 E.00549
;WIDTH:0.459999
G1 X102.437 Y109.205 E.00601
G1 X101.916 Y109.346 E.01836
G1 X101.461 Y109.4 E.01555
G1 X101.003 Y109.385 E.0156
G1 X100.541 Y109.297 E.01597
G1 X100.097 Y109.137 E.01606
G1 X99.627 Y108.87 E.01835
G1 X99.129 Y108.424 E.02271
G1 X99.749 Y108.175 E.02271
G1 X100.197 Y108.093 E.01547
G1 X100.657 Y108.08 E.01563
G1 X101.119 Y108.139 E.01585
G1 X101.57 Y108.271 E.01597
G1 X102.033 Y108.49 E.01739
G1 X102.505 Y108.822 E.01961
G1 X102.619 Y108.856 E.00407
;WIDTH:0.423786
G1 X102.734 Y108.89 E.00371
;WIDTH:0.387573
G1 X102.849 Y108.924 E.00336
;WIDTH:0.384124
G1 X103.036 Y108.954 E.00527
;WIDTH:0.416888
G1 X103.223 Y108.983 E.00578
;WIDTH:0.459999
G1 X103.73 Y108.803 E.01829
G1 X104.066 Y108.373 E.01853
G1 X104.406 Y107.564 E.02984
G1 X104.795 Y106.89 E.02645
G1 X105.216 Y106.334 E.0237
G1 X105.497 Y105.854 E.01891
G1 X105.533 Y105.681 E.006
G1 X105.437 Y105.152 E.0183
;WIDTH:0.417213
G1 X105.372 Y105.07 E.00317
;WIDTH:0.384285
G1 X105.308 Y104.988 E.00289
;WIDTH:0.387571
G1 X105.184 Y104.862 E.00497
;WIDTH:0.423785
G1 X105.061 Y104.736 E.00549
;WIDTH:0.459999
G1 X104.937 Y104.609 E.00601
G1 X104.447 Y104.382 E.01836
G1 X104.064 Y104.132 E.01552
G1 X103.719 Y103.823 E.01575
G1 X103.427 Y103.463 E.01575
G1 X103.188 Y103.052 E.01617
G1 X102.999 Y102.547 E.01834
G1 X102.904 Y101.885 E.02272
G1 X103.54 Y102.093 E.02272
G1 X103.935 Y102.318 E.01544
G1 X104.296 Y102.604 E.01569
G1 X104.61 Y102.943 E.01569
G1 X104.873 Y103.337 E.0161
G1 X105.086 Y103.802 E.01738
G1 X105.235 Y104.359 E.01961
G1 X105.301 Y104.459 E.00407
;WIDTH:0.423785
G1 X105.367 Y104.559 E.00371
;WIDTH:0.387571
G1 X105.433 Y104.659 E.00336
;WIDTH:0.384285
G1 X105.557 Y104.802 E.00529
;WIDTH:0.417213
G1 X105.682 Y104.946 E.0058
;WIDTH:0.459999
G1 X106.187 Y105.133 E.0183
G1 X106.719 Y105.019 E.01849
G1 X107.5 Y104.618 E.02984
G1 X108.231 Y104.352 E.02645
G1 X108.804 Y104.221 E.01998
G1 X109.369 Y104.049 E.02008
G1 X109.572 Y103.901 E.00853
G1 X109.84 Y103.434 E.0183
;WIDTH:0.417731
G1 X109.843 Y103.329 E.0032
;WIDTH:0.384544
G1 X109.846 Y103.225 E.00292
;WIDTH:0.387571
G1 X109.833 Y103.048 E.00497
;WIDTH:0.423785
G1 X109.819 Y102.872 E.00549
;WIDTH:0.459999
G1 X109.806 Y102.696 E.00601
G1 X109.576 Y102.207 E.01836
G1 X109.444 Y101.772 E.01543
G1 X109.379 Y101.311 E.01582
G1 X109.386 Y100.844 E.0159
G1 X109.466 Y100.379 E.01604
G1 X109.647 Y99.87 E.01835
G1 X110 Y99.303 E.02271
G1 X110.353 Y99.87 E.02271
G1 X110.511 Y100.297 E.01547
G1 X110.604 Y100.748 E.01566
G1 X110.626 Y101.212 E.01578
G1 X110.575 Y101.68 E.016
G1 X110.439 Y102.173 E.01739
G1 X110.194 Y102.696 E.01961
G1 X110.181 Y102.815 E.00407
