;FLAVOR:Marlin
;TIME:2051.65
;Filament used:2.81105m
;Material Diameter:1.75
;Material Density:1.24
;Filament Cost:0.167682
;Filament Weight:8.384095
;Filament Length:2.811050
;Layer height:0.2
;MINX:1.76
;MINY:2.672
;MINZ:0.2
;MAXX:156.235
;MAXY:138.287
;MAXZ:30.4
;OuterWall Time:736.477
;InnerWall Time:553.058
;Skin Time:167.074
;Support Time:0
;SkirtBrim Time:0
;Infill Time:77.6775
;Support Infills Time:0
;Combing Time:121.885
;Retraction Time:395.475
;PrimeTower Time:0

;
;;;;;;;;;;;;;;;;;;;;;;;;;;;;;;;;;;;;;;;;;;;;;;;;;;;;;;;;;;;;;;;;;;;;;;;;;;;;
;Creality Print GCode Generated by CXEngine
;CRSLICE_GIT_HASH:58ee74d
;Creality Print Version : V4.3.8.6984
;CXEngine Release Time:2023-12-04 18:16:29
;Gcode Generated Time:2024-02-28 19:43:20
;----------Machine Config--------------
;Machine Name:Ender-3 V3 SE
;Machine Height:250
;Machine Width:220
;Machine Depth:220
;Material Type:PLA
;Material Name:CR-PLA_1.75
;Number of Extruders:1
;ExtruderParams[0] Nozzle Diameter:1000
;----------Profile Config---------------
;Wall Thickness:0.8
;Top/Bottom Thickness:0.8
;Out Wall Line Width:0.42
;Inner Wall Line Width:0.45
;Inital Height:200
;Wall Line Count:2
;Infill Line Distance:8
;Infill Pattern:grid
;Infill Sparse Density:10
;Infill Wipe Distance:0
;Print Temperature:190
;Bed Temperature:60
;Support Enable:false
;Support Density:15
;Support Angle:60
;Adhesion Type:none
;machine is belt:false
;machine belt offset:10
;machine belt offset Y:0
;Raft Base Line Spacing:1.6
;Wait Heatup Sync:true
;Enable Ironing:false
;Material Type:PLA
;Max volumetric speed:20
;Preview Img Type:png
;Screen Size:Sermoon D3
;----------Shell Config----------------
;Outer Wall Wipe Distance:2000
;Outer Inset First:false
;Infill Before Walls:false
;Infill Overlap:0.09
;Fill Gaps Between Walls:everywhere
;Minimum Infill Area:30
;Top Surface Skin Layer:0
;Top Layers:4
;Z Seam Alignment:sharpest_corner
;Seam Corner Preference:z_seam_corner_inner
;Z Seam X:110
;Z Seam Y:220
;Horizontal Expansion:0
;Top/Bottom Pattern:zigzag
;Ironing Pattern:zigzag
;Vase Model:false
;----------Support Config----------------
;Support Type:everywhere
;Support Pattern:cross
;Support Infill Layer Thickness:0.2
;Minimum Support Area:1
;Enable Support Roof:true
;Support Roof Thickness:0.8
;Support Roof Pattern:lines
;Connect Support Lines:1
;Connect Support ZigZags:1
;Minimum Support X/Y Distance:0.2
;Support Line Distance:2.8
; ---------PrintSpeed & Travel----------
;Enable Print Cool:true
;Avoid Printed Parts Traveling:true
;Enable Retraction:true
;Retraction Distance:1.2
;Retraction Speed:30
;Retraction Prime Speed:30
;Maximum Retraction Count:100
;Minimum Extrusion Distance Window:0.8
;Z Hop When Retracted:true
;Z Hop Height:0.4
;Retract Before Outer Wall:true

;Outer Wall Speed:60
;Inner Wall Speed:90
;Infill Speed:180
;Top/Bottom Speed:50
;Travel Speed:150
;Initial Layer Speed:30
;Skirt/Brim Speed:25
;Prime Tower Speed:60
;Outer Wall Acceleration:1000
;Inner Wall Acceleration:2000
;Infill Acceleration:2500
;Top/Bottom Acceleration:2500
;Travel Acceleration:2500
;Initial Layer Print Acceleration:500
;Initial Layer Travel Acceleration:500
;Skirt/Brim Acceleration:500
;Combing Mode:off
; --------SpecialModel&Mesh Fixes--------
;Union Overlapping Volum:true
;Remove All Holes:false
;Maximum Travel Resolution:0.25
;Maximum Deviation:0.05
;Maximum Model Angle:0.872665
;IS Mold Print:false
;Make Overhang Printable:false
;Enable Coasting:false
;Coasting Volumes:0.064
;Coasting Speed:0.9
;Raft AirGap:0.25
;Layer0 ZOverLap:0.13
;Adaptive Layers:0
;---------------------End of Head--------------------------
M140 S60
M105
M190 S60
M104 S190
M82 ;absolute extrusion mode
M220 S100 ;Reset Feedrate
M221 S100 ;Reset Flowrate

G28 ;Home

G92 E0 ;Reset Extruder
G1 Z2.0 F3000 ;Move Z Axis up
G1 X-2.1 Y20 Z0.28 F5000.0 ;Move to start position
M109 S190.000000
G1 X-2.1 Y145.0 Z0.28 F1500.0 E15 ;Draw the first line
G1 X-2.4 Y145.0 Z0.28 F5000.0 ;Move to side a little
G1 X-2.4 Y20 Z0.28 F1500.0 E30 ;Draw the second line
G92 E0  ;Reset Extruder
G1 E-1.0000 F1800 ;Retract a bit
G1 Z2.0 F3000 ;Move Z Axis up
G1 E0.0000 F1800 

G92 E0
G92 E0
G1 F1800 E-1.2
;LAYER_COUNT:150

;LAYER:0
M106 S0
M204 S500
;;retract;;
G1 F1800 E0
G1 F1800 E-1.2
G0 F4800 X1.76 Y2.672 Z20.401
;MESH:0_0
G0 X65.31 Y99.16 Z0.6
;TYPE:WALL-OUTER
G1 F600 Z0.2
G1 F1800 E0
G1 X65.42 Y96.548 E0.09541
G1 X65.968 Y94.022 E0.18974
G1 X66.931 Y91.627 E0.28394
G1 X68.27 Y89.457 E0.377
G1 X70.004 Y87.486 E0.47281
G1 X71.981 Y85.891 E0.56551
G1 X74.252 Y84.617 E0.66054
G1 X76.687 Y83.758 E0.75477
G1 X79.226 Y83.321 E0.84879
G1 X80.531 Y83.266 E0.89646
G1 X81.816 Y83.32 E0.9434
G1 X84.383 Y83.762 E1.03846
G1 X86.79 Y84.612 E1.13162
G1 X89.045 Y85.871 E1.22587
G1 X91.05 Y87.485 E1.31981
G1 X92.769 Y89.436 E1.4147
G1 X94.135 Y91.653 E1.50974
G1 X95.085 Y94.022 E1.60288
G1 X95.631 Y96.543 E1.69702
G1 X95.744 Y99.13 E1.79152
G1 X95.418 Y101.698 E1.88599
G1 X94.652 Y104.193 E1.98124
G1 X93.51 Y106.463 E2.07398
G1 X91.971 Y108.547 E2.16852
G1 X90.096 Y110.348 E2.2634
G1 X87.964 Y111.788 E2.35729
G1 X85.616 Y112.853 E2.45139
G1 X83.103 Y113.51 E2.54618
G1 X80.507 Y113.728 E2.64125
G1 X77.95 Y113.51 E2.73491
G1 X75.46 Y112.862 E2.82881
G1 X73.102 Y111.796 E2.92325
G1 X70.965 Y110.354 E3.01733
G1 X69.102 Y108.57 E3.11147
G1 X67.561 Y106.492 E3.20588
G1 X66.387 Y104.157 E3.30126
G1 X65.634 Y101.689 E3.39543
G1 X65.31 Y99.16 E3.48848
G0 F4800 X64.811 Y99.188
;TYPE:WALL-INNER
G1 F1640.9 X64.903 Y96.791 E3.59137
G1 F1665.4 X64.936 Y96.456 E3.60559
G1 F1659.2 X65.38 Y94.334 E3.69756
G1 F1665.4 X65.503 Y93.862 E3.71817
G1 F1659.2 X66.242 Y91.976 E3.80409
G1 F1665.4 X66.503 Y91.39 E3.8312
G1 F1659.2 X67.457 Y89.801 E3.90982
G1 F1628.9 X67.887 Y89.149 E3.94357
G1 F1625.9 X69.014 Y87.832 E4.01861
G1 F1659.2 X69.663 Y87.137 E4.05894
G1 F1656.1 X70.853 Y86.142 E4.12486
G1 F1659.2 X71.73 Y85.471 E4.17171
G1 X72.933 Y84.767 E4.23083
G1 F1620 X74.056 Y84.17 E4.28609
G1 F1623 X75.216 Y83.732 E4.33986
G1 F1620 X76.567 Y83.283 E4.40171
G1 F1623 X77.622 Y83.076 E4.44834
G1 F1662.3 X79.175 Y82.836 E4.51487
G1 F1693.9 X80.125 Y82.779 E4.55442
G1 F1678 X80.552 Y82.774 E4.57233
G1 F1720.1 X81.842 Y82.832 E4.62516
G1 F1665.4 X82.613 Y82.938 E4.65805
G1 F1631.9 X84.485 Y83.279 E4.74012
G1 F1634.9 X85.053 Y83.459 E4.76577
G1 F1659.2 X86.969 Y84.155 E4.85225
G1 F1668.5 X87.386 Y84.364 E4.87192
G1 F1659.2 X89.295 Y85.446 E4.965
G1 F1665.4 X89.555 Y85.632 E4.97851
G1 F1640.9 X91.432 Y87.157 E5.08225
G1 F1650 X93.162 Y89.127 E5.19408
G1 F1665.4 X94.553 Y91.367 E5.30551
G1 F1647 X95.449 Y93.577 E5.40743
G1 F1662.3 X95.573 Y93.936 E5.42351
G1 F1653.1 X96.035 Y96.01 E5.51398
G1 F1628.9 X96.122 Y96.49 E5.53505
G1 F1623 X96.229 Y98.546 E5.62434
G1 F1617.1 X96.247 Y99.13 E5.64977
G1 F1555 X96.164 Y100.02 E5.69023
G1 F1414.3 X96.081 Y100.91 E5.73471
G1 F1296.9 X95.997 Y101.8 E5.78322
G1 F1320 X95.935 Y101.887 E5.78892
G1 F1487.5 X95.099 Y104.368 E5.9128
G1 F1684.3 X93.911 Y106.73 E6.02328
G1 F1800 X92.318 Y108.88 E6.12791
G1 X90.398 Y110.718 E6.23184
G1 X88.214 Y112.195 E6.33493
G1 F1659.2 X87.425 Y112.604 E6.37263
G1 F1560.4 X86.628 Y112.956 E6.41193
G1 F1620 X85.763 Y113.321 E6.45272
G1 X84.219 Y113.749 E6.52233
G1 X83.189 Y113.991 E6.5683
G1 F1617.1 X81.743 Y114.14 E6.63157
G1 X80.526 Y114.217 E6.68464
G1 F1620 X79.25 Y114.135 E6.74019
G1 F1662.3 X77.872 Y113.989 E6.79887
G1 F1665.4 X76.777 Y113.734 E6.84638
G1 F1623 X75.3 Y113.324 E6.91286
G1 F1625.9 X74.401 Y112.945 E6.95509
G1 X72.859 Y112.222 E7.02881
G1 F1628.9 X72.183 Y111.792 E7.06343
G1 F1659.2 X70.672 Y110.746 E7.14138
G1 F1662.3 X70.179 Y110.307 E7.16933
G1 F1625.9 X68.72 Y108.883 E7.25759
G1 F1634.9 X68.432 Y108.518 E7.2776
G1 F1662.3 X67.158 Y106.774 E7.36905
G1 F1668.5 X66.982 Y106.466 E7.38401
G1 F1653.1 X65.913 Y104.321 E7.48605
G1 F1665.4 X65.147 Y101.801 E7.59736
G1 F1653.1 X64.811 Y99.188 E7.70953
;;retract move;;
G1 F3840 X64.887 Y97.189 E6.56953
G1 F1800 E6.50953
G0 F4800 X67.047 Y99.549 Z0.6
G0 X97.511 Y132.828
;TYPE:WALL-OUTER
G1 F600 Z0.2
G1 F1800 E7.70953
G1 X97.758 Y133.42 E7.73294
G1 X98.109 Y133.989 E7.75734
G1 X98.55 Y134.505 E7.78211
G1 X99.059 Y134.933 E7.80638
G1 X99.596 Y135.261 E7.82935
G1 X100.199 Y135.514 E7.85321
G1 X100.885 Y135.679 E7.87896
G1 X101.51 Y135.728 E7.90184
G1 X141.865 Y135.728 E9.37458
G1 X141.866 Y138.266 E9.46721
G1 X97.538 Y138.265 E11.08494
G1 X96.934 Y138.218 E11.10705
G1 X96.362 Y138.08 E11.12853
G1 X95.817 Y137.855 E11.15004
G1 X95.315 Y137.546 E11.17156
G1 X94.86 Y137.16 E11.19333
G1 X94.476 Y136.707 E11.21501
G1 X94.167 Y136.203 E11.23658
G1 X93.942 Y135.658 E11.2581
G1 X93.805 Y135.09 E11.27942
G1 X93.758 Y134.489 E11.30142
G1 X93.757 Y117.972 E11.9042
G1 X93.687 Y117.226 E11.93155
G1 X93.488 Y116.47 E11.96008
G1 X93.158 Y115.756 E11.98878
G1 X92.716 Y115.113 E12.01726
G1 X92.133 Y114.52 E12.04761
G1 X91.491 Y114.064 E12.07635
G1 X90.802 Y113.732 E12.10426
G1 X90.07 Y113.519 E12.13208
G1 X89.245 Y113.43 E12.16236
G1 X88.47 Y113.481 E12.19071
G1 X87.693 Y113.668 E12.21987
G1 X87.025 Y113.955 E12.24641
G1 X84.476 Y114.793 E12.34433
G1 X81.827 Y115.215 E12.44222
G1 X79.161 Y115.209 E12.53952
G1 X76.518 Y114.777 E12.63725
G1 X73.977 Y113.932 E12.73498
G1 X71.605 Y112.695 E12.83261
G1 X69.466 Y111.1 E12.92999
G1 X67.605 Y109.182 E13.02752
G1 X66.066 Y106.983 E13.12547
G1 X64.9 Y104.577 E13.22304
G1 X64.132 Y102.015 E13.32065
G1 X63.782 Y99.363 E13.41828
G1 X63.856 Y96.697 E13.51561
G1 X64.355 Y94.07 E13.6132
G1 X65.267 Y91.547 E13.7111
G1 X66.561 Y89.217 E13.80837
G1 X68.221 Y87.109 E13.90629
G1 X70.186 Y85.297 E14.00384
G1 X72.412 Y83.824 E14.10125
G1 X74.855 Y82.719 E14.1991
G1 X77.429 Y82.018 E14.29646
G1 X80.094 Y81.735 E14.39427
G1 X82.765 Y81.879 E14.49188
G1 X85.373 Y82.444 E14.58927
G1 X87.863 Y83.42 E14.68687
G1 X90.174 Y84.783 E14.78479
G1 X92.227 Y86.485 E14.88211
G1 X93.992 Y88.503 E14.97995
G1 X95.406 Y90.765 E15.07731
G1 X96.446 Y93.23 E15.17494
G1 X97.082 Y95.827 E15.27252
G1 X97.296 Y98.505 E15.37057
G1 X97.296 Y131.52 E16.57544
G1 X97.347 Y132.163 E16.59898
G1 X97.511 Y132.828 E16.62397
G0 F4800 X97.048 Y132.96
;TYPE:WALL-INNER
G1 F1800 X97.333 Y133.644 E16.65295
G1 X97.73 Y134.281 E16.6823
G1 X98.202 Y134.834 E16.71072
G1 X98.761 Y135.31 E16.73943
G1 X99.391 Y135.696 E16.76832
G1 X100.068 Y135.977 E16.79698
G1 X100.794 Y136.152 E16.82619
G1 X101.473 Y136.205 E16.85282
G1 X141.387 Y136.206 E18.41351
G1 X141.388 Y137.788 E18.47537
G1 X97.557 Y137.787 E20.18922
G1 X97.009 Y137.745 E20.21072
G1 X96.51 Y137.624 E20.23079
G1 X96.035 Y137.428 E20.25088
G1 X95.596 Y137.158 E20.27104
G1 X95.199 Y136.82 E20.29142
G1 X94.864 Y136.426 E20.31165
G1 X94.594 Y135.986 E20.33183
G1 X94.398 Y135.51 E20.35196
G1 X94.279 Y135.015 E20.37187
G1 X94.236 Y134.471 E20.3932
G1 X94.233 Y117.927 E21.0401
G1 X94.157 Y117.12 E21.07179
G1 X93.933 Y116.287 E21.10552
G1 X93.568 Y115.503 E21.13934
G1 X93.072 Y114.788 E21.17336
G1 X92.463 Y114.168 E21.20734
G1 X91.752 Y113.659 E21.24154
G1 X90.972 Y113.285 E21.27536
G1 X90.144 Y113.043 E21.30909
G1 X89.281 Y112.949 E21.34303
G1 X88.469 Y113 E21.37485
G1 F1671.7 X87.582 Y113.155 E21.41276
G1 F1571.4 X86.855 Y113.471 E21.44826
G1 F1656.1 X85.845 Y113.83 E21.49382
G1 F1659.2 X84.355 Y114.294 E21.56002
G1 X83.351 Y114.479 E21.60332
G1 F1656.1 X81.787 Y114.702 E21.67046
G1 F1659.2 X80.524 Y114.726 E21.72405
G1 X79.203 Y114.697 E21.78009
G1 F1662.3 X77.79 Y114.492 E21.84055
G1 F1665.4 X76.64 Y114.278 E21.88998
G1 F1662.3 X75.145 Y113.808 E21.95634
G1 X74.177 Y113.459 E21.9999
G1 F1659.2 X72.688 Y112.709 E22.07062
G1 F1662.3 X71.877 Y112.262 E22.10983
G1 F1656.1 X70.4 Y111.186 E22.18749
G1 F1662.3 X69.803 Y110.716 E22.21966
G1 F1659.2 X68.377 Y109.273 E22.30572
G1 F1665.4 X67.997 Y108.858 E22.3295
G1 F1659.2 X66.745 Y107.095 E22.42122
G1 F1668.5 X66.502 Y106.726 E22.43986
G1 F1659.2 X65.485 Y104.649 E22.53796
G1 F1665.4 X65.369 Y104.394 E22.5498
G1 F1653.1 X64.621 Y101.909 E22.66029
G1 F1650 X64.279 Y99.303 E22.77241
G1 F1637.9 X64.358 Y96.751 E22.88213
G1 F1659.2 X64.397 Y96.5 E22.8929
G1 F1650 X64.844 Y94.203 E22.99272
G1 F1665.4 X65.015 Y93.686 E23.01573
G1 F1659.2 X65.731 Y91.758 E23.10298
G1 F1662.3 X66.074 Y91.101 E23.13436
G1 F1659.2 X66.987 Y89.5 E23.21254
G1 F1662.3 X67.497 Y88.816 E23.24866
G1 F1656.1 X68.597 Y87.456 E23.323
G1 F1659.2 X69.316 Y86.761 E23.36542
G1 F1656.1 X70.503 Y85.701 E23.43305
G1 X71.509 Y85.005 E23.48503
G1 X72.66 Y84.274 E23.54298
G1 F1659.2 X73.918 Y83.676 E23.60207
G1 X75.028 Y83.202 E23.65327
G1 X76.425 Y82.795 E23.71499
G1 F1662.3 X77.524 Y82.522 E23.76293
G1 F1659.2 X79.183 Y82.321 E23.83382
G1 F1693.9 X80.107 Y82.238 E23.87237
G1 F1678 X80.575 Y82.253 E23.89201
G1 F1716.8 X81.982 Y82.327 E23.94977
G1 F1659.2 X82.697 Y82.386 E23.98021
G1 X84.525 Y82.762 E24.05937
G1 F1662.3 X85.225 Y82.932 E24.08987
G1 F1659.2 X87.127 Y83.659 E24.17625
G1 F1668.5 X87.641 Y83.876 E24.19978
G1 F1659.2 X89.542 Y84.983 E24.29309
G1 F1665.4 X89.883 Y85.196 E24.31009
G1 F1643.9 X91.876 Y86.845 E24.42084
G1 F1653.1 X93.589 Y88.802 E24.53157
G1 F1650 X94.959 Y90.997 E24.64194
G1 F1665.4 X95.074 Y91.253 E24.6538
G1 F1656.1 X95.965 Y93.389 E24.75216
G1 F1659.2 X96.088 Y93.839 E24.77195
G1 F1653.1 X96.579 Y95.908 E24.86249
G1 F1659.2 X96.643 Y96.493 E24.88745
G1 F1653.1 X96.785 Y98.514 E24.97371
G1 F1617.1 X96.793 Y99.13 E25.00052
G1 F1555 X96.765 Y100.04 E25.04173
G1 F1414.3 X96.736 Y100.951 E25.08709
G1 F1296.9 X96.707 Y101.861 E25.1365
G1 F1320 X96.748 Y102.008 E25.14464
G1 F1487.5 X96.783 Y103.279 E25.2048
G1 F1684.3 X96.818 Y104.55 E25.25793
G1 F1800 X96.82 Y131.557 E26.31394
G1 X96.876 Y132.246 E26.34097
G1 X97.048 Y132.96 E26.36969
;;retract move;;
G1 F3840 X97.333 Y133.644 E25.98969
G1 X97.73 Y134.281 E25.60969
G1 X98.06 Y134.668 E25.22969
G1 F1800 E25.16969
G0 F4800 X96.964 Y133.823 Z0.6
;TYPE:SKIN
G1 F600 Z0.2
G1 F1800 E26.36969
G1 X96.652 Y133.056 E26.4015
G1 X96.472 Y132.311 E26.43094
G1 X96.412 Y131.588 E26.45881
G1 X96.411 Y104.566 E27.49688
G1 X96.285 Y102.306 E27.58383
G1 X95.454 Y104.566 E27.67633
G1 X94.272 Y106.923 E27.77762
G1 X92.64 Y109.134 E27.88319
G1 X90.637 Y111.053 E27.98975
G1 X88.346 Y112.598 E28.09591
G1 X89.3 Y112.54 E28.13262
G1 X90.239 Y112.646 E28.16892
G1 X91.11 Y112.897 E28.20375
G1 X91.979 Y113.32 E28.24087
G1 X92.743 Y113.871 E28.27706
G1 X93.374 Y114.512 E28.31161
G1 X93.927 Y115.309 E28.34888
G1 X94.313 Y116.143 E28.38418
G1 X94.564 Y117.075 E28.42126
G1 X94.644 Y117.992 E28.45662
G1 X94.644 Y134.456 E29.08909
G1 X94.683 Y134.953 E29.10824
G1 X94.785 Y135.381 E29.12515
G1 X94.956 Y135.796 E29.14239
G1 X95.195 Y136.183 E29.15986
G1 X95.487 Y136.529 E29.17726
G1 X95.839 Y136.827 E29.19497
G1 X96.221 Y137.064 E29.21224
G1 X96.636 Y137.234 E29.22947
G1 X97.069 Y137.339 E29.24659
G1 X97.574 Y137.378 E29.26604
G1 X99.85 Y137.378 E29.35348
G1 X100.583 Y137.284 E29.38187
G1 X101.459 Y137.302 E29.41553
G1 X140.904 Y137.304 E30.93082
G1 X140.903 Y136.69 E30.95441
G1 X101.436 Y136.688 E32.47055
G1 X100.661 Y136.642 E32.50038
G1 X99.939 Y136.364 E32.5301
G1 X99.197 Y136.057 E32.56095
G1 X98.532 Y135.648 E32.59094
G1 X97.902 Y135.116 E32.62261
G1 X97.403 Y134.528 E32.65224
G1 X96.964 Y133.823 E32.68414
;;retract move;;
G1 F3840 X97.403 Y134.528 E32.45614
G1 X97.902 Y135.116 E32.22814
G1 X98.207 Y135.373 E32.00014
G1 X97.902 Y135.116 E31.77214
G1 X97.403 Y134.528 E31.54414
G1 F1800 E31.48414
G0 F4800 X95.149 Y135.658 Z0.6
G1 F600 Z0.2
G1 F1800 E32.68414
G1 X96.361 Y136.87 E32.74999
G1 X97.266 Y137.121
G1 X94.899 Y134.754 E32.87858
G1 X94.874 Y134.076
G1 X97.944 Y137.146 E33.04537
G1 X98.597 Y137.146
G1 X94.874 Y133.423 E33.24763
G1 X94.874 Y132.769
G1 X99.25 Y137.146 E33.4854
G1 X99.892 Y137.134
G1 X98.907 Y136.149 E33.53891
G0 F4800 X100.119 Y136.707
G1 F1800 X100.411 Y137 E33.5548
;;retract move;;
G1 F3840 X100.119 Y136.707 E33.42813
G1 X100.411 Y137 E33.30147
G1 X100.119 Y136.707 E33.1748
G1 X100.411 Y137 E33.04813
G1 X100.165 Y136.754 E32.92147
G1 X100.411 Y137 E32.7948
G1 X100.119 Y136.707 E32.66813
G1 X100.411 Y137 E32.54147
G1 X100.119 Y136.707 E32.4148
G1 F1800 E32.3548
