; HEADER_BLOCK_START
; generated by OrcaSlicer 2.0.0 on 2024-05-12 at 14:33:09
; total layer number: 115
; filament_density: 1.24
; filament_diameter: 1.75
; max_z_height: 23.00
; HEADER_BLOCK_END

; THUMBNAIL_BLOCK_START

;
; THUMBNAIL_BLOCK_END

; THUMBNAIL_BLOCK_START

;
; THUMBNAIL_BLOCK_END

; external perimeters extrusion width = 0.45mm
; perimeters extrusion width = 0.45mm
; infill extrusion width = 0.45mm
; solid infill extrusion width = 0.45mm
; top infill extrusion width = 0.40mm

; EXECUTABLE_BLOCK_START
M73 P0 R19
M201 X5000 Y5000 Z500 E5000
M203 X500 Y500 Z30 E100
M204 P5000 R2500 T5000 ; sets acceleration (P, T) and retract acceleration (R), mm/sec^2
M205 X10.00 Y10.00 Z0.40 E5.00 ; sets the jerk limits, mm/sec
;TYPE:Custom
M220 S100 ;Reset Feedrate 
M221 S100 ;Reset Flowrate 
 
M140 S55 ;Set final bed temp 
G28 ;Home 
M420 S1; Enable mesh leveling 
G92 E0 ;Reset Extruder 
G1 Z2.0 F3000 ;Move Z Axis up 
M104 S220 ;Set final nozzle temp 
G1 X-2.1 Y20 Z0.28 F5000.0 ;Move to start position 
M190 S55 ;Wait for bed temp to stabilize 
M109 S220 ;Wait for nozzle temp to stabilize 
G1 X-2.1 Y145.0 Z0.28 F1500.0 E15 ;Draw the first line 
G1 X-2.4 Y145.0 Z0.28 F5000.0 ;Move to side a little 
G1 X-2.4 Y20 Z0.28 F1500.0 E30 ;Draw the second line 
G92 E0  ;Reset Extruder 
G1 E-1.0000 F1800 ;Retract a bit 
G1 Z2.0 F3000 ;Move Z Axis up 
G1 E0.0000 F1800
G90
G21
M83 ; use relative distances for extrusion
; filament start gcode
M106 S0
;LAYER_CHANGE
;Z:0.2
;HEIGHT:0.2
;BEFORE_LAYER_CHANGE
;0.2
G92 E0

G1 E-1.2 F1800
;_SET_FAN_SPEED_CHANGING_LAYER
M204 P300
M204 T300
G1 Z.4 F7200
G1 X104.677 Y101.912
G1 Z.4
M73 P1 R19
G1 Z.2
G1 E1.2 F1800
;TYPE:Skirt
;WIDTH:0.45
G1 F3000
G1 X105.707 Y100.891 E.04811
G1 X106.769 Y100.291 E.04045
G1 X107.635 Y99.991 E.03042
G1 X109.205 Y99.757 E.05264
G1 X110.362 Y99.737 E.03839
G1 X111.346 Y99.807 E.03273
G1 X112.363 Y99.988 E.03426
G1 X113.783 Y100.552 E.05069
G1 X114.284 Y100.887 E.01998
G1 X115.181 Y101.733 E.0409
G1 X115.609 Y102.333 E.02444
G1 X116.036 Y103.214 E.03247
G1 X116.2 Y103.794 E.02002
G1 X116.336 Y104.863 E.03573
G1 X116.336 Y115.136 E.34079
G1 X116.175 Y116.339 E.04025
G1 X115.776 Y117.358 E.0363
G1 X115.129 Y118.328 E.0387
G1 X114.316 Y119.095 E.03705
G1 X113.341 Y119.666 E.03749
G1 X112.2 Y120.051 E.03996
G1 X110.84 Y120.24 E.04553
G1 X109.323 Y120.25 E.05033
G1 X107.68 Y120.022 E.05501
G1 X106.789 Y119.722 E.0312
G1 X105.897 Y119.243 E.0336
G1 X105.449 Y118.9 E.01869
G1 X104.789 Y118.225 E.03133
G1 X104.278 Y117.471 E.0302
G1 X103.892 Y116.572 E.03247
G1 X103.665 Y115.137 E.04819
G1 X103.658 Y104.863 E.34079
G1 X103.817 Y103.669 E.03997
G1 X104.155 Y102.751 E.03247
G1 X104.656 Y101.946 E.03145
; printing object Puzzle Ring.stl id:15 copy 0
G1 E-.84 F1800
;WIPE_START
G1 F3000
G1 X105.362 Y101.237 E-.36
;WIPE_END
G1 Z.6 F7200
G1 X106.668 Y103.6 Z.6
G1 Z.2
G1 E1.2 F1800
;TYPE:Brim
G1 X107.012 Y103.201 E.01748
G1 X107.36 Y102.911 E.01502
G1 X107.914 Y102.637 E.02048
G1 X108.207 Y102.539 E.01025
G1 X108.7 Y102.43 E.01674
G1 X109.452 Y102.356 E.0251
G1 X110.208 Y102.343 E.02507
G1 X110.961 Y102.389 E.02501
G1 X111.751 Y102.526 E.0266
G1 X112.184 Y102.67 E.01514
G1 X112.589 Y102.873 E.01503
G1 X113.108 Y103.325 E.02281
G1 X113.186 Y103.417 E.004
G1 X113.448 Y103.798 E.01535
G1 X113.623 Y104.209 E.01483
G1 X113.726 Y104.891 E.02288
G1 X113.725 Y106.616 E.0572
G1 X113.692 Y106.983 E.01225
G1 X113.729 Y107.359 E.01253
G1 X113.749 Y109.219 E.06169
G1 X113.743 Y109.646 E.01418
G1 X113.702 Y110.036 E.01299
G1 X113.729 Y110.358 E.01072
G1 X113.739 Y111.3 E.03126
G1 X113.725 Y112.637 E.04434
G1 X113.69 Y112.99 E.01178
G1 X113.726 Y113.383 E.01309
G1 X113.726 Y115.116 E.0575
G1 X113.678 Y115.576 E.01534
G1 X113.544 Y116.003 E.01484
G1 X113.179 Y116.592 E.02299
G1 X113.001 Y116.789 E.0088
G1 X112.652 Y117.083 E.01516
G1 X112.154 Y117.34 E.01858
G1 X111.688 Y117.491 E.01626
G1 X111.318 Y117.564 E.01249
G1 X110.713 Y117.633 E.0202
G1 X110.151 Y117.658 E.01867
G1 X109.394 Y117.64 E.02512
G1 X108.688 Y117.567 E.02357
G1 X108.441 Y117.525 E.00829
G1 X107.882 Y117.352 E.01941
G1 X107.468 Y117.158 E.01518
G1 X107.054 Y116.84 E.01733
G1 X106.745 Y116.496 E.01531
G1 X106.505 Y116.109 E.0151
G1 X106.349 Y115.688 E.01492
G1 X106.276 Y115.112 E.01924
G1 X106.276 Y113.385 E.05728
G1 X106.308 Y113.025 E.012
G1 X106.268 Y112.641 E.01282
G1 X106.26 Y111.889 E.02493
G1 X106.275 Y110.363 E.05064
G1 X106.309 Y110.02 E.01144
G1 X106.271 Y109.641 E.01263
G1 X106.251 Y107.882 E.05836
G1 X106.258 Y107.353 E.01752
G1 X106.298 Y106.974 E.01265
G1 X106.27 Y106.619 E.0118
G1 X106.269 Y104.888 E.05745
G1 X106.315 Y104.427 E.01535
G1 X106.45 Y103.996 E.015
G1 X106.649 Y103.635 E.01366
G1 X106.998 Y103.845 F7200
G1 F1800
G1 X107.292 Y103.5 E.01505
G1 X107.597 Y103.248 E.0131
G1 X108.077 Y103.012 E.01777
G1 X108.322 Y102.93 E.00856
G1 X108.756 Y102.835 E.01475
G1 X109.471 Y102.764 E.02383
G1 X110.204 Y102.75 E.02431
G1 X110.92 Y102.795 E.02379
G1 X111.642 Y102.92 E.02432
G1 X112.019 Y103.044 E.01316
G1 X112.347 Y103.207 E.01213
G1 X112.866 Y103.67 E.02307
G1 X113.094 Y104.006 E.01349
G1 X113.23 Y104.336 E.01184
G1 X113.319 Y104.931 E.01995
G1 X113.318 Y106.592 E.05509
G1 X113.288 Y107.034 E.01471
G1 X113.323 Y107.387 E.01177
G1 X113.342 Y109.22 E.06079
G1 X113.336 Y109.625 E.01345
G1 X113.297 Y110.079 E.01512
G1 X113.322 Y110.381 E.01004
G1 X113.331 Y111.301 E.03053
G1 X113.319 Y112.609 E.04337
G1 X113.286 Y113.037 E.01424
G1 X113.319 Y113.407 E.01232
G1 X113.318 Y115.102 E.05622
G1 X113.274 Y115.506 E.01348
G1 X113.163 Y115.845 E.01184
G1 X112.845 Y116.355 E.01992
G1 X112.711 Y116.501 E.00657
G1 X112.412 Y116.749 E.01289
G1 X111.987 Y116.966 E.01583
G1 X111.593 Y117.094 E.01377
G1 X111.261 Y117.16 E.01122
G1 X110.685 Y117.226 E.01923
G1 X110.151 Y117.251 E.01774
G1 X109.425 Y117.234 E.02409
G1 X108.528 Y117.126 E.02997
G1 X108.038 Y116.974 E.01703
G1 X107.67 Y116.8 E.01349
G1 X107.34 Y116.547 E.01378
G1 X107.079 Y116.259 E.0129
G1 X106.879 Y115.94 E.01249
G1 X106.745 Y115.576 E.01285
G1 X106.683 Y115.079 E.01664
G1 X106.683 Y113.409 E.05538
G1 X106.712 Y113.072 E.01123
G1 X106.675 Y112.612 E.01531
G1 X106.667 Y111.888 E.02401
G1 X106.682 Y110.39 E.04968
G1 X106.713 Y110.07 E.01067
G1 X106.677 Y109.612 E.01523
G1 X106.658 Y107.883 E.05736
G1 X106.664 Y107.383 E.0166
G1 X106.703 Y106.933 E.015
G1 X106.677 Y106.599 E.01111
G1 X106.676 Y104.902 E.0563
G1 X106.719 Y104.497 E.01349
G1 X106.822 Y104.168 E.01144
G1 X106.979 Y103.88 E.01088
G1 X107.329 Y104.088 F7200
G1 F1800
G1 X107.572 Y103.799 E.01252
G1 X107.832 Y103.586 E.01115
G1 X108.24 Y103.387 E.01506
G1 X108.437 Y103.322 E.00687
G1 X108.813 Y103.239 E.0128
G1 X109.5 Y103.17 E.02289
G1 X110.2 Y103.158 E.02322
G1 X110.879 Y103.202 E.02256
G1 X111.535 Y103.315 E.02209
G1 X111.872 Y103.426 E.01178
G1 X112.129 Y103.558 E.00958
G1 X112.546 Y103.93 E.01855
G1 X112.727 Y104.189 E.01048
G1 X112.837 Y104.46 E.00968
G1 X112.912 Y104.97 E.0171
G1 X112.911 Y106.573 E.05319
G1 X112.882 Y106.997 E.01409
G1 X112.916 Y107.415 E.01389
G1 X112.935 Y109.22 E.0599
G1 X112.929 Y109.609 E.01289
G1 X112.892 Y110.036 E.01421
G1 X112.915 Y110.404 E.01224
G1 X112.924 Y111.303 E.02981
G1 X112.912 Y112.587 E.04261
G1 X112.881 Y112.997 E.01362
G1 X112.912 Y113.43 E.01442
G1 X112.911 Y115.073 E.05449
G1 X112.875 Y115.407 E.01115
G1 X112.796 Y115.657 E.00871
G1 X112.525 Y116.098 E.01716
G1 X112.423 Y116.211 E.00505
G1 X112.197 Y116.398 E.00974
G1 X111.84 Y116.585 E.01338
G1 X111.497 Y116.698 E.01197
G1 X111.203 Y116.757 E.00994
G1 X110.657 Y116.82 E.01824
G1 X110.142 Y116.844 E.01708
G1 X109.46 Y116.827 E.02263
G1 X108.603 Y116.723 E.02865
G1 X108.194 Y116.596 E.0142
G1 X107.895 Y116.456 E.01095
G1 X107.626 Y116.253 E.01117
G1 X107.412 Y116.02 E.0105
G1 X107.242 Y115.747 E.01066
G1 X107.142 Y115.466 E.00992
G1 X107.09 Y115.046 E.01403
G1 X107.09 Y113.432 E.05352
G1 X107.117 Y113.029 E.0134
G1 X107.082 Y112.589 E.01467
G1 X107.074 Y111.887 E.02329
G1 X107.089 Y110.417 E.04874
G1 X107.118 Y110.029 E.01291
G1 X107.084 Y109.59 E.0146
G1 X107.065 Y107.885 E.05657
G1 X107.071 Y107.408 E.01584
G1 X107.108 Y106.976 E.01436
G1 X107.084 Y106.579 E.01322
G1 X107.084 Y104.917 E.05513
G1 X107.124 Y104.569 E.01161
G1 X107.205 Y104.317 E.00877
G1 X107.31 Y104.123 E.00733
G1 X107.654 Y104.346 F7200
G1 F1800
G1 X107.729 Y104.229 E.00462
G1 X107.871 Y104.07 E.00706
G1 X108.083 Y103.905 E.00891
G1 X108.208 Y103.841 E.00465
G1 X108.688 Y103.677 E.01683
G1 X109.494 Y103.577 E.02694
G1 X110.149 Y103.562 E.02172
G1 X110.764 Y103.597 E.02044
G1 X111.262 Y103.669 E.0167
G1 X111.76 Y103.823 E.01729
G1 X112.059 Y104.008 E.01165
G1 X112.23 Y104.182 E.00811
G1 X112.318 Y104.306 E.00502
G1 X112.429 Y104.535 E.00844
G1 X112.496 Y104.808 E.00936
G1 X112.504 Y106.606 E.05963
G1 X112.428 Y107.023 E.01405
G1 X112.508 Y107.395 E.01261
G1 X112.522 Y109.599 E.07313
G1 X112.49 Y109.828 E.00766
G1 X112.435 Y110.044 E.0074
G1 X112.508 Y110.402 E.01213
G1 X112.504 Y112.607 E.07314
G1 X112.426 Y113.027 E.01419
G1 X112.505 Y113.401 E.01266
G1 X112.496 Y115.196 E.05954
G1 X112.445 Y115.429 E.00792
G1 X112.295 Y115.732 E.01122
G1 X112.045 Y116.001 E.01217
G1 X111.942 Y116.078 E.00427
G1 X111.665 Y116.216 E.01026
G1 X111.359 Y116.31 E.01062
G1 X110.747 Y116.404 E.02054
G1 X110.056 Y116.439 E.02296
G1 X109.357 Y116.414 E.0232
G1 X108.843 Y116.355 E.01715
G1 X108.335 Y116.214 E.0175
G1 X108.059 Y116.077 E.01021
G1 X107.787 Y115.835 E.0121
G1 X107.597 Y115.536 E.01173
G1 X107.506 Y115.199 E.01159
G1 X107.497 Y113.394 E.05986
G1 X107.571 Y112.981 E.01393
G1 X107.489 Y112.595 E.01308
G1 X107.497 Y110.391 E.07311
G1 X107.572 Y109.977 E.01396
G1 X107.492 Y109.605 E.01263
G1 X107.479 Y107.4 E.07313
G1 X107.511 Y107.171 E.00767
G1 X107.565 Y106.958 E.0073
G1 X107.492 Y106.601 E.0121
G1 X107.499 Y104.801 E.0597
G1 X107.556 Y104.554 E.00842
G1 X107.634 Y104.381 E.00629
G1 X107.979 Y104.592 F7200
G1 F1800
G1 X108.076 Y104.443 E.00592
G1 X108.168 Y104.347 E.00439
G1 X108.33 Y104.229 E.00665
G1 X108.831 Y104.059 E.01755
G1 X109.498 Y103.984 E.02227
G1 X110.122 Y103.969 E.02073
G1 X110.705 Y104 E.01936
G1 X111.144 Y104.059 E.0147
G1 X111.556 Y104.175 E.01418
G1 X111.762 Y104.287 E.0078
G1 X111.947 Y104.475 E.00874
G1 X112.069 Y104.725 E.0092
G1 X112.097 Y104.886 E.00544
G1 X112.097 Y106.614 E.05734
G1 X112.069 Y106.772 E.00529
G1 X111.99 Y106.946 E.00634
G1 X111.991 Y107.048 E.00338
G1 X112.057 Y107.19 E.00521
G1 X112.101 Y107.384 E.00662
G1 X112.115 Y109.61 E.07384
G1 X112.088 Y109.767 E.00526
G1 X111.998 Y109.962 E.00713
G1 X111.998 Y110.064 E.00339
G1 X112.057 Y110.193 E.00469
G1 X112.1 Y110.389 E.00667
G1 X112.097 Y112.615 E.07384
G1 X112.069 Y112.772 E.00529
G1 X111.989 Y112.949 E.00645
G1 X111.989 Y113.051 E.00337
G1 X112.054 Y113.192 E.00517
G1 X112.098 Y113.388 E.00666
G1 X112.097 Y115.114 E.05724
G1 X112.067 Y115.279 E.00557
G1 X112.024 Y115.393 E.00404
G1 X111.94 Y115.533 E.00543
G1 X111.755 Y115.716 E.00863
G1 X111.556 Y115.824 E.0075
G1 X111.232 Y115.923 E.01125
G1 X110.684 Y116.002 E.01835
G1 X110.032 Y116.032 E.02164
G1 X109.408 Y116.01 E.02074
G1 X108.88 Y115.95 E.01763
G1 X108.44 Y115.821 E.01521
G1 X108.248 Y115.717 E.00723
G1 X108.066 Y115.539 E.00845
G1 X107.979 Y115.397 E.00552
G1 X107.935 Y115.281 E.00409
G1 X107.904 Y115.114 E.00565
G1 X107.904 Y113.386 E.05732
G1 X107.932 Y113.229 E.0053
G1 X108.009 Y113.056 E.00627
G1 X108.008 Y112.954 E.00337
G1 X107.939 Y112.806 E.00542
G1 X107.896 Y112.61 E.00668
G1 X107.904 Y110.384 E.07384
G1 X107.932 Y110.227 E.0053
G1 X108.01 Y110.055 E.00626
G1 X108.009 Y109.953 E.00338
G1 X107.943 Y109.81 E.00522
G1 X107.899 Y109.615 E.00662
G1 X107.886 Y107.389 E.07384
G1 X107.913 Y107.233 E.00526
G1 X108.002 Y107.04 E.00706
G1 X108.002 Y106.937 E.0034
G1 X107.942 Y106.808 E.00472
G1 X107.899 Y106.612 E.00666
G1 X107.897 Y104.887 E.05722
G1 X107.931 Y104.712 E.00592
G1 X107.964 Y104.63 E.00295
G1 X108.342 Y104.782 F7200
G1 F1800
G1 X108.361 Y104.734 E.00172
G1 X108.468 Y104.622 E.00513
G1 X108.55 Y104.571 E.0032
G1 X108.866 Y104.464 E.01108
G1 X109.504 Y104.391 E.02129
G1 X110.096 Y104.375 E.01965
G1 X110.689 Y104.406 E.01968
G1 X111.097 Y104.463 E.01367
G1 X111.45 Y104.569 E.01225
G1 X111.547 Y104.632 E.00383
G1 X111.642 Y104.743 E.00484
G1 X111.69 Y104.875 E.00466
G1 X111.69 Y106.625 E.05805
G1 X111.641 Y106.757 E.00466
G1 X111.486 Y106.829 E.00567
G1 X108.509 Y106.829 E.09875
G1 X108.377 Y106.78 E.00466
G1 X108.306 Y106.625 E.00566
G1 X108.304 Y104.875 E.05805
G1 X108.327 Y104.819 E.00202
G1 E-.84
;WIPE_START
G1 X108.361 Y104.734 E-.03303
G1 X108.468 Y104.622 E-.05564
G1 X108.55 Y104.571 E-.03476
G1 X108.866 Y104.464 E-.1202
G1 X109.187 Y104.427 E-.11637
;WIPE_END
G1 Z.6 F7200
G1 X108.497 Y107.171 Z.6
G1 Z.2
G1 E1.2 F1800
G1 X111.49 Y107.171 E.09931
G1 X111.622 Y107.22 E.00466
G1 X111.694 Y107.374 E.00563
G1 X111.708 Y109.624 E.07464
G1 X111.66 Y109.756 E.00466
G1 X111.504 Y109.829 E.00571
G1 X108.51 Y109.829 E.09935
G1 X108.378 Y109.78 E.00466
M73 P2 R19
G1 X108.306 Y109.626 E.00563
G1 X108.293 Y107.376 E.07464
G1 X108.341 Y107.244 E.00466
G1 X108.46 Y107.188 E.00438
G1 E-.84
;WIPE_START
G1 X109.46 Y107.183 E-.36
;WIPE_END
G1 Z.6 F7200
G1 X108.514 Y110.171 Z.6
G1 Z.2
G1 E1.2 F1800
G1 X111.49 Y110.171 E.09871
G1 X111.622 Y110.22 E.00466
G1 X111.693 Y110.375 E.00568
G1 X111.69 Y112.625 E.07464
G1 X111.641 Y112.757 E.00466
G1 X111.487 Y112.829 E.00566
G1 X108.507 Y112.829 E.09884
G1 X108.375 Y112.78 E.00466
G1 X108.303 Y112.624 E.00569
G1 X108.311 Y110.374 E.07464
G1 X108.36 Y110.243 E.00466
G1 X108.478 Y110.188 E.00432
G1 E-.84
;WIPE_START
G1 X109.478 Y110.183 E-.36
;WIPE_END
G1 Z.6 F7200
G1 X108.515 Y113.171 Z.6
G1 Z.2
G1 E1.2 F1800
G1 X111.487 Y113.171 E.0986
G1 X111.619 Y113.22 E.00466
G1 X111.69 Y113.375 E.00567
G1 X111.69 Y115.125 E.05805
G1 X111.639 Y115.26 E.00477
G1 X111.541 Y115.371 E.00492
G1 X111.448 Y115.431 E.00368
G1 X111.103 Y115.537 E.01197
G1 X110.627 Y115.599 E.01594
G1 X110.051 Y115.626 E.01913
G1 X109.458 Y115.606 E.01966
G1 X108.915 Y115.544 E.01813
G1 X108.552 Y115.43 E.01264
G1 X108.464 Y115.372 E.00349
G1 X108.363 Y115.261 E.00497
G1 X108.311 Y115.125 E.00484
G1 X108.311 Y113.375 E.05805
G1 X108.359 Y113.243 E.00466
G1 X108.478 Y113.188 E.00434
G1 E-.84
;WIPE_START
G1 X109.478 Y113.183 E-.36
;WIPE_END
G1 Z.6 F7200
G1 X109.229 Y105.35 Z.6
G1 Z.2
G1 E1.2 F1800
;TYPE:Inner wall
;WIDTH:0.630428
G1 X109.571 Y105.315 E.01645
;WIDTH:0.637412
G1 X110.089 Y105.305 E.02511
G1 X110.766 Y105.357 E.0329
;WIDTH:0.626981
G1 X110.766 Y105.904 E.02607
;WIDTH:0.637412
G1 X109.229 Y105.904 E.07444
;WIDTH:0.627304
G1 X109.229 Y105.39 E.02449
G1 X108.733 Y104.971 F7200
;TYPE:Outer wall
;WIDTH:0.449999
G1 F1800
G1 X109.014 Y104.875 E.00986
G1 X109.557 Y104.818 E.0181
G1 X110.115 Y104.805 E.01852
G1 X110.677 Y104.839 E.0187
G1 X111.262 Y104.961 E.0198
G1 X111.261 Y106.4 E.04773
G1 X108.734 Y106.4 E.08383
M73 P2 R18
G1 X108.733 Y105.011 E.04608
G1 E-.84
;WIPE_START
G1 X109.014 Y104.875 E-.11249
G1 X109.557 Y104.818 E-.19643
G1 X109.698 Y104.815 E-.05108
;WIPE_END
G1 Z.6 F7200
G1 X109.138 Y108.993 Z.6
G1 Z.2
G1 E1.2 F1800
;TYPE:Inner wall
G1 X109.132 Y108.007 E.0327
G1 X110.865 Y108.007 E.05749
G1 X110.876 Y108.993 E.0327
G1 X109.178 Y108.993 E.05634
G1 X108.733 Y109.4 F7200
;TYPE:Outer wall
G1 F1800
G1 X108.723 Y107.6 E.05971
G1 X111.268 Y107.6 E.08443
G1 X111.283 Y109.4 E.05971
G1 X108.773 Y109.4 E.08324
G1 E-.84
;WIPE_START
G1 X108.745 Y108.4 E-.36
;WIPE_END
G1 Z.6 F7200
G1 X109.709 Y108.17
G1 Z.6
G1 Z.2
G1 E1.2 F1800
;TYPE:Bottom surface
;WIDTH:0.531415
G1 F3600
G1 X110.186 Y108.647 E.02685
G1 X109.495 Y108.647 E.0275
G1 X109.298 Y108.45 E.01109
G1 X110.586 Y108.789 F7200
;TYPE:Gap infill
;WIDTH:0.258669
G1 F1800
G1 X110.554 Y108.509 E.00495
G1 X110.428 Y108.211 E.0057
G1 X109.591 Y108.288 F7200
;WIDTH:0.132917
G1 F1800
G1 X109.498 Y108.25 E.00073
G1 X109.337 Y108.25 E.00118
G1 E-.93909
;WIPE_START
G1 X109.498 Y108.25 E-.16071
G1 X109.591 Y108.288 E-.1002
;WIPE_END
G1 Z.6 F7200
G1 X109.14 Y111.007 Z.6
G1 Z.2
G1 E1.2 F1800
;TYPE:Inner wall
;WIDTH:0.449999
