; HEADER_BLOCK_START
; generated by OrcaSlicer 2.0.0 on 2024-04-16 at 07:36:41
; total layer number: 110
; filament_density: 1.24
; filament_diameter: 1.75
; max_z_height: 22.00
; HEADER_BLOCK_END

; THUMBNAIL_BLOCK_START

;
; THUMBNAIL_BLOCK_END

; THUMBNAIL_BLOCK_START

;
; THUMBNAIL_BLOCK_END

; external perimeters extrusion width = 0.45mm
; perimeters extrusion width = 0.45mm
; infill extrusion width = 0.45mm
; solid infill extrusion width = 0.45mm
; top infill extrusion width = 0.40mm

; EXECUTABLE_BLOCK_START
M73 P0 R15
M201 X5000 Y5000 Z500 E5000
M203 X500 Y500 Z30 E100
M204 P5000 R2500 T5000 ; sets acceleration (P, T) and retract acceleration (R), mm/sec^2
M205 X10.00 Y10.00 Z0.40 E5.00 ; sets the jerk limits, mm/sec
;TYPE:Custom
M220 S100 ;Reset Feedrate 
M221 S100 ;Reset Flowrate 
 
M140 S55 ;Set final bed temp 
G28 ;Home 
M420 S1; Enable mesh leveling 
G92 E0 ;Reset Extruder 
G1 Z2.0 F3000 ;Move Z Axis up 
M104 S220 ;Set final nozzle temp 
G1 X-2.1 Y20 Z0.28 F5000.0 ;Move to start position 
M190 S55 ;Wait for bed temp to stabilize 
M109 S220 ;Wait for nozzle temp to stabilize 
G1 X-2.1 Y145.0 Z0.28 F1500.0 E15 ;Draw the first line 
G1 X-2.4 Y145.0 Z0.28 F5000.0 ;Move to side a little 
G1 X-2.4 Y20 Z0.28 F1500.0 E30 ;Draw the second line 
G92 E0  ;Reset Extruder 
G1 E-1.0000 F1800 ;Retract a bit 
M73 P1 R15
G1 Z2.0 F3000 ;Move Z Axis up 
G1 E0.0000 F1800
G90
G21
M83 ; use relative distances for extrusion
; filament start gcode
M106 S0
;LAYER_CHANGE
;Z:0.2
;HEIGHT:0.2
;BEFORE_LAYER_CHANGE
;0.2
G92 E0

G1 E-1.2 F1800
;_SET_FAN_SPEED_CHANGING_LAYER
M204 P300
M204 T300
G1 Z.4 F7200
G1 X102.815 Y98.68
G1 Z.4
G1 Z.2
G1 E1.2 F1800
;TYPE:Skirt
;WIDTH:0.45
G1 F2953
G1 X103.641 Y97.982 E.03589
G1 X104.812 Y97.209 E.04654
G1 X106.376 Y96.483 E.05718
G1 X107.722 Y96.088 E.04654
G1 X108.789 Y95.908 E.03589
G1 X110.512 Y95.85 E.05718
G1 X111.588 Y95.959 E.03589
G1 X112.958 Y96.263 E.04654
G1 X114.566 Y96.883 E.05718
G1 X115.515 Y97.403 E.03589
G1 X116.657 Y98.217 E.04654
G1 X117.896 Y99.416 E.05718
G1 X118.567 Y100.265 E.03589
G1 X119.3 Y101.461 E.04654
G1 X119.868 Y102.744 E.04654
G1 X120.323 Y104.407 E.05718
G1 X120.489 Y105.8 E.04654
G1 X120.489 Y106.882 E.03589
G1 X120.259 Y108.59 E.05718
G1 X119.973 Y109.634 E.03589
G1 X119.445 Y110.934 E.04654
G1 X118.567 Y112.417 E.05718
G1 X117.896 Y113.266 E.03589
G1 X116.903 Y114.257 E.04654
G1 X115.515 Y115.279 E.05718
G1 X114.566 Y115.799 E.03589
G1 X113.265 Y116.323 E.04654
G1 X111.588 Y116.723 E.05718
G1 X110.512 Y116.831 E.0359
G1 X109.109 Y116.806 E.04654
G1 X107.722 Y116.594 E.04654
G1 X106.076 Y116.083 E.05718
G1 X105.094 Y115.628 E.03589
G1 X103.9 Y114.891 E.04654
G1 X102.584 Y113.778 E.05718
G1 X101.659 Y112.723 E.04654
G1 X101.046 Y111.831 E.03589
G1 X100.269 Y110.293 E.05718
G1 X99.914 Y109.27 E.03589
G1 X99.613 Y107.9 E.04654
G1 X99.498 Y106.18 E.05718
G1 X99.613 Y104.782 E.04654
G1 X99.829 Y103.721 E.03589
G1 X100.394 Y102.093 E.05718
G1 X100.882 Y101.127 E.03589
G1 X101.659 Y99.959 E.04654
G1 X102.788 Y98.71 E.05585
; printing object thumbstick.STL id:0 copy 0
G1 E-.84 F1800
;WIPE_START
G1 F3000
G1 X103.549 Y98.061 E-.36
;WIPE_END
G1 Z.6 F7200
G1 X104.526 Y112.001 Z.6
G1 Z.2
M73 P1 R14
G1 E1.2 F1800
;TYPE:Outer wall
;WIDTH:0.449999
G1 X103.82 Y111.221 E.03489
G1 X103.225 Y110.354 E.03489
G1 X102.75 Y109.415 E.03489
G1 X102.405 Y108.421 E.03489
G1 X102.196 Y107.39 E.03489
G1 X102.13 Y106.407 E.03271
G1 X102.196 Y105.29 E.03709
G1 X102.405 Y104.26 E.03487
G1 X102.729 Y103.329 E.03271
G1 X103.225 Y102.327 E.03709
G1 X103.82 Y101.461 E.03487
G1 X104.526 Y100.681 E.03489
G1 X105.329 Y100.001 E.03489
G1 X106.216 Y99.435 E.03489
G1 X107.17 Y98.993 E.03489
G1 X108.175 Y98.681 E.03489
G1 X109.212 Y98.506 E.03489
G1 X110.263 Y98.471 E.03489
G1 X111.244 Y98.57 E.03271
G1 X112.334 Y98.82 E.03709
G1 X113.315 Y99.198 E.03486
G1 X114.237 Y99.704 E.03489
G1 X115.084 Y100.328 E.03489
G1 X115.84 Y101.059 E.03489
G1 X116.492 Y101.884 E.03489
G1 X117.028 Y102.789 E.03489
G1 X117.446 Y103.785 E.03582
G1 X117.72 Y104.8 E.03488
G1 X117.857 Y105.843 E.03487
G1 X117.857 Y106.867 E.03398
G1 X117.717 Y107.909 E.03489
G1 X117.439 Y108.924 E.03489
G1 X117.028 Y109.892 E.03489
G1 X116.492 Y110.797 E.03489
G1 X115.881 Y111.571 E.03271
G1 X115.083 Y112.355 E.03709
G1 X114.237 Y112.978 E.03486
G1 X113.372 Y113.452 E.03271
G1 X112.332 Y113.862 E.03709
G1 X111.31 Y114.106 E.03487
G1 X110.329 Y114.204 E.03271
G1 X109.211 Y114.176 E.03709
G1 X108.175 Y114.001 E.03486
G1 X107.17 Y113.689 E.03489
G1 X106.216 Y113.246 E.03489
G1 X105.329 Y112.68 E.03489
G1 X104.556 Y112.027 E.03357
G1 E-.84
;WIPE_START
G1 X103.882 Y111.289 E-.36
;WIPE_END
G1 Z.6 F7200
G1 X115.968 Y110.096 Z.6
G1 Z.2
G1 E1.2 F1800
G1 X115.279 Y111.017 E.03818
G1 X114.527 Y111.74 E.0346
G1 X113.511 Y112.456 E.04121
G1 X112.516 Y112.928 E.03656
G1 X111.426 Y113.246 E.03764
G1 X110.284 Y113.388 E.03818
G1 X109.268 Y113.347 E.03375
G1 X108.023 Y113.109 E.04205
G1 X106.992 Y112.718 E.03656
G1 X106.008 Y112.153 E.03764
G1 X105.127 Y111.438 E.03764
G1 X104.459 Y110.687 E.03335
G1 X103.749 Y109.603 E.04297
G1 X103.317 Y108.589 E.03656
G1 X103.043 Y107.488 E.03764
G1 X102.95 Y106.372 E.03715
G1 X103.025 Y105.378 E.03307
G1 X103.317 Y104.092 E.04373
G1 X103.749 Y103.079 E.03656
G1 X104.353 Y102.118 E.03764
G1 X105.114 Y101.255 E.03817
G1 X105.981 Y100.547 E.03712
G1 X106.992 Y99.963 E.03873
G1 X108.023 Y99.573 E.03656
G1 X109.134 Y99.343 E.03764
G1 X110.266 Y99.295 E.03759
G1 X111.426 Y99.435 E.03878
G1 X112.485 Y99.742 E.03656
G1 X112.956 Y99.963 E.01724
G1 X113.511 Y100.226 E.0204
G1 X114.447 Y100.869 E.03764
G1 X115.247 Y101.634 E.03674
G1 X115.968 Y102.586 E.03962
G1 X116.481 Y103.562 E.03656
G1 X116.842 Y104.638 E.03764
G1 X117.027 Y105.757 E.03764
G1 X117.03 Y106.839 E.03589
G1 X116.842 Y108.044 E.04045
G1 X116.493 Y109.09 E.03656
G1 X115.987 Y110.06 E.03632
M73 P2 R14
G1 X116.303 Y110.293 F7200
;TYPE:Inner wall
;WIDTH:0.478848
G1 F1800
G1 X116.146 Y110.56 E.01101
;WIDTH:0.472898
G1 X115.55 Y111.324 E.03394
;WIDTH:0.464434
G1 X114.755 Y112.096 E.03807
G1 X113.685 Y112.821 E.0444
;WIDTH:0.47572
G1 X113.194 Y113.071 E.01943
G1 X112.688 Y113.291 E.01946
;WIDTH:0.478288
G1 X112.205 Y113.459 E.01812
G1 X111.24 Y113.693 E.03524
;WIDTH:0.471762
G1 X110.251 Y113.795 E.03474
;WIDTH:0.466018
G1 X109.153 Y113.758 E.03789
G1 X107.879 Y113.487 E.04489
;WIDTH:0.479636
G1 X107.322 Y113.295 E.02098
G1 X106.418 Y112.876 E.03543
;WIDTH:0.477886
G1 X105.577 Y112.344 E.0353
;WIDTH:0.470538
G1 X104.796 Y111.687 E.03555
;WIDTH:0.45782
G1 X104.01 Y110.781 E.04057
;WIDTH:0.447602
G1 X103.378 Y109.761 E.03956
;WIDTH:0.479724
G1 X103.14 Y109.25 E.02008
G1 X102.812 Y108.31 E.03543
;WIDTH:0.477278
G1 X102.61 Y107.335 E.03525
;WIDTH:0.469222
G1 X102.544 Y106.292 E.0363
;WIDTH:0.448542
G1 X102.649 Y105.097 E.03966
;WIDTH:0.446724
G1 X102.931 Y103.973 E.03811
;WIDTH:0.475328
G1 X103.117 Y103.492 E.01818
;WIDTH:0.47648
G1 X103.589 Y102.541 E.03752
G1 X104.147 Y101.719 E.0351
;WIDTH:0.467824
G1 X104.868 Y100.927 E.03708
;WIDTH:0.454744
G1 X105.805 Y100.178 E.04026
;WIDTH:0.445928
G1 X106.849 Y99.586 E.03939
;WIDTH:0.479636
G1 X107.322 Y99.387 E.01826
G1 X108.272 Y99.09 E.03543
;WIDTH:0.475786
G1 X109.253 Y98.92 E.03513
;WIDTH:0.466334
G1 X110.35 Y98.89 E.03783
;WIDTH:0.453332
G1 X111.538 Y99.05 E.04011
;WIDTH:0.440978
G1 X112.646 Y99.372 E.03743
;WIDTH:0.479458
G1 X113.137 Y99.582 E.01897
G1 X114.011 Y100.058 E.03542
;WIDTH:0.474908
G1 X114.816 Y100.645 E.03506
;WIDTH:0.46476
G1 X115.615 Y101.432 E.03857
;WIDTH:0.452014
G1 X116.326 Y102.398 E.03999
;WIDTH:0.444596
G1 X116.858 Y103.42 E.0377
;WIDTH:0.479196
G1 X117.04 Y103.897 E.01812
G1 X117.305 Y104.856 E.0354
;WIDTH:0.47395
G1 X117.443 Y105.843 E.03499
;WIDTH:0.463096
G1 X117.429 Y106.99 E.03929
;WIDTH:0.45078
G1 X117.226 Y108.172 E.03987
;WIDTH:0.444062
G1 X116.876 Y109.217 E.03603
;WIDTH:0.478848
G1 X116.651 Y109.702 E.01897
G1 X116.324 Y110.258 E.02293
; stop printing object thumbstick.STL id:0 copy 0
G1 E-.84
;WIPE_START
G1 X116.146 Y110.56 E-.12602
G1 X115.746 Y111.072 E-.23398
;WIPE_END
M106 S255
;LAYER_CHANGE
;Z:0.4
;HEIGHT:0.2
;BEFORE_LAYER_CHANGE
;0.4
G92 E0

;_SET_FAN_SPEED_CHANGING_LAYER
M204 P500
; printing object thumbstick.STL id:0 copy 0
M204 T5000
G1 Z.6 F7200
G1 X104.68 Y111.802
G1 Z.4
G1 E1.2 F1800
M204 P5000
;WIDTH:0.529112
G1 F1501
G1 X104.654 Y111.779 E.00138
;WIDTH:0.522931
G1 X103.86 Y110.853 E.04771
;WIDTH:0.532101
G1 X103.448 Y110.24 E.02943
G1 X103.222 Y109.814 E.01924
;WIDTH:0.533661
G1 X102.975 Y109.302 E.02274
G1 X102.799 Y108.823 E.02042
;WIDTH:0.532449
G1 X102.642 Y108.339 E.02026
G1 X102.44 Y107.341 E.04063
;WIDTH:0.528461
G1 X102.376 Y106.254 E.04311
;WIDTH:0.522186
G1 X102.493 Y105.04 E.04763
;WIDTH:0.532449
G1 X102.642 Y104.342 E.02844
G1 X102.799 Y103.859 E.02026
;WIDTH:0.533661
G1 X102.988 Y103.35 E.02173
G1 X103.448 Y102.441 E.04072
;WIDTH:0.532101
G1 X104.025 Y101.602 E.0406
;WIDTH:0.527768
G1 X104.77 Y100.793 E.04345
;WIDTH:0.529111
G1 X105.463 Y100.211 E.03586
G1 X105.738 Y100.026 E.01311
;WIDTH:0.532751
G1 X106.35 Y99.647 E.02875
G1 X106.801 Y99.429 E.01998
;WIDTH:0.533618
G1 X107.275 Y99.221 E.02072
G1 X108.248 Y98.92 E.04072
;WIDTH:0.531712
G1 X109.253 Y98.751 E.04057
;WIDTH:0.527031
G1 X110.392 Y98.728 E.04497
;WIDTH:0.529718
G1 X111.252 Y98.819 E.0343
G1 X111.601 Y98.893 E.01413
;WIDTH:0.53301
G1 X112.243 Y99.055 E.02645
G1 X112.706 Y99.221 E.01966
;WIDTH:0.533529
G1 X113.224 Y99.433 E.02235
G1 X114.116 Y99.923 E.04071
;WIDTH:0.531276
G1 X114.937 Y100.527 E.04053
;WIDTH:0.526251
G1 X115.761 Y101.35 E.04589
;WIDTH:0.530281
G1 X116.277 Y102.012 E.03334
G1 X116.479 Y102.336 E.01515
;WIDTH:0.533226
G1 X116.797 Y102.888 E.02545
G1 X117.008 Y103.357 E.02056
;WIDTH:0.533399
G1 X117.207 Y103.856 E.02146
G1 X117.475 Y104.838 E.0407
;WIDTH:0.530802
G1 X117.612 Y105.848 E.04049
;WIDTH:0.525427
G1 X117.589 Y107.038 E.0468
;WIDTH:0.530802
G1 X117.475 Y107.844 E.03237
G1 X117.377 Y108.238 E.01617
;WIDTH:0.533399
G1 X117.196 Y108.857 E.02576
G1 X117.008 Y109.325 E.02015
;WIDTH:0.533226
G1 X116.797 Y109.794 E.02056
G1 X116.277 Y110.67 E.04069
;WIDTH:0.530281
G1 X115.647 Y111.47 E.04045
;WIDTH:0.52456
G1 X114.755 Y112.296 E.04771
;WIDTH:0.531276
G1 X114.116 Y112.759 E.03139
G1 X113.742 Y112.975 E.01719
;WIDTH:0.533529
G1 X113.224 Y113.249 E.02345
G1 X112.768 Y113.436 E.0197
;WIDTH:0.53301
G1 X112.243 Y113.627 E.02231
G1 X111.252 Y113.863 E.04067
;WIDTH:0.529718
G1 X110.218 Y113.965 E.04123
;WIDTH:0.52372
G1 X109 Y113.895 E.04779
;WIDTH:0.531711
G1 X108.248 Y113.761 E.03041
G1 X107.809 Y113.635 E.01822
;WIDTH:0.533617
G1 X107.26 Y113.456 E.0231
G1 X106.801 Y113.253 E.02006
;WIDTH:0.532751
G1 X106.322 Y113.019 E.02128
G1 X105.463 Y112.471 E.04065
;WIDTH:0.529112
G1 X104.711 Y111.828 E.03921
G1 X104.387 Y112.145 F7200
M204 P500
;TYPE:Outer wall
;WIDTH:0.449999
G1 F1501
G1 X104.387 Y112.145 E.00002
G1 X103.663 Y111.345 E.03578
G1 X103.053 Y110.456 E.03578
G1 X102.566 Y109.493 E.03578
G1 X102.212 Y108.474 E.03578
G1 X101.998 Y107.417 E.03578
G1 X101.926 Y106.341 E.03578
G1 X101.998 Y105.265 E.03578
G1 X102.212 Y104.208 E.03578
G1 X102.566 Y103.189 E.03578
G1 X103.053 Y102.226 E.03578
G1 X103.663 Y101.337 E.03578
G1 X104.387 Y100.537 E.03578
G1 X105.21 Y99.84 E.03578
G1 X106.12 Y99.26 E.03578
G1 X107.098 Y98.806 E.03578
G1 X108.128 Y98.486 E.03578
G1 X109.192 Y98.307 E.03578
G1 X110.27 Y98.271 E.03578
G1 X111.343 Y98.379 E.03578
G1 X112.392 Y98.629 E.03578
G1 X113.399 Y99.017 E.03578
G1 X114.345 Y99.535 E.03578
G1 X115.213 Y100.175 E.03578
G1 X115.988 Y100.925 E.03578
G1 X116.657 Y101.771 E.03578
G1 X117.207 Y102.699 E.03578
G1 X117.44 Y103.249 E.01982
G1 X117.64 Y103.737 E.01749
G1 X117.919 Y104.778 E.03576
G1 X118.056 Y105.848 E.03575
G1 X118.056 Y106.88 E.03426
G1 X117.913 Y107.949 E.03578
G1 X117.628 Y108.99 E.03578
G1 X117.207 Y109.983 E.03578
G1 X116.657 Y110.911 E.03578
G1 X115.988 Y111.757 E.03578
G1 X115.213 Y112.507 E.03578
G1 X114.345 Y113.147 E.03578
G1 X113.399 Y113.665 E.03578
G1 X112.392 Y114.053 E.03578
G1 X111.343 Y114.303 E.03578
G1 X110.27 Y114.411 E.03578
G1 X109.192 Y114.375 E.03578
G1 X108.128 Y114.195 E.03578
G1 X107.098 Y113.876 E.03578
G1 X106.12 Y113.422 E.03578
G1 X105.21 Y112.841 E.03578
G1 X104.418 Y112.171 E.03443
G1 E-.84 F1800
;WIPE_START
G1 F3600
G1 X104.387 Y112.145 E-.01462
G1 X103.743 Y111.434 E-.34538
;WIPE_END
G1 Z.8 F7200
G1 X105.062 Y101.18 Z.8
G1 Z.4
G1 E1.2 F1800
M204 P5000
;TYPE:Inner wall
;WIDTH:0.529111
G1 F1501
G1 X105.774 Y100.585 E.03676
;WIDTH:0.532751
G1 X106.576 Y100.082 E.03779
G1 X106.984 Y99.865 E.01845
;WIDTH:0.5163
G1 X107.963 Y99.494 E.04036
;WIDTH:0.518625
G1 X109.087 Y99.255 E.04457
;WIDTH:0.523719
G1 X110.236 Y99.197 E.04505
;WIDTH:0.529718
G1 X111.199 Y99.303 E.03842
;WIDTH:0.53301
G1 X112.118 Y99.528 E.03781
G1 X112.582 Y99.68 E.01947
;WIDTH:0.516438
G1 X113.527 Y100.128 E.04038
;WIDTH:0.519108
G1 X114.479 Y100.774 E.04461
;WIDTH:0.52456
G1 X115.312 Y101.559 E.04496
;WIDTH:0.530281
G1 X115.891 Y102.309 E.03764
;WIDTH:0.533226
G1 X116.369 Y103.127 E.03782
G1 X116.592 Y103.589 E.02049
;WIDTH:0.516621
G1 X116.924 Y104.581 E.04039
;WIDTH:0.519638
G1 X117.118 Y105.714 E.04466
;WIDTH:0.525427
G1 X117.129 Y106.834 E.04404
;WIDTH:0.530802
G1 X116.993 Y107.772 E.03767
;WIDTH:0.533399
G1 X116.738 Y108.684 E.03783
G1 X116.552 Y109.189 E.02151
;WIDTH:0.516846
G1 X116.066 Y110.115 E.04041
;WIDTH:0.520211
G1 X115.383 Y111.04 E.04472
;WIDTH:0.526251
G1 X114.601 Y111.807 E.04312
;WIDTH:0.531276
G1 X113.833 Y112.361 E.0377
;WIDTH:0.533529
G1 X113.001 Y112.813 E.03784
G1 X112.537 Y113.02 E.02033
;WIDTH:0.517114
G1 X111.48 Y113.33 E.04256
;WIDTH:0.520825
G1 X110.34 Y113.479 E.04478
;WIDTH:0.527031
G1 X109.271 Y113.447 E.0422
;WIDTH:0.531711
G1 X108.338 Y113.281 E.03773
G1 X107.963 Y113.188 E.01539
;WIDTH:0.533617
G1 X106.942 Y112.798 E.04369
;WIDTH:0.517428
G1 X105.984 Y112.25 E.04267
;WIDTH:0.521484
G1 X105.087 Y111.531 E.04484
;WIDTH:0.52777
G1 X104.386 Y110.757 E.04126
;WIDTH:0.532101
G1 X103.857 Y109.971 E.03776
G1 X103.651 Y109.615 E.01641
;WIDTH:0.533661
G1 X103.241 Y108.652 E.04184
;WIDTH:0.517784
G1 X102.956 Y107.538 E.04449
;WIDTH:0.522186
G1 X102.853 Y106.393 E.0449
;WIDTH:0.528461
G1 X102.924 Y105.376 E.04032
;WIDTH:0.532449
G1 X103.12 Y104.45 E.03778
G1 X103.241 Y104.03 E.01743
;WIDTH:0.533661
G1 X103.651 Y103.067 E.04184
;WIDTH:0.518181
G1 X104.257 Y102.09 E.04452
;WIDTH:0.522931
G1 X105.012 Y101.223 E.04498
;WIDTH:0.529111
G1 X105.032 Y101.206 E.00103
G1 X105.344 Y101.517 F7200
M204 P500
;TYPE:Outer wall
;WIDTH:0.449999
G1 F1501
G1 X106.057 Y100.931 E.03061
G1 X106.8 Y100.47 E.02903
G1 X107.14 Y100.276 E.01298
G1 X108.119 Y99.905 E.03471
G1 X109.176 Y99.687 E.03579
G1 X110.254 Y99.641 E.03579
G1 X111.145 Y99.746 E.02977
G1 X111.993 Y99.959 E.02902
G1 X112.393 Y100.078 E.01382
G1 X113.338 Y100.526 E.03471
G1 X114.228 Y101.137 E.03579
G1 X115.005 Y101.879 E.03565
G1 X115.676 Y102.771 E.03702
G1 X116.162 Y103.698 E.03471
G1 X116.506 Y104.72 E.03579
G1 X116.682 Y105.785 E.03579
G1 X116.684 Y106.834 E.03481
G1 X116.506 Y107.961 E.03785
G1 X116.175 Y108.954 E.03471
G1 X115.676 Y109.911 E.03579
G1 X115.029 Y110.775 E.03579
G1 X114.293 Y111.486 E.03397
G1 X113.338 Y112.156 E.03868
G1 X112.393 Y112.604 E.03471
M73 P3 R14
G1 X111.357 Y112.907 E.03579
G1 X110.286 Y113.04 E.03579
G1 X109.288 Y113.002 E.03313
G1 X108.119 Y112.776 E.03951
G1 X107.14 Y112.405 E.03471
G1 X106.205 Y111.868 E.03579
G1 X105.367 Y111.188 E.03579
G1 X104.72 Y110.461 E.03228
G1 X104.056 Y109.442 E.04034
G1 X103.645 Y108.48 E.03471
G1 X103.385 Y107.433 E.03579
G1 X103.295 Y106.357 E.03579
G1 X103.369 Y105.412 E.03145
G1 X103.645 Y104.202 E.04117
G1 X104.056 Y103.24 E.03471
G1 X104.63 Y102.326 E.03579
G1 X105.317 Y101.547 E.03447
; stop printing object thumbstick.STL id:0 copy 0
G1 E-.84 F1800
;WIPE_START
G1 F3600
G1 X106.057 Y100.931 E-.34639
G1 X106.089 Y100.911 E-.01361
;WIPE_END
;LAYER_CHANGE
;Z:0.6
;HEIGHT:0.2
;BEFORE_LAYER_CHANGE
;0.6
G92 E0

;_SET_FAN_SPEED_CHANGING_LAYER
; printing object thumbstick.STL id:0 copy 0
G1 Z.8 F7200
G1 X104.531 Y111.996
