; HEADER_BLOCK_START
; generated by OrcaSlicer 2.0.0 on 2024-05-13 at 22:11:47
; total layer number: 20
; filament_density: 1.24
; filament_diameter: 1.75
; max_z_height: 4.00
; HEADER_BLOCK_END

; THUMBNAIL_BLOCK_START

;
; THUMBNAIL_BLOCK_END

; THUMBNAIL_BLOCK_START

;
; THUMBNAIL_BLOCK_END

; external perimeters extrusion width = 0.45mm
; perimeters extrusion width = 0.45mm
; infill extrusion width = 0.45mm
; solid infill extrusion width = 0.45mm
; top infill extrusion width = 0.40mm

; EXECUTABLE_BLOCK_START
M73 P0 R90
M201 X5000 Y5000 Z500 E5000
M203 X500 Y500 Z30 E100
M204 P5000 R2500 T5000 ; sets acceleration (P, T) and retract acceleration (R), mm/sec^2
M205 X10.00 Y10.00 Z0.40 E5.00 ; sets the jerk limits, mm/sec
;TYPE:Custom
M220 S100 ;Reset Feedrate 
M221 S100 ;Reset Flowrate 
 
M140 S55 ;Set final bed temp 
G28 ;Home 
M420 S1; Enable mesh leveling 
G92 E0 ;Reset Extruder 
G1 Z2.0 F3000 ;Move Z Axis up 
M104 S220 ;Set final nozzle temp 
G1 X-2.1 Y20 Z0.28 F5000.0 ;Move to start position 
M190 S55 ;Wait for bed temp to stabilize 
M109 S220 ;Wait for nozzle temp to stabilize 
G1 X-2.1 Y145.0 Z0.28 F1500.0 E15 ;Draw the first line 
G1 X-2.4 Y145.0 Z0.28 F5000.0 ;Move to side a little 
G1 X-2.4 Y20 Z0.28 F1500.0 E30 ;Draw the second line 
G92 E0  ;Reset Extruder 
G1 E-1.0000 F1800 ;Retract a bit 
G1 Z2.0 F3000 ;Move Z Axis up 
G1 E0.0000 F1800
G90
G21
M83 ; use relative distances for extrusion
; filament start gcode
M106 S0
;LAYER_CHANGE
;Z:0.2
;HEIGHT:0.2
;BEFORE_LAYER_CHANGE
;0.2
G92 E0

G1 E-1.2 F1800
;_SET_FAN_SPEED_CHANGING_LAYER
M204 P300
M204 T300
G1 Z.4 F7200
G1 X55.245 Y45.104
G1 Z.4
G1 Z.2
G1 E1.2 F1800
;TYPE:Skirt
;WIDTH:0.45
G1 F3000
G1 X55.594 Y44.676 E.01832
G1 X63.54 Y38.981 E.32431
G1 X64.13 Y38.686 E.02188
G1 X64.982 Y38.49 E.02899
G1 X66.145 Y38.42 E.03866
G1 X115.569 Y37.617 E1.6397
G1 X119.928 Y37.619 E.1446
G1 X155.012 Y40.529 E1.16779
G1 X156.469 Y41.181 E.05293
G1 X165.65 Y49.879 E.41954
G1 X166.243 Y50.627 E.03167
G1 X166.664 Y51.635 E.03624
G1 X167.037 Y54.173 E.08509
G1 X167.036 Y55.64 E.04865
G1 X152.557 Y166.898 E3.72175
G1 X152.256 Y168.119 E.04173
G1 X151.698 Y168.985 E.03417
G1 X143.432 Y177.76 E.39989
G1 X142.933 Y178.157 E.02116
G1 X142.457 Y178.416 E.01797
G1 X141.34 Y178.718 E.0384
G1 X83.428 Y182.389 E1.92488
G1 X72.513 Y182.328 E.36208
G1 X60.622 Y181.225 E.39613
G1 X59.393 Y180.932 E.0419
G1 X58.549 Y180.44 E.03241
G1 X58.075 Y179.975 E.02201
G1 X57.741 Y179.514 E.01889
G1 X53.249 Y171.382 E.30818
G1 X52.966 Y170.57 E.02851
G1 X52.928 Y170.194 E.01255
G1 X52.982 Y62.167 E3.58344
G1 X53.75 Y49.264 E.42879
G1 X53.944 Y47.905 E.04553
G1 X54.314 Y46.738 E.04063
G1 X54.799 Y45.649 E.03952
G1 X55.219 Y45.135 E.02203
; printing object pieces_1.stl id:0 copy 0
G1 E-.84 F1800
;WIPE_START
G1 F3000
G1 X55.594 Y44.676 E-.21319
G1 X55.925 Y44.439 E-.14681
;WIPE_END
G1 Z.6 F7200
G1 X63.91 Y53.083 Z.6
G1 Z.2
G1 E1.2 F1800
;TYPE:Inner wall
;WIDTH:0.449999
G1 X63.801 Y53.005 E.00444
G1 X63.262 Y52.91 E.01816
G1 X62.621 Y52.851 E.02137
G1 X61.131 Y52.82 E.04943
G1 X60.177 Y52.827 E.03164
G1 X57.437 Y52.919 E.09096
G1 X57.081 Y52.195 E.02676
G1 X56.917 Y51.634 E.01937
G1 X56.821 Y51.047 E.01973
G1 X56.766 Y49.969 E.03582
G1 X56.796 Y49.401 E.01888
G1 X56.935 Y48.491 E.03054
G1 X57.129 Y47.885 E.02109
G1 X57.407 Y47.263 E.02262
G1 X60.497 Y47.249 E.10249
G1 X61.879 Y47.223 E.04585
G1 X62.649 Y47.192 E.02557
G1 X63.179 Y47.153 E.01763
G1 X63.714 Y47.092 E.01787
G1 X64.313 Y46.978 E.02023
G1 X64.727 Y46.837 E.01451
G1 X65.103 Y46.626 E.0143
G1 X65.468 Y46.264 E.01705
G1 X65.689 Y45.795 E.01721
G1 X65.79 Y45.247 E.01848
G1 X65.793 Y44.648 E.01988
G1 X65.743 Y43.943 E.02341
G1 X65.554 Y42.109 E.06117
G1 X65.474 Y41.495 E.02054
G1 X65.746 Y41.475 E.00906
G1 X66.788 Y41.449 E.03456
G1 X69.797 Y41.447 E.09983
G1 X71.278 Y41.495 E.04914
G1 X71.114 Y42.36 E.02922
G1 X71.002 Y43.099 E.02479
G1 X70.849 Y44.281 E.03953
G1 X70.733 Y45.5 E.04063
G1 X70.692 Y46.162 E.022
G1 X70.693 Y47.289 E.03739
G1 X70.78 Y47.493 E.00736
G1 X70.997 Y47.692 E.00976
G1 X71.276 Y47.766 E.00957
G1 X77.949 Y47.912 E.22141
G1 X77.915 Y51.503 E.11911
G1 X77.859 Y52.798 E.04302
G1 X77.799 Y53.326 E.01764
G1 X77.649 Y53.889 E.01933
G1 X77.478 Y54.086 E.00865
G1 X77.149 Y54.18 E.01135
G1 X76.415 Y54.193 E.02433
G1 X75.869 Y54.121 E.01829
G1 X75.365 Y53.982 E.01733
G1 X74.84 Y53.72 E.01947
G1 X74.394 Y53.599 E.01532
G1 X73.843 Y53.485 E.01867
G1 X72.819 Y53.409 E.03406
G1 X71.175 Y53.409 E.05456
G1 X70.913 Y53.545 E.00979
G1 X70.751 Y53.746 E.00857
G1 X70.022 Y55.205 E.05408
G1 X69.692 Y55.928 E.02637
G1 X69.473 Y56.598 E.02338
G1 X69.378 Y57.451 E.02847
G1 X69.414 Y58.235 E.02604
G1 X69.757 Y61.656 E.11406
G1 X69.817 Y61.865 E.00721
G1 X70.021 Y62.1 E.01032
G1 X71.448 Y62.802 E.05276
G1 X72.343 Y63.173 E.03213
G1 X73.598 Y63.64 E.04445
G1 X75.528 Y64.305 E.0677
G1 X76.32 Y64.634 E.02844
G1 X76.405 Y65.011 E.01283
G1 X76.456 Y65.602 E.01966
G1 X76.48 Y66.129 E.01751
G1 X76.498 Y67.124 E.033
G1 X76.492 Y68.451 E.04402
G1 X76.473 Y69.002 E.01831
G1 X76.445 Y69.503 E.01664
G1 X76.354 Y70.249 E.02492
G1 X76.218 Y70.75 E.01724
G1 X76.062 Y70.991 E.0095
G1 X75.823 Y71.065 E.0083
G1 X75.337 Y71.108 E.0162
G1 X74.652 Y71.067 E.02274
G1 X72.827 Y70.724 E.06162
G1 X68.091 Y69.979 E.15901
G1 X62.496 Y69.164 E.18756
G1 X57.326 Y68.47 E.17305
G1 X56.739 Y68.343 E.01991
G1 X56.488 Y68.237 E.00904
G1 X56.334 Y67.96 E.01053
G1 X56.24 Y67.347 E.02055
G1 X56.149 Y66.341 E.03352
G1 X56.077 Y65.136 E.04005
G1 X56.031 Y63.879 E.04173
G1 X56.016 Y62.71 E.03875
G1 X56.027 Y61.989 E.02395
G1 X56.066 Y61.454 E.01779
G1 X56.418 Y61.376 E.01197
G1 X56.928 Y61.345 E.01692
G1 X57.537 Y61.381 E.02024
G1 X58.563 Y61.556 E.03452
G1 X60.03 Y62.079 E.05166
G1 X60.589 Y62.227 E.0192
G1 X61.344 Y62.316 E.02522
G1 X61.894 Y62.244 E.0184
G1 X62.396 Y62.058 E.01773
G1 X62.848 Y61.782 E.01758
G1 X63.274 Y61.428 E.01838
G1 X64.407 Y60.303 E.05296
G1 X64.534 Y60.119 E.00743
G1 X64.587 Y59.854 E.00897
G1 X64.488 Y56.415 E.11412
G1 X64.449 Y55.604 E.02694
G1 X64.387 Y54.805 E.02658
G1 X64.311 Y54.113 E.0231
G1 X64.174 Y53.449 E.0225
G1 X64.045 Y53.182 E.00983
G1 X63.942 Y53.107 E.00424
G1 X63.691 Y53.404 F7200
;TYPE:Outer wall
G1 F1800
G1 X63.205 Y53.313 E.0164
G1 X62.603 Y53.258 E.02003
G1 X61.134 Y53.227 E.04875
G1 X60.191 Y53.234 E.03129
G1 X57.187 Y53.335 E.09969
G1 X56.667 Y52.235 E.04035
G1 X56.517 Y51.709 E.01817
G1 X56.415 Y51.076 E.02125
G1 X56.359 Y49.957 E.03716
G1 X56.392 Y49.346 E.0203
G1 X56.542 Y48.382 E.03237
G1 X56.754 Y47.726 E.02287
G1 X57.143 Y46.857 E.03158
G1 X60.486 Y46.842 E.11091
G1 X61.862 Y46.816 E.04566
G1 X63.15 Y46.747 E.04277
G1 X63.664 Y46.689 E.01716
G1 X64.229 Y46.58 E.01909
G1 X64.591 Y46.453 E.01273
G1 X64.885 Y46.283 E.01126
G1 X65.113 Y46.057 E.01065
G1 X65.318 Y45.629 E.01574
G1 X65.383 Y45.244 E.01295
G1 X65.386 Y44.676 E.01885
G1 X65.338 Y43.985 E.02296
G1 X65.037 Y41.165 E.0941
G1 X65.726 Y41.068 E.02309
G1 X66.783 Y41.042 E.03505
G1 X69.801 Y41.04 E.10012
G1 X71.326 Y41.09 E.05061
G1 X71.781 Y41.16 E.01528
G1 X71.614 Y41.905 E.02532
G1 X71.516 Y42.422 E.01744
G1 X71.405 Y43.151 E.02448
G1 X71.254 Y44.326 E.03928
G1 X71.103 Y45.911 E.05282
G1 X71.086 Y47.153 E.04121
G1 X71.133 Y47.286 E.00468
G1 X71.285 Y47.359 E.0056
G1 X78.36 Y47.514 E.23474
G1 X78.322 Y51.513 E.13267
G1 X78.265 Y52.83 E.04372
G1 X78.2 Y53.402 E.01911
G1 X78.025 Y54.06 E.02257
G1 X77.836 Y54.342 E.01129
G1 X77.578 Y54.503 E.01007
G1 X77.298 Y54.564 E.00952
G1 X76.784 Y54.594 E.01706
G1 X76.279 Y54.587 E.01675
G1 X75.78 Y54.519 E.01672
G1 X75.223 Y54.363 E.01917
G1 X74.648 Y54.079 E.02127
G1 X73.812 Y53.891 E.02843
G1 X72.819 Y53.816 E.03303
G1 X71.251 Y53.816 E.05203
G1 X71.115 Y53.928 E.00584
G1 X70.392 Y55.375 E.05365
G1 X70.077 Y56.062 E.02506
G1 X69.878 Y56.647 E.0205
G1 X69.785 Y57.433 E.02625
G1 X69.819 Y58.194 E.02529
G1 X70.162 Y61.616 E.11406
G1 X70.227 Y61.746 E.00483
G1 X71.615 Y62.43 E.05132
G1 X72.485 Y62.791 E.03124
G1 X73.735 Y63.257 E.04428
G1 X75.64 Y63.911 E.06679
G1 X76.126 Y64.102 E.01732
G1 X76.603 Y64.317 E.01736
G1 X76.681 Y64.386 E.00346
G1 X76.808 Y64.949 E.01913
G1 X76.862 Y65.575 E.02085
G1 X76.887 Y66.116 E.01797
G1 X76.905 Y67.121 E.03333
G1 X76.899 Y68.458 E.04437
G1 X76.872 Y69.254 E.02641
G1 X76.823 Y69.905 E.02166
G1 X76.732 Y70.458 E.01856
G1 X76.556 Y71.013 E.01934
G1 X76.298 Y71.323 E.01337
G1 X75.812 Y71.494 E.0171
G1 X75.334 Y71.516 E.0159
G1 X74.628 Y71.473 E.02346
G1 X72.763 Y71.126 E.06291
G1 X68.032 Y70.381 E.1589
G1 X62.437 Y69.566 E.18752
G1 X57.263 Y68.872 E.17319
G1 X56.642 Y68.739 E.02108
G1 X56.242 Y68.57 E.01439
G1 X56.081 Y68.399 E.00777
G1 X55.939 Y68.074 E.01177
G1 X55.836 Y67.397 E.02274
G1 X55.743 Y66.372 E.03414
G1 X55.671 Y65.155 E.04041
G1 X55.624 Y63.889 E.04204
G1 X55.61 Y62.6 E.04276
G1 X55.634 Y61.784 E.02707
G1 X55.705 Y61.173 E.0204
G1 X55.809 Y61.11 E.00405
G1 X56.33 Y60.978 E.01783
G1 X56.884 Y60.936 E.01843
G1 X57.426 Y60.955 E.01796
G1 X58.161 Y61.053 E.02461
G1 X58.658 Y61.16 E.01686
G1 X59.206 Y61.347 E.01921
G1 X59.954 Y61.629 E.02653
G1 X60.544 Y61.81 E.02045
G1 X61.253 Y61.91 E.02377
G1 X61.717 Y61.869 E.01546
G1 X62.15 Y61.726 E.01512
G1 X62.59 Y61.467 E.01691
G1 X62.988 Y61.14 E.0171
G1 X64.12 Y60.015 E.05296
G1 X64.18 Y59.865 E.00535
G1 X64.108 Y57.13 E.09074
G1 X64.043 Y55.635 E.04964
G1 X63.983 Y54.849 E.02618
G1 X63.912 Y54.195 E.02179
G1 X63.775 Y53.531 E.0225
G1 X63.713 Y53.437 E.00374
G1 E-.84
;WIPE_START
G1 X63.205 Y53.313 E-.18831
G1 X62.73 Y53.269 E-.17169
;WIPE_END
G1 Z.6 F7200
G1 X76.934 Y48.053
G1 Z.6
G1 Z.2
G1 E1.2 F1800
;TYPE:Bottom surface
;WIDTH:0.454275
G1 F3600
G1 X77.595 Y48.714 E.03137
G1 X77.59 Y49.291 E.01932
G1 X76.526 Y48.227 E.05042
G1 X75.932 Y48.214 E.01994
G1 X77.585 Y49.867 E.07836
G1 X77.579 Y50.444 E.01932
G1 X75.337 Y48.201 E.1063
G1 X74.742 Y48.188 E.01994
G1 X77.574 Y51.02 E.13424
G1 X77.565 Y51.593 E.01921
G1 X74.147 Y48.175 E.16202
G1 X73.553 Y48.162 E.01994
G1 X77.541 Y52.15 E.18906
G1 X77.517 Y52.708 E.0187
G1 X72.958 Y48.149 E.2161
G1 X72.363 Y48.136 E.01994
G1 X77.461 Y53.234 E.24167
G1 X77.342 Y53.697 E.01602
G1 X71.581 Y47.936 E.2731
G1 E-.84 F1800
;WIPE_START
G1 F3600
G1 X72.288 Y48.643 E-.36
;WIPE_END
G1 Z.6 F7200
G1 X70.995 Y42.114 Z.6
G1 Z.2
G1 E1.2 F1800
G1 F3600
G1 X70.695 Y41.814 E.01421
G1 X70.099 Y41.8 E.01998
G1 X70.75 Y42.451 E.03085
G1 X70.673 Y42.956 E.01712
G1 X69.511 Y41.793 E.05512
G1 X68.929 Y41.794 E.01949
G1 X70.605 Y43.469 E.07943
G1 X70.538 Y43.984 E.01741
G1 X68.348 Y41.794 E.10384
G1 X67.767 Y41.794 E.01949
G1 X70.48 Y44.508 E.12862
G1 X70.429 Y45.039 E.01789
G1 X67.185 Y41.795 E.15379
G1 X66.609 Y41.8 E.01932
G1 X70.379 Y45.57 E.17872
G1 X70.352 Y45.855 E.0096
G1 X70.348 Y46.121 E.0089
G1 X66.042 Y41.816 E.20409
G1 X65.862 Y41.82 E.00605
G1 X65.91 Y42.265 E.01497
G1 X70.52 Y46.875 E.21854
G1 E-.84 F1800
;WIPE_START
G1 F3600
G1 X69.813 Y46.167 E-.36
;WIPE_END
G1 Z.6 F7200
G1 X65.774 Y42.71 Z.6
G1 Z.2
G1 E1.2 F1800
G1 F3600
G1 X70.346 Y47.283 E.21676
G1 X70.354 Y47.362 E.00268
G1 X70.401 Y47.514 E.00531
G1 X70.493 Y47.688 E.00661
G1 X70.685 Y47.899 E.00954
G1 X70.832 Y47.997 E.00596
G1 X71.029 Y48.078 E.00712
G1 X71.161 Y48.097 E.00447
G1 X76.902 Y53.838 E.27215
G1 X76.432 Y53.847 E.01576
G1 X76.315 Y53.834 E.00393
G1 X66.05 Y43.569 E.48661
G1 X66.108 Y44.208 E.02152
G1 X75.6 Y53.7 E.44995
G1 X75.39 Y53.622 E.0075
G1 X74.87 Y53.355 E.0196
G1 X74.619 Y53.301 E.00861
G1 X66.138 Y44.819 E.40205
G1 X66.125 Y45.388 E.01908
G1 X73.877 Y53.141 E.36749
G1 X73.248 Y53.093 E.02115
G1 X66.026 Y45.872 E.34234
G1 X65.852 Y46.279 E.01485
G1 X72.636 Y53.063 E.32158
G1 X72.054 Y53.063 E.0195
G1 X65.607 Y46.616 E.30561
G1 X65.374 Y46.86 E.01133
G1 X65.309 Y46.899 E.00254
G1 X71.472 Y53.063 E.29217
G1 X71.287 Y53.063 E.00619
G1 X71.036 Y53.098 E.00851
G1 X70.958 Y53.13 E.00283
G1 X64.947 Y47.119 E.28495
G1 X64.521 Y47.275 E.01519
G1 X70.605 Y53.359 E.28841
G1 X70.446 Y53.582 E.00918
G1 X70.38 Y53.715 E.00499
G1 X64.051 Y47.387 E.29999
G1 X63.544 Y47.462 E.01719
G1 X70.186 Y54.103 E.31484
G1 X69.992 Y54.491 E.01453
G1 X63.012 Y47.512 E.33085
G1 X62.464 Y47.545 E.01841
G1 X69.798 Y54.879 E.34765
G1 X69.61 Y55.273 E.01463
G1 X61.905 Y47.568 E.36524
G1 X61.335 Y47.579 E.01912
G1 X69.426 Y55.671 E.38357
G1 X69.269 Y56.095 E.01517
G1 X60.764 Y47.59 E.40318
G1 X60.188 Y47.596 E.01929
G1 X69.133 Y56.541 E.424
G1 X69.069 Y57.059 E.01749
G1 X59.609 Y47.599 E.44843
G1 X59.03 Y47.601 E.01942
G1 X69.047 Y57.619 E.47487
G1 X69.068 Y58.221 E.02019
G1 X64.585 Y53.738 E.2125
G1 X64.511 Y53.369 E.01262
G1 X64.416 Y53.113 E.00915
G1 X64.312 Y52.961 E.00618
G1 X64.195 Y52.842 E.0056
G1 X64.045 Y52.738 E.0061
G1 X63.927 Y52.682 E.00439
G1 X63.749 Y52.631 E.00622
G1 X63.434 Y52.587 E.01064
G1 X58.451 Y47.604 E.23623
G1 X57.872 Y47.607 E.01941
G1 X62.777 Y52.512 E.23252
G1 X62.171 Y52.488 E.02031
G1 X57.529 Y47.846 E.22006
G1 X57.358 Y48.257 E.01492
G1 X61.581 Y52.48 E.2002
G1 X60.995 Y52.475 E.01967
G1 X57.237 Y48.718 E.17812
G1 X57.168 Y49.23 E.01733
G1 X60.417 Y52.479 E.15402
G1 X59.848 Y52.492 E.01907
G1 X57.118 Y49.761 E.12944
G1 X57.106 Y50.171 E.01374
M73 P0 R89
G1 X57.118 Y50.343 E.0058
G1 X59.285 Y52.511 E.10274
G1 X58.723 Y52.53 E.01888
G1 X57.162 Y50.969 E.07397
G1 X57.172 Y51.114 E.00488
G1 X57.278 Y51.667 E.01885
G1 X58.337 Y52.726 E.0502
G1 E-.84 F1800
;WIPE_START
G1 F3600
G1 X57.63 Y52.019 E-.36
;WIPE_END
G1 Z.6 F7200
G1 X64.489 Y54.224 Z.6
G1 Z.2
G1 E1.2 F1800
G1 F3600
G1 X69.129 Y58.864 E.21996
G1 X69.194 Y59.511 E.02178
G1 X64.755 Y55.072 E.21042
G1 X64.8 Y55.698 E.02105
G1 X69.259 Y60.157 E.21138
G1 X69.324 Y60.804 E.02178
G1 X64.637 Y56.117 E.22219
G1 E-.84 F1800
;WIPE_START
G1 F3600
G1 X65.344 Y56.824 E-.36
;WIPE_END
G1 Z.6 F7200
G1 X75.215 Y64.368 Z.6
G1 Z.2
G1 E1.2 F1800
G1 F3600
G1 X76.076 Y65.23 E.04085
G1 X76.121 Y65.856 E.02105
G1 X74.624 Y64.358 E.07099
G1 X73.737 Y64.054 E.03141
G1 X76.14 Y66.456 E.11389
G1 X76.151 Y67.049 E.01987
G1 X72.821 Y63.72 E.15782
G1 X71.872 Y63.352 E.03415
G1 X76.15 Y67.63 E.2028
G1 X76.147 Y68.209 E.01941
G1 X70.818 Y62.88 E.2526
G1 X69.941 Y62.453 E.03269
G1 X69.821 Y62.384 E.00464
G1 X69.631 Y62.211 E.00862
G1 X69.506 Y62.02 E.00766
G1 X69.44 Y61.844 E.0063
G1 X69.388 Y61.45 E.0133
G1 X64.856 Y56.918 E.21486
G1 X64.871 Y57.515 E.02001
G1 X76.135 Y68.778 E.53395
G1 X76.111 Y69.336 E.01872
G1 X64.886 Y58.111 E.53211
G1 X64.901 Y58.708 E.02001
G1 X76.065 Y69.872 E.52924
G1 X75.983 Y70.372 E.01698
G1 X64.916 Y59.305 E.52465
G1 X64.931 Y59.901 E.02001
G1 X75.754 Y70.724 E.51306
G1 X75.682 Y70.746 E.00251
G1 X75.339 Y70.762 E.0115
G1 X75.201 Y70.754 E.00464
G1 X64.796 Y60.348 E.49325
G1 X64.705 Y60.491 E.00568
G1 X64.531 Y60.665 E.00825
G1 X74.582 Y70.716 E.47648
G1 X73.838 Y70.554 E.02553
M73 P1 R89
G1 X64.239 Y60.955 E.45503
G1 X63.947 Y61.245 E.01379
G1 X73.129 Y70.427 E.43526
G1 X72.432 Y70.311 E.02367
G1 X63.655 Y61.535 E.41605
G1 X63.353 Y61.814 E.0138
G1 X71.742 Y70.203 E.39765
G1 X71.051 Y70.094 E.02343
G1 X63.031 Y62.074 E.38021
G1 X62.671 Y62.295 E.01417
G1 X70.361 Y69.986 E.36455
G1 X69.671 Y69.877 E.02343
G1 X62.273 Y62.48 E.35067
G1 X61.991 Y62.576 E.01002
G1 X61.824 Y62.612 E.00571
G1 X68.98 Y69.768 E.33923
G1 X68.29 Y69.66 E.02343
G1 X61.294 Y62.664 E.33162
G1 X61.158 Y62.657 E.00458
G1 X60.624 Y62.576 E.01808
G1 X67.607 Y69.558 E.331
G1 X66.926 Y69.459 E.02307
G1 X59.851 Y62.385 E.33537
G1 X58.934 Y62.049 E.03276
G1 X66.245 Y69.36 E.34659
G1 X65.564 Y69.261 E.02307
G1 X58.109 Y61.806 E.35339
G1 X57.438 Y61.716 E.0227
G1 X64.883 Y69.162 E.35294
G1 X64.202 Y69.062 E.02307
G1 X56.833 Y61.693 E.34935
G1 X56.504 Y61.711 E.01102
G1 X56.392 Y61.736 E.00385
G1 X56.386 Y61.828 E.00309
G1 X63.521 Y68.963 E.33827
G1 X62.84 Y68.864 E.02307
G1 X56.367 Y62.39 E.30689
G1 X56.365 Y62.971 E.01945
G1 X62.164 Y68.769 E.27488
G1 X61.49 Y68.678 E.02278
G1 X56.373 Y63.56 E.24259
G1 X56.388 Y64.157 E.02
G1 X60.817 Y68.586 E.20998
G1 X60.144 Y68.494 E.02278
G1 X56.41 Y64.761 E.177
G1 X56.438 Y65.371 E.02047
G1 X59.473 Y68.406 E.14388
G1 X58.808 Y68.322 E.02249
G1 X56.475 Y65.989 E.11058
